P3
256 256
255
255 255 255   255 255 255   255 255 255   255 255 255   255 255 255   255 255 255   255 255 255   255 255 255   255 255 255   255 255 255   255 255 255   255 255 255   255 255 255   255 255 255   255 255 255   255 255 255   255 255 255   255 255 255   255 255 255   255 255 255   255 255 255   255 255 255   255 255 255   255 255 255   255 255 255   255 255 255   255 255 255   255 255 255   255 255 255   255 255 255   255 255 255   255 255 255   255 255 255   255 255 255   255 255 255   255 255 255   255 255 255   255 255 255   255 255 255   255 255 255   255 255 255   255 255 255   255 255 255   255 255 255   255 255 255   255 255 255   255 255 255   255 255 255   255 255 255   255 255 255   255 255 255   255 255 255   255 255 255   255 255 255   255 255 255   255 255 255   255 255 255   255 255 255   255 255 255   255 255 255   255 255 255   255 255 255   255 255 255   255 255 255   255 255 255   255 255 255   255 255 255   255 255 255   255 255 255   255 255 255   255 255 255   255 255 255   255 255 255   255 255 255   255 255 255   255 255 255   255 255 255   255 255 255   255 255 255   255 255 255   255 255 255   255 255 255   255 255 255   255 255 255   255 255 255   255 255 255   255 255 255   255 255 255   255 255 255   255 255 255   255 255 255   255 255 255   255 255 255   255 255 255   255 255 255   255 255 255   255 255 255   255 255 255   255 255 255   255 255 255   255 255 255   255 255 255   255 255 255   255 255 255   255 255 255   255 255 255   255 255 255   255 255 255   255 255 255   255 255 255   255 255 255   255 255 255   255 255 255   255 255 255   255 255 255   255 255 255   255 255 255   255 255 255   255 255 255   255 255 255   255 255 255   255 255 255   255 255 255   255 255 255   255 255 255   255 255 255   255 255 255   255 255 255   255 255 255   255 255 255   255 255 255   255 255 255   255 255 255   255 255 255   255 255 255   255 255 255   255 255 255   255 255 255   255 255 255   255 255 255   255 255 255   255 255 255   255 255 255   255 255 255   255 255 255   255 255 255   255 255 255   255 255 255   255 255 255   255 255 255   255 255 255   255 255 255   255 255 255   255 255 255   255 255 255   255 255 255   255 255 255   255 255 255   255 255 255   255 255 255   255 255 255   255 255 255   255 255 255   255 255 255   255 255 255   255 255 255   255 255 255   255 255 255   255 255 255   255 255 255   255 255 255   255 255 255   255 255 255   255 255 255   255 255 255   255 255 255   255 255 255   255 255 255   255 255 255   255 255 255   255 255 255   255 255 255   255 255 255   255 255 255   255 255 255   255 255 255   255 255 255   255 255 255   255 255 255   255 255 255   255 255 255   255 255 255   255 255 255   255 255 255   255 255 255   255 255 255   255 255 255   255 255 255   255 255 255   255 255 255   255 255 255   255 255 255   255 255 255   255 255 255   255 255 255   255 255 255   255 255 255   255 255 255   255 255 255   255 255 255   255 255 255   255 255 255   255 255 255   255 255 255   255 255 255   255 255 255   255 255 255   255 255 255   255 255 255   255 255 255   255 255 255   255 255 255   255 255 255   255 255 255   255 255 255   255 255 255   255 255 255   255 255 255   255 255 255   255 255 255   255 255 255   255 255 255   255 255 255   255 255 255   255 255 255   255 255 255   255 255 255   255 255 255   255 255 255   255 255 255   255 255 255   255 255 255   255 255 255   255 255 255   255 255 255   255 255 255   255 255 255   255 255 255   255 255 255   255 255 255   255 255 255   255 255 255   255 255 255   255 255 255   255 255 255   255 255 255
255 255 255   255 255 255   255 255 255   255 255 255   255 255 255   255 255 255   255 255 255   255 255 255   255 255 255   255 255 255   255 255 255   255 255 255   255 255 255   255 255 255   255 255 255   255 255 255   255 255 255   255 255 255   255 255 255   255 255 255   255 255 255   255 255 255   255 255 255   255 255 255   255 255 255   255 255 255   255 255 255   255 255 255   255 255 255   255 255 255   255 255 255   255 255 255   255 255 255   255 255 255   255 255 255   255 255 255   255 255 255   255 255 255   255 255 255   255 255 255   255 255 255   255 255 255   255 255 255   255 255 255   255 255 255   255 255 255   255 255 255   255 255 255   255 255 255   255 255 255   255 255 255   255 255 255   255 255 255   255 255 255   255 255 255   255 255 255   255 255 255   255 255 255   255 255 255   255 255 255   255 255 255   255 255 255   255 255 255   255 255 255   255 255 255   255 255 255   255 255 255   255 255 255   255 255 255   255 255 255   255 255 255   255 255 255   255 255 255   255 255 255   255 255 255   255 255 255   255 255 255   255 255 255   255 255 255   255 255 255   255 255 255   255 255 255   255 255 255   255 255 255   255 255 255   255 255 255   255 255 255   255 255 255   255 255 255   255 255 255   255 255 255   255 255 255   255 255 255   255 255 255   255 255 255   255 255 255   255 255 255   255 255 255   255 255 255   255 255 255   255 255 255   255 255 255   255 255 255   255 255 255   255 255 255   255 255 255   255 255 255   255 255 255   255 255 255   255 255 255   255 255 255   255 255 255   255 255 255   255 255 255   255 255 255   255 255 255   255 255 255   255 255 255   255 255 255   255 255 255   255 255 255   255 255 255   255 255 255   255 255 255   255 255 255   255 255 255   255 255 255   255 255 255   255 255 255   255 255 255   255 255 255   255 255 255   255 255 255   255 255 255   255 255 255   255 255 255   255 255 255   255 255 255   255 255 255   255 255 255   255 255 255   255 255 255   255 255 255   255 255 255   255 255 255   255 255 255   255 255 255   255 255 255   255 255 255   255 255 255   255 255 255   255 255 255   255 255 255   255 255 255   255 255 255   255 255 255   255 255 255   255 255 255   255 255 255   255 255 255   255 255 255   255 255 255   255 255 255   255 255 255   255 255 255   255 255 255   255 255 255   255 255 255   255 255 255   255 255 255   255 255 255   255 255 255   255 255 255   255 255 255   255 255 255   255 255 255   255 255 255   255 255 255   255 255 255   255 255 255   255 255 255   255 255 255   255 255 255   255 255 255   255 255 255   255 255 255   255 255 255   255 255 255   255 255 255   255 255 255   255 255 255   255 255 255   255 255 255   255 255 255   255 255 255   255 255 255   255 255 255   255 255 255   255 255 255   255 255 255   255 255 255   255 255 255   255 255 255   255 255 255   255 255 255   255 255 255   255 255 255   255 255 255   255 255 255   255 255 255   255 255 255   255 255 255   255 255 255   255 255 255   255 255 255   255 255 255   255 255 255   255 255 255   255 255 255   255 255 255   255 255 255   255 255 255   255 255 255   255 255 255   255 255 255   255 255 255   255 255 255   255 255 255   255 255 255   255 255 255   255 255 255   255 255 255   255 255 255   255 255 255   255 255 255   255 255 255   255 255 255   255 255 255   255 255 255   255 255 255   255 255 255   255 255 255   255 255 255   255 255 255   255 255 255   255 255 255   255 255 255   255 255 255   255 255 255   255 255 255   255 255 255   255 255 255   255 255 255   255 255 255   255 255 255   255 255 255
255 255 255   255 255 255   255 255 255   255 255 255   255 255 255   255 255 255   255 255 255   255 255 255   255 255 255   255 255 255   255 255 255   255 255 255   255 255 255   255 255 255   255 255 255   255 255 255   255 255 255   255 255 255   255 255 255   255 255 255   255 255 255   255 255 255   255 255 255   255 255 255   255 255 255   255 255 255   255 255 255   255 255 255   255 255 255   255 255 255   255 255 255   255 255 255   255 255 255   255 255 255   255 255 255   255 255 255   255 255 255   255 255 255   255 255 255   255 255 255   255 255 255   255 255 255   255 255 255   255 255 255   255 255 255   255 255 255   255 255 255   255 255 255   255 255 255   255 255 255   255 255 255   255 255 255   255 255 255   255 255 255   255 255 255   255 255 255   255 255 255   255 255 255   255 255 255   255 255 255   255 255 255   255 255 255   255 255 255   255 255 255   255 255 255   255 255 255   255 255 255   255 255 255   255 255 255   255 255 255   255 255 255   255 255 255   255 255 255   255 255 255   255 255 255   255 255 255   255 255 255   255 255 255   255 255 255   255 255 255   255 255 255   255 255 255   255 255 255   255 255 255   255 255 255   255 255 255   255 255 255   255 255 255   255 255 255   255 255 255   255 255 255   255 255 255   255 255 255   255 255 255   255 255 255   255 255 255   255 255 255   255 255 255   255 255 255   255 255 255   255 255 255   255 255 255   255 255 255   255 255 255   255 255 255   255 255 255   255 255 255   255 255 255   255 255 255   255 255 255   255 255 255   255 255 255   255 255 255   255 255 255   255 255 255   255 255 255   255 255 255   255 255 255   255 255 255   255 255 255   255 255 255   255 255 255   255 255 255   255 255 255   255 255 255   255 255 255   255 255 255   255 255 255   255 255 255   255 255 255   255 255 255   255 255 255   255 255 255   255 255 255   255 255 255   255 255 255   255 255 255   255 255 255   255 255 255   255 255 255   255 255 255   255 255 255   255 255 255   255 255 255   255 255 255   255 255 255   255 255 255   255 255 255   255 255 255   255 255 255   255 255 255   255 255 255   255 255 255   255 255 255   255 255 255   255 255 255   255 255 255   255 255 255   255 255 255   255 255 255   255 255 255   255 255 255   255 255 255   255 255 255   255 255 255   255 255 255   255 255 255   255 255 255   255 255 255   255 255 255   255 255 255   255 255 255   255 255 255   255 255 255   255 255 255   255 255 255   255 255 255   255 255 255   255 255 255   255 255 255   255 255 255   255 255 255   255 255 255   255 255 255   255 255 255   255 255 255   255 255 255   255 255 255   255 255 255   255 255 255   255 255 255   255 255 255   255 255 255   255 255 255   255 255 255   255 255 255   255 255 255   255 255 255   255 255 255   255 255 255   255 255 255   255 255 255   255 255 255   255 255 255   255 255 255   255 255 255   255 255 255   255 255 255   255 255 255   255 255 255   255 255 255   255 255 255   255 255 255   255 255 255   255 255 255   255 255 255   255 255 255   255 255 255   255 255 255   255 255 255   255 255 255   255 255 255   255 255 255   255 255 255   255 255 255   255 255 255   255 255 255   255 255 255   255 255 255   255 255 255   255 255 255   255 255 255   255 255 255   255 255 255   255 255 255   255 255 255   255 255 255   255 255 255   255 255 255   255 255 255   255 255 255   255 255 255   255 255 255   255 255 255   255 255 255   255 255 255   255 255 255   255 255 255   255 255 255   255 255 255   255 255 255   255 255 255   255 255 255   255 255 255   255 255 255   255 255 255
255 255 255   255 255 255   255 255 255   255 255 255   255 255 255   255 255 255   255 255 255   255 255 255   255 255 255   255 255 255   255 255 255   255 255 255   255 255 255   255 255 255   255 255 255   255 255 255   255 255 255   255 255 255   255 255 255   255 255 255   255 255 255   255 255 255   255 255 255   255 255 255   255 255 255   255 255 255   255 255 255   255 255 255   255 255 255   255 255 255   255 255 255   255 255 255   255 255 255   255 255 255   255 255 255   255 255 255   255 255 255   255 255 255   255 255 255   255 255 255   255 255 255   255 255 255   255 255 255   255 255 255   255 255 255   255 255 255   255 255 255   255 255 255   255 255 255   255 255 255   255 255 255   255 255 255   255 255 255   255 255 255   255 255 255   255 255 255   255 255 255   255 255 255   255 255 255   255 255 255   255 255 255   255 255 255   255 255 255   255 255 255   255 255 255   255 255 255   255 255 255   255 255 255   255 255 255   255 255 255   255 255 255   255 255 255   255 255 255   255 255 255   255 255 255   255 255 255   255 255 255   255 255 255   255 255 255   255 255 255   255 255 255   255 255 255   255 255 255   255 255 255   255 255 255   255 255 255   255 255 255   255 255 255   255 255 255   255 255 255   255 255 255   255 255 255   255 255 255   255 255 255   255 255 255   255 255 255   255 255 255   255 255 255   255 255 255   255 255 255   255 255 255   255 255 255   255 255 255   255 255 255   255 255 255   255 255 255   255 255 255   255 255 255   255 255 255   255 255 255   255 255 255   255 255 255   255 255 255   255 255 255   255 255 255   255 255 255   255 255 255   255 255 255   255 255 255   255 255 255   255 255 255   255 255 255   255 255 255   255 255 255   255 255 255   255 255 255   255 255 255   255 255 255   255 255 255   255 255 255   255 255 255   255 255 255   255 255 255   255 255 255   255 255 255   255 255 255   255 255 255   255 255 255   255 255 255   255 255 255   255 255 255   255 255 255   255 255 255   255 255 255   255 255 255   255 255 255   255 255 255   255 255 255   255 255 255   255 255 255   255 255 255   255 255 255   255 255 255   255 255 255   255 255 255   255 255 255   255 255 255   255 255 255   255 255 255   255 255 255   255 255 255   255 255 255   255 255 255   255 255 255   255 255 255   255 255 255   255 255 255   255 255 255   255 255 255   255 255 255   255 255 255   255 255 255   255 255 255   255 255 255   255 255 255   255 255 255   255 255 255   255 255 255   255 255 255   255 255 255   255 255 255   255 255 255   255 255 255   255 255 255   255 255 255   255 255 255   255 255 255   255 255 255   255 255 255   255 255 255   255 255 255   255 255 255   255 255 255   255 255 255   255 255 255   255 255 255   255 255 255   255 255 255   255 255 255   255 255 255   255 255 255   255 255 255   255 255 255   255 255 255   255 255 255   255 255 255   255 255 255   255 255 255   255 255 255   255 255 255   255 255 255   255 255 255   255 255 255   255 255 255   255 255 255   255 255 255   255 255 255   255 255 255   255 255 255   255 255 255   255 255 255   255 255 255   255 255 255   255 255 255   255 255 255   255 255 255   255 255 255   255 255 255   255 255 255   255 255 255   255 255 255   255 255 255   255 255 255   255 255 255   255 255 255   255 255 255   255 255 255   255 255 255   255 255 255   255 255 255   255 255 255   255 255 255   255 255 255   255 255 255   255 255 255   255 255 255   255 255 255   255 255 255   255 255 255   255 255 255   255 255 255   255 255 255   255 255 255   255 255 255   255 255 255   255 255 255
255 255 255   255 255 255   255 255 255   255 255 255   255 255 255   255 255 255   255 255 255   255 255 255   255 255 255   255 255 255   255 255 255   255 255 255   255 255 255   255 255 255   255 255 255   255 255 255   255 255 255   255 255 255   255 255 255   255 255 255   255 255 255   255 255 255   255 255 255   255 255 255   255 255 255   255 255 255   255 255 255   255 255 255   255 255 255   255 255 255   255 255 255   255 255 255   255 255 255   255 255 255   255 255 255   255 255 255   255 255 255   255 255 255   255 255 255   255 255 255   255 255 255   255 255 255   255 255 255   255 255 255   255 255 255   255 255 255   255 255 255   255 255 255   255 255 255   255 255 255   255 255 255   255 255 255   255 255 255   255 255 255   255 255 255   255 255 255   255 255 255   255 255 255   255 255 255   255 255 255   255 255 255   255 255 255   255 255 255   255 255 255   255 255 255   255 255 255   255 255 255   255 255 255   255 255 255   255 255 255   255 255 255   255 255 255   255 255 255   255 255 255   255 255 255   255 255 255   255 255 255   255 255 255   255 255 255   255 255 255   255 255 255   255 255 255   255 255 255   255 255 255   255 255 255   255 255 255   255 255 255   255 255 255   255 255 255   255 255 255   255 255 255   255 255 255   255 255 255   255 255 255   255 255 255   255 255 255   255 255 255   255 255 255   255 255 255   255 255 255   255 255 255   255 255 255   255 255 255   255 255 255   255 255 255   255 255 255   255 255 255   255 255 255   255 255 255   255 255 255   255 255 255   255 255 255   255 255 255   255 255 255   255 255 255   255 255 255   255 255 255   255 255 255   255 255 255   255 255 255   255 255 255   255 255 255   255 255 255   255 255 255   255 255 255   255 255 255   255 255 255   255 255 255   255 255 255   255 255 255   255 255 255   255 255 255   255 255 255   255 255 255   255 255 255   255 255 255   255 255 255   255 255 255   255 255 255   255 255 255   255 255 255   255 255 255   255 255 255   255 255 255   255 255 255   255 255 255   255 255 255   255 255 255   255 255 255   255 255 255   255 255 255   255 255 255   255 255 255   255 255 255   255 255 255   255 255 255   255 255 255   255 255 255   255 255 255   255 255 255   255 255 255   255 255 255   255 255 255   255 255 255   255 255 255   255 255 255   255 255 255   255 255 255   255 255 255   255 255 255   255 255 255   255 255 255   255 255 255   255 255 255   255 255 255   255 255 255   255 255 255   255 255 255   255 255 255   255 255 255   255 255 255   255 255 255   255 255 255   255 255 255   255 255 255   255 255 255   255 255 255   255 255 255   255 255 255   255 255 255   255 255 255   255 255 255   255 255 255   255 255 255   255 255 255   255 255 255   255 255 255   255 255 255   255 255 255   255 255 255   255 255 255   255 255 255   255 255 255   255 255 255   255 255 255   255 255 255   255 255 255   255 255 255   255 255 255   255 255 255   255 255 255   255 255 255   255 255 255   255 255 255   255 255 255   255 255 255   255 255 255   255 255 255   255 255 255   255 255 255   255 255 255   255 255 255   255 255 255   255 255 255   255 255 255   255 255 255   255 255 255   255 255 255   255 255 255   255 255 255   255 255 255   255 255 255   255 255 255   255 255 255   255 255 255   255 255 255   255 255 255   255 255 255   255 255 255   255 255 255   255 255 255   255 255 255   255 255 255   255 255 255   255 255 255   255 255 255   255 255 255   255 255 255   255 255 255   255 255 255   255 255 255   255 255 255   255 255 255   255 255 255   255 255 255   255 255 255
255 255 255   255 255 255   255 255 255   255 255 255   255 255 255   255 255 255   255 255 255   255 255 255   255 255 255   255 255 255   255 255 255   255 255 255   255 255 255   255 255 255   255 255 255   255 255 255   255 255 255   255 255 255   255 255 255   255 255 255   255 255 255   255 255 255   255 255 255   255 255 255   255 255 255   255 255 255   255 255 255   255 255 255   255 255 255   255 255 255   255 255 255   255 255 255   255 255 255   255 255 255   255 255 255   255 255 255   255 255 255   255 255 255   255 255 255   255 255 255   255 255 255   255 255 255   255 255 255   255 255 255   255 255 255   255 255 255   255 255 255   255 255 255   255 255 255   255 255 255   255 255 255   255 255 255   255 255 255   255 255 255   255 255 255   255 255 255   255 255 255   255 255 255   255 255 255   255 255 255   255 255 255   255 255 255   255 255 255   255 255 255   255 255 255   255 255 255   255 255 255   255 255 255   255 255 255   255 255 255   255 255 255   255 255 255   255 255 255   255 255 255   255 255 255   255 255 255   255 255 255   255 255 255   255 255 255   255 255 255   255 255 255   255 255 255   255 255 255   255 255 255   255 255 255   255 255 255   255 255 255   255 255 255   255 255 255   255 255 255   255 255 255   255 255 255   255 255 255   255 255 255   255 255 255   255 255 255   255 255 255   255 255 255   255 255 255   255 255 255   255 255 255   255 255 255   255 255 255   255 255 255   255 255 255   255 255 255   255 255 255   255 255 255   255 255 255   255 255 255   255 255 255   255 255 255   255 255 255   255 255 255   255 255 255   255 255 255   255 255 255   255 255 255   255 255 255   255 255 255   255 255 255   255 255 255   255 255 255   255 255 255   255 255 255   255 255 255   255 255 255   255 255 255   255 255 255   255 255 255   255 255 255   255 255 255   255 255 255   255 255 255   255 255 255   255 255 255   255 255 255   255 255 255   255 255 255   255 255 255   255 255 255   255 255 255   255 255 255   255 255 255   255 255 255   255 255 255   255 255 255   255 255 255   255 255 255   255 255 255   255 255 255   255 255 255   255 255 255   255 255 255   255 255 255   255 255 255   255 255 255   255 255 255   255 255 255   255 255 255   255 255 255   255 255 255   255 255 255   255 255 255   255 255 255   255 255 255   255 255 255   255 255 255   255 255 255   255 255 255   255 255 255   255 255 255   255 255 255   255 255 255   255 255 255   255 255 255   255 255 255   255 255 255   255 255 255   255 255 255   255 255 255   255 255 255   255 255 255   255 255 255   255 255 255   255 255 255   255 255 255   255 255 255   255 255 255   255 255 255   255 255 255   255 255 255   255 255 255   255 255 255   255 255 255   255 255 255   255 255 255   255 255 255   255 255 255   255 255 255   255 255 255   255 255 255   255 255 255   255 255 255   255 255 255   255 255 255   255 255 255   255 255 255   255 255 255   255 255 255   255 255 255   255 255 255   255 255 255   255 255 255   255 255 255   255 255 255   255 255 255   255 255 255   255 255 255   255 255 255   255 255 255   255 255 255   255 255 255   255 255 255   255 255 255   255 255 255   255 255 255   255 255 255   255 255 255   255 255 255   255 255 255   255 255 255   255 255 255   255 255 255   255 255 255   255 255 255   255 255 255   255 255 255   255 255 255   255 255 255   255 255 255   255 255 255   255 255 255   255 255 255   255 255 255   255 255 255   255 255 255   255 255 255   255 255 255   255 255 255   255 255 255   255 255 255   255 255 255   255 255 255   255 255 255   255 255 255
255 255 255   255 255 255   255 255 255   255 255 255   255 255 255   255 255 255   255 255 255   255 255 255   255 255 255   255 255 255   255 255 255   255 255 255   255 255 255   255 255 255   255 255 255   255 255 255   255 255 255   255 255 255   255 255 255   255 255 255   255 255 255   255 255 255   255 255 255   255 255 255   255 255 255   255 255 255   255 255 255   255 255 255   255 255 255   255 255 255   255 255 255   255 255 255   255 255 255   255 255 255   255 255 255   255 255 255   255 255 255   255 255 255   255 255 255   255 255 255   255 255 255   255 255 255   255 255 255   255 255 255   255 255 255   255 255 255   255 255 255   255 255 255   255 255 255   255 255 255   255 255 255   255 255 255   255 255 255   255 255 255   255 255 255   255 255 255   255 255 255   255 255 255   255 255 255   255 255 255   255 255 255   255 255 255   255 255 255   255 255 255   255 255 255   255 255 255   255 255 255   255 255 255   255 255 255   255 255 255   255 255 255   255 255 255   255 255 255   255 255 255   255 255 255   255 255 255   255 255 255   255 255 255   255 255 255   255 255 255   255 255 255   255 255 255   255 255 255   255 255 255   255 255 255   255 255 255   255 255 255   255 255 255   255 255 255   255 255 255   255 255 255   255 255 255   255 255 255   255 255 255   255 255 255   255 255 255   255 255 255   255 255 255   255 255 255   255 255 255   255 255 255   255 255 255   255 255 255   255 255 255   255 255 255   255 255 255   255 255 255   255 255 255   255 255 255   255 255 255   255 255 255   255 255 255   255 255 255   255 255 255   255 255 255   255 255 255   255 255 255   255 255 255   255 255 255   255 255 255   255 255 255   255 255 255   255 255 255   255 255 255   255 255 255   255 255 255   255 255 255   255 255 255   255 255 255   255 255 255   255 255 255   255 255 255   255 255 255   255 255 255   255 255 255   255 255 255   255 255 255   255 255 255   255 255 255   255 255 255   255 255 255   255 255 255   255 255 255   255 255 255   255 255 255   255 255 255   255 255 255   255 255 255   255 255 255   255 255 255   255 255 255   255 255 255   255 255 255   255 255 255   255 255 255   255 255 255   255 255 255   255 255 255   255 255 255   255 255 255   255 255 255   255 255 255   255 255 255   255 255 255   255 255 255   255 255 255   255 255 255   255 255 255   255 255 255   255 255 255   255 255 255   255 255 255   255 255 255   255 255 255   255 255 255   255 255 255   255 255 255   255 255 255   255 255 255   255 255 255   255 255 255   255 255 255   255 255 255   255 255 255   255 255 255   255 255 255   255 255 255   255 255 255   255 255 255   255 255 255   255 255 255   255 255 255   255 255 255   255 255 255   255 255 255   255 255 255   255 255 255   255 255 255   255 255 255   255 255 255   255 255 255   255 255 255   255 255 255   255 255 255   255 255 255   255 255 255   255 255 255   255 255 255   255 255 255   255 255 255   255 255 255   255 255 255   255 255 255   255 255 255   255 255 255   255 255 255   255 255 255   255 255 255   255 255 255   255 255 255   255 255 255   255 255 255   255 255 255   255 255 255   255 255 255   255 255 255   255 255 255   255 255 255   255 255 255   255 255 255   255 255 255   255 255 255   255 255 255   255 255 255   255 255 255   255 255 255   255 255 255   255 255 255   255 255 255   255 255 255   255 255 255   255 255 255   255 255 255   255 255 255   255 255 255   255 255 255   255 255 255   255 255 255   255 255 255   255 255 255   255 255 255   255 255 255   255 255 255   255 255 255   255 255 255   255 255 255
255 255 255   255 255 255   255 255 255   255 255 255   255 255 255   255 255 255   255 255 255   255 255 255   255 255 255   255 255 255   255 255 255   255 255 255   255 255 255   255 255 255   255 255 255   255 255 255   255 255 255   255 255 255   255 255 255   255 255 255   255 255 255   255 255 255   255 255 255   255 255 255   255 255 255   255 255 255   255 255 255   255 255 255   255 255 255   255 255 255   255 255 255   255 255 255   255 255 255   255 255 255   255 255 255   255 255 255   255 255 255   255 255 255   255 255 255   255 255 255   255 255 255   255 255 255   255 255 255   255 255 255   255 255 255   255 255 255   255 255 255   255 255 255   255 255 255   255 255 255   255 255 255   255 255 255   255 255 255   255 255 255   255 255 255   255 255 255   255 255 255   255 255 255   255 255 255   255 255 255   255 255 255   255 255 255   255 255 255   255 255 255   255 255 255   255 255 255   255 255 255   255 255 255   255 255 255   255 255 255   255 255 255   255 255 255   255 255 255   255 255 255   255 255 255   255 255 255   255 255 255   255 255 255   255 255 255   255 255 255   255 255 255   255 255 255   255 255 255   255 255 255   255 255 255   255 255 255   255 255 255   255 255 255   255 255 255   255 255 255   255 255 255   255 255 255   255 255 255   255 255 255   255 255 255   255 255 255   255 255 255   255 255 255   255 255 255   255 255 255   255 255 255   255 255 255   255 255 255   255 255 255   255 255 255   255 255 255   255 255 255   255 255 255   255 255 255   255 255 255   255 255 255   255 255 255   255 255 255   255 255 255   255 255 255   255 255 255   255 255 255   255 255 255   255 255 255   255 255 255   255 255 255   255 255 255   255 255 255   255 255 255   255 255 255   255 255 255   255 255 255   255 255 255   255 255 255   255 255 255   255 255 255   255 255 255   255 255 255   255 255 255   255 255 255   255 255 255   255 255 255   255 255 255   255 255 255   255 255 255   255 255 255   255 255 255   255 255 255   255 255 255   255 255 255   255 255 255   255 255 255   255 255 255   255 255 255   255 255 255   255 255 255   255 255 255   255 255 255   255 255 255   255 255 255   255 255 255   255 255 255   255 255 255   255 255 255   255 255 255   255 255 255   255 255 255   255 255 255   255 255 255   255 255 255   255 255 255   255 255 255   255 255 255   255 255 255   255 255 255   255 255 255   255 255 255   255 255 255   255 255 255   255 255 255   255 255 255   255 255 255   255 255 255   255 255 255   255 255 255   255 255 255   255 255 255   255 255 255   255 255 255   255 255 255   255 255 255   255 255 255   255 255 255   255 255 255   255 255 255   255 255 255   255 255 255   255 255 255   255 255 255   255 255 255   255 255 255   255 255 255   255 255 255   255 255 255   255 255 255   255 255 255   255 255 255   255 255 255   255 255 255   255 255 255   255 255 255   255 255 255   255 255 255   255 255 255   255 255 255   255 255 255   255 255 255   255 255 255   255 255 255   255 255 255   255 255 255   255 255 255   255 255 255   255 255 255   255 255 255   255 255 255   255 255 255   255 255 255   255 255 255   255 255 255   255 255 255   255 255 255   255 255 255   255 255 255   255 255 255   255 255 255   255 255 255   255 255 255   255 255 255   255 255 255   255 255 255   255 255 255   255 255 255   255 255 255   255 255 255   255 255 255   255 255 255   255 255 255   255 255 255   255 255 255   255 255 255   255 255 255   255 255 255   255 255 255   255 255 255   255 255 255   255 255 255   255 255 255   255 255 255   255 255 255   255 255 255
255 255 255   255 255 255   255 255 255   255 255 255   255 255 255   255 255 255   255 255 255   255 255 255   255 255 255   255 255 255   255 255 255   255 255 255   255 255 255   255 255 255   255 255 255   255 255 255   255 255 255   255 255 255   255 255 255   255 255 255   255 255 255   255 255 255   255 255 255   255 255 255   255 255 255   255 255 255   255 255 255   255 255 255   255 255 255   255 255 255   255 255 255   255 255 255   255 255 255   255 255 255   255 255 255   255 255 255   255 255 255   255 255 255   255 255 255   255 255 255   255 255 255   255 255 255   255 255 255   255 255 255   255 255 255   255 255 255   255 255 255   255 255 255   255 255 255   255 255 255   255 255 255   255 255 255   255 255 255   255 255 255   255 255 255   255 255 255   255 255 255   255 255 255   255 255 255   255 255 255   255 255 255   255 255 255   255 255 255   255 255 255   255 255 255   255 255 255   255 255 255   255 255 255   255 255 255   255 255 255   255 255 255   255 255 255   255 255 255   255 255 255   255 255 255   255 255 255   255 255 255   255 255 255   255 255 255   255 255 255   255 255 255   255 255 255   255 255 255   255 255 255   255 255 255   255 255 255   255 255 255   255 255 255   255 255 255   255 255 255   255 255 255   255 255 255   255 255 255   255 255 255   255 255 255   255 255 255   255 255 255   255 255 255   255 255 255   255 255 255   255 255 255   255 255 255   255 255 255   255 255 255   255 255 255   255 255 255   255 255 255   255 255 255   255 255 255   255 255 255   255 255 255   255 255 255   255 255 255   255 255 255   255 255 255   255 255 255   255 255 255   255 255 255   255 255 255   255 255 255   255 255 255   255 255 255   255 255 255   255 255 255   255 255 255   255 255 255   255 255 255   255 255 255   255 255 255   255 255 255   255 255 255   255 255 255   255 255 255   255 255 255   255 255 255   255 255 255   255 255 255   255 255 255   255 255 255   255 255 255   255 255 255   255 255 255   255 255 255   255 255 255   255 255 255   255 255 255   255 255 255   255 255 255   255 255 255   255 255 255   255 255 255   255 255 255   255 255 255   255 255 255   255 255 255   255 255 255   255 255 255   255 255 255   255 255 255   255 255 255   255 255 255   255 255 255   255 255 255   255 255 255   255 255 255   255 255 255   255 255 255   255 255 255   255 255 255   255 255 255   255 255 255   255 255 255   255 255 255   255 255 255   255 255 255   255 255 255   255 255 255   255 255 255   255 255 255   255 255 255   255 255 255   255 255 255   255 255 255   255 255 255   255 255 255   255 255 255   255 255 255   255 255 255   255 255 255   255 255 255   255 255 255   255 255 255   255 255 255   255 255 255   255 255 255   255 255 255   255 255 255   255 255 255   255 255 255   255 255 255   255 255 255   255 255 255   255 255 255   255 255 255   255 255 255   255 255 255   255 255 255   255 255 255   255 255 255   255 255 255   255 255 255   255 255 255   255 255 255   255 255 255   255 255 255   255 255 255   255 255 255   255 255 255   255 255 255   255 255 255   255 255 255   255 255 255   255 255 255   255 255 255   255 255 255   255 255 255   255 255 255   255 255 255   255 255 255   255 255 255   255 255 255   255 255 255   255 255 255   255 255 255   255 255 255   255 255 255   255 255 255   255 255 255   255 255 255   255 255 255   255 255 255   255 255 255   255 255 255   255 255 255   255 255 255   255 255 255   255 255 255   255 255 255   255 255 255   255 255 255   255 255 255   255 255 255   255 255 255   255 255 255   255 255 255   255 255 255
255 255 255   255 255 255   255 255 255   255 255 255   255 255 255   255 255 255   255 255 255   255 255 255   255 255 255   255 255 255   255 255 255   255 255 255   255 255 255   255 255 255   255 255 255   255 255 255   255 255 255   255 255 255   255 255 255   255 255 255   255 255 255   255 255 255   255 255 255   255 255 255   255 255 255   255 255 255   255 255 255   255 255 255   255 255 255   255 255 255   255 255 255   255 255 255   255 255 255   255 255 255   255 255 255   255 255 255   255 255 255   255 255 255   255 255 255   255 255 255   255 255 255   255 255 255   255 255 255   255 255 255   255 255 255   255 255 255   255 255 255   255 255 255   255 255 255   255 255 255   255 255 255   255 255 255   255 255 255   255 255 255   255 255 255   255 255 255   255 255 255   255 255 255   255 255 255   255 255 255   255 255 255   255 255 255   255 255 255   255 255 255   255 255 255   255 255 255   255 255 255   255 255 255   255 255 255   255 255 255   255 255 255   255 255 255   255 255 255   255 255 255   255 255 255   255 255 255   255 255 255   255 255 255   255 255 255   255 255 255   255 255 255   255 255 255   255 255 255   255 255 255   255 255 255   255 255 255   255 255 255   255 255 255   255 255 255   255 255 255   255 255 255   255 255 255   255 255 255   255 255 255   255 255 255   255 255 255   255 255 255   255 255 255   255 255 255   255 255 255   255 255 255   255 255 255   255 255 255   255 255 255   255 255 255   255 255 255   255 255 255   255 255 255   255 255 255   255 255 255   255 255 255   255 255 255   255 255 255   255 255 255   255 255 255   255 255 255   255 255 255   255 255 255   255 255 255   255 255 255   255 255 255   255 255 255   255 255 255   255 255 255   255 255 255   255 255 255   255 255 255   255 255 255   255 255 255   255 255 255   255 255 255   255 255 255   255 255 255   255 255 255   255 255 255   255 255 255   255 255 255   255 255 255   255 255 255   255 255 255   255 255 255   255 255 255   255 255 255   255 255 255   255 255 255   255 255 255   255 255 255   255 255 255   255 255 255   255 255 255   255 255 255   255 255 255   255 255 255   255 255 255   255 255 255   255 255 255   255 255 255   255 255 255   255 255 255   255 255 255   255 255 255   255 255 255   255 255 255   255 255 255   255 255 255   255 255 255   255 255 255   255 255 255   255 255 255   255 255 255   255 255 255   255 255 255   255 255 255   255 255 255   255 255 255   255 255 255   255 255 255   255 255 255   255 255 255   255 255 255   255 255 255   255 255 255   255 255 255   255 255 255   255 255 255   255 255 255   255 255 255   255 255 255   255 255 255   255 255 255   255 255 255   255 255 255   255 255 255   255 255 255   255 255 255   255 255 255   255 255 255   255 255 255   255 255 255   255 255 255   255 255 255   255 255 255   255 255 255   255 255 255   255 255 255   255 255 255   255 255 255   255 255 255   255 255 255   255 255 255   255 255 255   255 255 255   255 255 255   255 255 255   255 255 255   255 255 255   255 255 255   255 255 255   255 255 255   255 255 255   255 255 255   255 255 255   255 255 255   255 255 255   255 255 255   255 255 255   255 255 255   255 255 255   255 255 255   255 255 255   255 255 255   255 255 255   255 255 255   255 255 255   255 255 255   255 255 255   255 255 255   255 255 255   255 255 255   255 255 255   255 255 255   255 255 255   255 255 255   255 255 255   255 255 255   255 255 255   255 255 255   255 255 255   255 255 255   255 255 255   255 255 255   255 255 255   255 255 255   255 255 255   255 255 255   255 255 255
255 255 255   255 255 255   255 255 255   255 255 255   255 255 255   255 255 255   255 255 255   255 255 255   255 255 255   255 255 255   255 255 255   255 255 255   255 255 255   255 255 255   255 255 255   255 255 255   255 255 255   255 255 255   255 255 255   255 255 255   255 255 255   255 255 255   255 255 255   255 255 255   255 255 255   255 255 255   255 255 255   255 255 255   255 255 255   255 255 255   255 255 255   255 255 255   255 255 255   255 255 255   255 255 255   255 255 255   255 255 255   255 255 255   255 255 255   255 255 255   255 255 255   255 255 255   255 255 255   255 255 255   255 255 255   255 255 255   255 255 255   255 255 255   255 255 255   255 255 255   255 255 255   255 255 255   255 255 255   255 255 255   255 255 255   255 255 255   255 255 255   255 255 255   255 255 255   255 255 255   255 255 255   255 255 255   255 255 255   255 255 255   255 255 255   255 255 255   255 255 255   255 255 255   255 255 255   255 255 255   255 255 255   255 255 255   255 255 255   255 255 255   255 255 255   255 255 255   255 255 255   255 255 255   255 255 255   255 255 255   255 255 255   255 255 255   255 255 255   255 255 255   255 255 255   255 255 255   255 255 255   255 255 255   255 255 255   255 255 255   255 255 255   255 255 255   255 255 255   255 255 255   255 255 255   255 255 255   255 255 255   255 255 255   255 255 255   255 255 255   255 255 255   255 255 255   255 255 255   255 255 255   255 255 255   255 255 255   255 255 255   255 255 255   255 255 255   255 255 255   255 255 255   255 255 255   255 255 255   255 255 255   255 255 255   255 255 255   255 255 255   255 255 255   255 255 255   255 255 255   255 255 255   255 255 255   255 255 255   255 255 255   255 255 255   255 255 255   255 255 255   255 255 255   255 255 255   255 255 255   255 255 255   255 255 255   255 255 255   255 255 255   255 255 255   255 255 255   255 255 255   255 255 255   255 255 255   255 255 255   255 255 255   255 255 255   255 255 255   255 255 255   255 255 255   255 255 255   255 255 255   255 255 255   255 255 255   255 255 255   255 255 255   255 255 255   255 255 255   255 255 255   255 255 255   255 255 255   255 255 255   255 255 255   255 255 255   255 255 255   255 255 255   255 255 255   255 255 255   255 255 255   255 255 255   255 255 255   255 255 255   255 255 255   255 255 255   255 255 255   255 255 255   255 255 255   255 255 255   255 255 255   255 255 255   255 255 255   255 255 255   255 255 255   255 255 255   255 255 255   255 255 255   255 255 255   255 255 255   255 255 255   255 255 255   255 255 255   255 255 255   255 255 255   255 255 255   255 255 255   255 255 255   255 255 255   255 255 255   255 255 255   255 255 255   255 255 255   255 255 255   255 255 255   255 255 255   255 255 255   255 255 255   255 255 255   255 255 255   255 255 255   255 255 255   255 255 255   255 255 255   255 255 255   255 255 255   255 255 255   255 255 255   255 255 255   255 255 255   255 255 255   255 255 255   255 255 255   255 255 255   255 255 255   255 255 255   255 255 255   255 255 255   255 255 255   255 255 255   255 255 255   255 255 255   255 255 255   255 255 255   255 255 255   255 255 255   255 255 255   255 255 255   255 255 255   255 255 255   255 255 255   255 255 255   255 255 255   255 255 255   255 255 255   255 255 255   255 255 255   255 255 255   255 255 255   255 255 255   255 255 255   255 255 255   255 255 255   255 255 255   255 255 255   255 255 255   255 255 255   255 255 255   255 255 255   255 255 255   255 255 255   255 255 255   255 255 255
255 255 255   255 255 255   255 255 255   255 255 255   255 255 255   255 255 255   255 255 255   255 255 255   255 255 255   255 255 255   255 255 255   255 255 255   255 255 255   255 255 255   255 255 255   255 255 255   255 255 255   255 255 255   255 255 255   255 255 255   255 255 255   255 255 255   255 255 255   255 255 255   255 255 255   255 255 255   255 255 255   255 255 255   255 255 255   255 255 255   255 255 255   255 255 255   255 255 255   255 255 255   255 255 255   255 255 255   255 255 255   255 255 255   255 255 255   255 255 255   255 255 255   255 255 255   255 255 255   255 255 255   255 255 255   255 255 255   255 255 255   255 255 255   255 255 255   255 255 255   255 255 255   255 255 255   255 255 255   255 255 255   255 255 255   255 255 255   255 255 255   255 255 255   255 255 255   255 255 255   255 255 255   255 255 255   255 255 255   255 255 255   255 255 255   255 255 255   255 255 255   255 255 255   255 255 255   255 255 255   255 255 255   255 255 255   255 255 255   255 255 255   255 255 255   255 255 255   255 255 255   255 255 255   255 255 255   255 255 255   255 255 255   255 255 255   255 255 255   255 255 255   255 255 255   255 255 255   255 255 255   255 255 255   255 255 255   255 255 255   255 255 255   255 255 255   255 255 255   255 255 255   255 255 255   255 255 255   255 255 255   255 255 255   255 255 255   255 255 255   255 255 255   255 255 255   255 255 255   255 255 255   255 255 255   255 255 255   255 255 255   255 255 255   255 255 255   255 255 255   255 255 255   255 255 255   255 255 255   255 255 255   255 255 255   255 255 255   255 255 255   255 255 255   255 255 255   255 255 255   255 255 255   255 255 255   255 255 255   255 255 255   255 255 255   255 255 255   255 255 255   255 255 255   255 255 255   255 255 255   255 255 255   255 255 255   255 255 255   255 255 255   255 255 255   255 255 255   255 255 255   255 255 255   255 255 255   255 255 255   255 255 255   255 255 255   255 255 255   255 255 255   255 255 255   255 255 255   255 255 255   255 255 255   255 255 255   255 255 255   255 255 255   255 255 255   255 255 255   255 255 255   255 255 255   255 255 255   255 255 255   255 255 255   255 255 255   255 255 255   255 255 255   255 255 255   255 255 255   255 255 255   255 255 255   255 255 255   255 255 255   255 255 255   255 255 255   255 255 255   255 255 255   255 255 255   255 255 255   255 255 255   255 255 255   255 255 255   255 255 255   255 255 255   255 255 255   255 255 255   255 255 255   255 255 255   255 255 255   255 255 255   255 255 255   255 255 255   255 255 255   255 255 255   255 255 255   255 255 255   255 255 255   255 255 255   255 255 255   255 255 255   255 255 255   255 255 255   255 255 255   255 255 255   255 255 255   255 255 255   255 255 255   255 255 255   255 255 255   255 255 255   255 255 255   255 255 255   255 255 255   255 255 255   255 255 255   255 255 255   255 255 255   255 255 255   255 255 255   255 255 255   255 255 255   255 255 255   255 255 255   255 255 255   255 255 255   255 255 255   255 255 255   255 255 255   255 255 255   255 255 255   255 255 255   255 255 255   255 255 255   255 255 255   255 255 255   255 255 255   255 255 255   255 255 255   255 255 255   255 255 255   255 255 255   255 255 255   255 255 255   255 255 255   255 255 255   255 255 255   255 255 255   255 255 255   255 255 255   255 255 255   255 255 255   255 255 255   255 255 255   255 255 255   255 255 255   255 255 255   255 255 255   255 255 255   255 255 255   255 255 255   255 255 255   255 255 255
255 255 255   255 255 255   255 255 255   255 255 255   255 255 255   255 255 255   255 255 255   255 255 255   255 255 255   255 255 255   255 255 255   255 255 255   255 255 255   255 255 255   255 255 255   255 255 255   255 255 255   255 255 255   255 255 255   255 255 255   255 255 255   255 255 255   255 255 255   255 255 255   255 255 255   255 255 255   255 255 255   255 255 255   255 255 255   255 255 255   255 255 255   255 255 255   255 255 255   255 255 255   255 255 255   255 255 255   255 255 255   255 255 255   255 255 255   255 255 255   255 255 255   255 255 255   255 255 255   255 255 255   255 255 255   255 255 255   255 255 255   255 255 255   255 255 255   255 255 255   255 255 255   255 255 255   255 255 255   255 255 255   255 255 255   255 255 255   255 255 255   255 255 255   255 255 255   255 255 255   255 255 255   255 255 255   255 255 255   255 255 255   255 255 255   255 255 255   255 255 255   255 255 255   255 255 255   255 255 255   255 255 255   255 255 255   255 255 255   255 255 255   255 255 255   255 255 255   255 255 255   255 255 255   255 255 255   255 255 255   255 255 255   255 255 255   255 255 255   255 255 255   255 255 255   255 255 255   255 255 255   255 255 255   255 255 255   255 255 255   255 255 255   255 255 255   255 255 255   255 255 255   255 255 255   255 255 255   255 255 255   255 255 255   255 255 255   255 255 255   255 255 255   255 255 255   255 255 255   255 255 255   255 255 255   255 255 255   255 255 255   255 255 255   255 255 255   255 255 255   255 255 255   255 255 255   255 255 255   255 255 255   255 255 255   255 255 255   255 255 255   255 255 255   255 255 255   255 255 255   255 255 255   255 255 255   255 255 255   255 255 255   255 255 255   255 255 255   255 255 255   255 255 255   255 255 255   255 255 255   255 255 255   255 255 255   255 255 255   255 255 255   255 255 255   255 255 255   255 255 255   255 255 255   255 255 255   255 255 255   255 255 255   255 255 255   255 255 255   255 255 255   255 255 255   255 255 255   255 255 255   255 255 255   255 255 255   255 255 255   255 255 255   255 255 255   255 255 255   255 255 255   255 255 255   255 255 255   255 255 255   255 255 255   255 255 255   255 255 255   255 255 255   255 255 255   255 255 255   255 255 255   255 255 255   255 255 255   255 255 255   255 255 255   255 255 255   255 255 255   255 255 255   255 255 255   255 255 255   255 255 255   255 255 255   255 255 255   255 255 255   255 255 255   255 255 255   255 255 255   255 255 255   255 255 255   255 255 255   255 255 255   255 255 255   255 255 255   255 255 255   255 255 255   255 255 255   255 255 255   255 255 255   255 255 255   255 255 255   255 255 255   255 255 255   255 255 255   255 255 255   255 255 255   255 255 255   255 255 255   255 255 255   255 255 255   255 255 255   255 255 255   255 255 255   255 255 255   255 255 255   255 255 255   255 255 255   255 255 255   255 255 255   255 255 255   255 255 255   255 255 255   255 255 255   255 255 255   255 255 255   255 255 255   255 255 255   255 255 255   255 255 255   255 255 255   255 255 255   255 255 255   255 255 255   255 255 255   255 255 255   255 255 255   255 255 255   255 255 255   255 255 255   255 255 255   255 255 255   255 255 255   255 255 255   255 255 255   255 255 255   255 255 255   255 255 255   255 255 255   255 255 255   255 255 255   255 255 255   255 255 255   255 255 255   255 255 255   255 255 255   255 255 255   255 255 255   255 255 255   255 255 255   255 255 255   255 255 255   255 255 255   255 255 255   255 255 255
255 255 255   255 255 255   255 255 255   255 255 255   255 255 255   255 255 255   255 255 255   255 255 255   255 255 255   255 255 255   255 255 255   255 255 255   255 255 255   255 255 255   255 255 255   255 255 255   255 255 255   255 255 255   255 255 255   255 255 255   255 255 255   255 255 255   255 255 255   255 255 255   255 255 255   255 255 255   255 255 255   255 255 255   255 255 255   255 255 255   255 255 255   255 255 255   255 255 255   255 255 255   255 255 255   255 255 255   255 255 255   255 255 255   255 255 255   255 255 255   255 255 255   255 255 255   255 255 255   255 255 255   255 255 255   255 255 255   255 255 255   255 255 255   255 255 255   255 255 255   255 255 255   255 255 255   255 255 255   255 255 255   255 255 255   255 255 255   255 255 255   255 255 255   255 255 255   255 255 255   255 255 255   255 255 255   255 255 255   255 255 255   255 255 255   255 255 255   255 255 255   255 255 255   255 255 255   255 255 255   255 255 255   255 255 255   255 255 255   255 255 255   255 255 255   255 255 255   255 255 255   255 255 255   255 255 255   255 255 255   255 255 255   255 255 255   255 255 255   255 255 255   255 255 255   255 255 255   255 255 255   255 255 255   255 255 255   255 255 255   255 255 255   255 255 255   255 255 255   255 255 255   255 255 255   255 255 255   255 255 255   255 255 255   255 255 255   255 255 255   255 255 255   255 255 255   255 255 255   255 255 255   255 255 255   255 255 255   255 255 255   255 255 255   255 255 255   255 255 255   255 255 255   255 255 255   255 255 255   255 255 255   255 255 255   255 255 255   255 255 255   255 255 255   255 255 255   255 255 255   255 255 255   255 255 255   255 255 255   255 255 255   255 255 255   255 255 255   255 255 255   255 255 255   255 255 255   255 255 255   255 255 255   255 255 255   255 255 255   255 255 255   255 255 255   255 255 255   255 255 255   255 255 255   255 255 255   255 255 255   255 255 255   255 255 255   255 255 255   255 255 255   255 255 255   255 255 255   255 255 255   255 255 255   255 255 255   255 255 255   255 255 255   255 255 255   255 255 255   255 255 255   255 255 255   255 255 255   255 255 255   255 255 255   255 255 255   255 255 255   255 255 255   255 255 255   255 255 255   255 255 255   255 255 255   255 255 255   255 255 255   255 255 255   255 255 255   255 255 255   255 255 255   255 255 255   255 255 255   255 255 255   255 255 255   255 255 255   255 255 255   255 255 255   255 255 255   255 255 255   255 255 255   255 255 255   255 255 255   255 255 255   255 255 255   255 255 255   255 255 255   255 255 255   255 255 255   255 255 255   255 255 255   255 255 255   255 255 255   255 255 255   255 255 255   255 255 255   255 255 255   255 255 255   255 255 255   255 255 255   255 255 255   255 255 255   255 255 255   255 255 255   255 255 255   255 255 255   255 255 255   255 255 255   255 255 255   255 255 255   255 255 255   255 255 255   255 255 255   255 255 255   255 255 255   255 255 255   255 255 255   255 255 255   255 255 255   255 255 255   255 255 255   255 255 255   255 255 255   255 255 255   255 255 255   255 255 255   255 255 255   255 255 255   255 255 255   255 255 255   255 255 255   255 255 255   255 255 255   255 255 255   255 255 255   255 255 255   255 255 255   255 255 255   255 255 255   255 255 255   255 255 255   255 255 255   255 255 255   255 255 255   255 255 255   255 255 255   255 255 255   255 255 255   255 255 255   255 255 255   255 255 255   255 255 255   255 255 255   255 255 255   255 255 255   255 255 255
255 255 255   255 255 255   255 255 255   255 255 255   255 255 255   255 255 255   255 255 255   255 255 255   255 255 255   255 255 255   255 255 255   255 255 255   255 255 255   255 255 255   255 255 255   255 255 255   255 255 255   255 255 255   255 255 255   255 255 255   255 255 255   255 255 255   255 255 255   255 255 255   255 255 255   255 255 255   255 255 255   255 255 255   255 255 255   255 255 255   255 255 255   255 255 255   255 255 255   255 255 255   255 255 255   255 255 255   255 255 255   255 255 255   255 255 255   255 255 255   255 255 255   255 255 255   255 255 255   255 255 255   255 255 255   255 255 255   255 255 255   255 255 255   255 255 255   255 255 255   255 255 255   255 255 255   255 255 255   255 255 255   255 255 255   255 255 255   255 255 255   255 255 255   255 255 255   255 255 255   255 255 255   255 255 255   255 255 255   255 255 255   255 255 255   255 255 255   255 255 255   255 255 255   255 255 255   255 255 255   255 255 255   255 255 255   255 255 255   255 255 255   255 255 255   255 255 255   255 255 255   255 255 255   255 255 255   255 255 255   255 255 255   255 255 255   255 255 255   255 255 255   255 255 255   255 255 255   255 255 255   255 255 255   255 255 255   255 255 255   255 255 255   255 255 255   255 255 255   255 255 255   255 255 255   255 255 255   255 255 255   255 255 255   255 255 255   255 255 255   255 255 255   255 255 255   255 255 255   255 255 255   255 255 255   255 255 255   255 255 255   255 255 255   255 255 255   255 255 255   255 255 255   255 255 255   255 255 255   255 255 255   255 255 255   255 255 255   255 255 255   255 255 255   255 255 255   255 255 255   255 255 255   255 255 255   255 255 255   255 255 255   255 255 255   255 255 255   255 255 255   255 255 255   255 255 255   255 255 255   255 255 255   255 255 255   255 255 255   255 255 255   255 255 255   255 255 255   255 255 255   255 255 255   255 255 255   255 255 255   255 255 255   255 255 255   255 255 255   255 255 255   255 255 255   255 255 255   255 255 255   255 255 255   255 255 255   255 255 255   255 255 255   255 255 255   255 255 255   255 255 255   255 255 255   255 255 255   255 255 255   255 255 255   255 255 255   255 255 255   255 255 255   255 255 255   255 255 255   255 255 255   255 255 255   255 255 255   255 255 255   255 255 255   255 255 255   255 255 255   255 255 255   255 255 255   255 255 255   255 255 255   255 255 255   255 255 255   255 255 255   255 255 255   255 255 255   255 255 255   255 255 255   255 255 255   255 255 255   255 255 255   255 255 255   255 255 255   255 255 255   255 255 255   255 255 255   255 255 255   255 255 255   255 255 255   255 255 255   255 255 255   255 255 255   255 255 255   255 255 255   255 255 255   255 255 255   255 255 255   255 255 255   255 255 255   255 255 255   255 255 255   255 255 255   255 255 255   255 255 255   255 255 255   255 255 255   255 255 255   255 255 255   255 255 255   255 255 255   255 255 255   255 255 255   255 255 255   255 255 255   255 255 255   255 255 255   255 255 255   255 255 255   255 255 255   255 255 255   255 255 255   255 255 255   255 255 255   255 255 255   255 255 255   255 255 255   255 255 255   255 255 255   255 255 255   255 255 255   255 255 255   255 255 255   255 255 255   255 255 255   255 255 255   255 255 255   255 255 255   255 255 255   255 255 255   255 255 255   255 255 255   255 255 255   255 255 255   255 255 255   255 255 255   255 255 255   255 255 255   255 255 255   255 255 255   255 255 255   255 255 255   255 255 255   255 255 255
255 255 255   255 255 255   255 255 255   255 255 255   255 255 255   255 255 255   255 255 255   255 255 255   255 255 255   255 255 255   255 255 255   255 255 255   255 255 255   255 255 255   255 255 255   255 255 255   255 255 255   255 255 255   255 255 255   255 255 255   255 255 255   255 255 255   255 255 255   255 255 255   255 255 255   255 255 255   255 255 255   255 255 255   255 255 255   255 255 255   255 255 255   255 255 255   255 255 255   255 255 255   255 255 255   255 255 255   255 255 255   255 255 255   255 255 255   255 255 255   255 255 255   255 255 255   255 255 255   255 255 255   255 255 255   255 255 255   255 255 255   255 255 255   255 255 255   255 255 255   255 255 255   255 255 255   255 255 255   255 255 255   255 255 255   255 255 255   255 255 255   255 255 255   255 255 255   255 255 255   255 255 255   255 255 255   255 255 255   255 255 255   255 255 255   255 255 255   255 255 255   255 255 255   255 255 255   255 255 255   255 255 255   255 255 255   255 255 255   255 255 255   255 255 255   255 255 255   255 255 255   255 255 255   255 255 255   255 255 255   255 255 255   255 255 255   255 255 255   255 255 255   255 255 255   255 255 255   255 255 255   255 255 255   255 255 255   255 255 255   255 255 255   255 255 255   255 255 255   255 255 255   255 255 255   255 255 255   255 255 255   255 255 255   255 255 255   255 255 255   255 255 255   255 255 255   255 255 255   255 255 255   255 255 255   255 255 255   255 255 255   255 255 255   255 255 255   255 255 255   255 255 255   255 255 255   255 255 255   255 255 255   255 255 255   255 255 255   255 255 255   255 255 255   255 255 255   255 255 255   255 255 255   255 255 255   255 255 255   255 255 255   255 255 255   255 255 255   255 255 255   255 255 255   255 255 255   255 255 255   255 255 255   255 255 255   255 255 255   255 255 255   255 255 255   255 255 255   255 255 255   255 255 255   255 255 255   255 255 255   255 255 255   255 255 255   255 255 255   255 255 255   255 255 255   255 255 255   255 255 255   255 255 255   255 255 255   255 255 255   255 255 255   255 255 255   255 255 255   255 255 255   255 255 255   255 255 255   255 255 255   255 255 255   255 255 255   255 255 255   255 255 255   255 255 255   255 255 255   255 255 255   255 255 255   255 255 255   255 255 255   255 255 255   255 255 255   255 255 255   255 255 255   255 255 255   255 255 255   255 255 255   255 255 255   255 255 255   255 255 255   255 255 255   255 255 255   255 255 255   255 255 255   255 255 255   255 255 255   255 255 255   255 255 255   255 255 255   255 255 255   255 255 255   255 255 255   255 255 255   255 255 255   255 255 255   255 255 255   255 255 255   255 255 255   255 255 255   255 255 255   255 255 255   255 255 255   255 255 255   255 255 255   255 255 255   255 255 255   255 255 255   255 255 255   255 255 255   255 255 255   255 255 255   255 255 255   255 255 255   255 255 255   255 255 255   255 255 255   255 255 255   255 255 255   255 255 255   255 255 255   255 255 255   255 255 255   255 255 255   255 255 255   255 255 255   255 255 255   255 255 255   255 255 255   255 255 255   255 255 255   255 255 255   255 255 255   255 255 255   255 255 255   255 255 255   255 255 255   255 255 255   255 255 255   255 255 255   255 255 255   255 255 255   255 255 255   255 255 255   255 255 255   255 255 255   255 255 255   255 255 255   255 255 255   255 255 255   255 255 255   255 255 255   255 255 255   255 255 255   255 255 255   255 255 255   255 255 255   255 255 255   255 255 255   255 255 255
255 255 255   255 255 255   255 255 255   255 255 255   255 255 255   255 255 255   255 255 255   255 255 255   255 255 255   255 255 255   255 255 255   255 255 255   255 255 255   255 255 255   255 255 255   255 255 255   255 255 255   255 255 255   255 255 255   255 255 255   255 255 255   255 255 255   255 255 255   255 255 255   255 255 255   255 255 255   255 255 255   255 255 255   255 255 255   255 255 255   255 255 255   255 255 255   255 255 255   255 255 255   255 255 255   255 255 255   255 255 255   255 255 255   255 255 255   255 255 255   255 255 255   255 255 255   255 255 255   255 255 255   255 255 255   255 255 255   255 255 255   255 255 255   255 255 255   255 255 255   255 255 255   255 255 255   255 255 255   255 255 255   255 255 255   255 255 255   255 255 255   255 255 255   255 255 255   255 255 255   255 255 255   255 255 255   255 255 255   255 255 255   255 255 255   255 255 255   255 255 255   255 255 255   255 255 255   255 255 255   255 255 255   255 255 255   255 255 255   255 255 255   255 255 255   255 255 255   255 255 255   255 255 255   255 255 255   255 255 255   255 255 255   255 255 255   255 255 255   255 255 255   255 255 255   255 255 255   255 255 255   255 255 255   255 255 255   255 255 255   255 255 255   255 255 255   255 255 255   255 255 255   255 255 255   255 255 255   255 255 255   255 255 255   255 255 255   255 255 255   255 255 255   255 255 255   255 255 255   255 255 255   255 255 255   255 255 255   255 255 255   255 255 255   255 255 255   255 255 255   255 255 255   255 255 255   255 255 255   255 255 255   255 255 255   255 255 255   255 255 255   255 255 255   255 255 255   255 255 255   255 255 255   255 255 255   255 255 255   255 255 255   255 255 255   255 255 255   255 255 255   255 255 255   255 255 255   255 255 255   255 255 255   255 255 255   255 255 255   255 255 255   255 255 255   255 255 255   255 255 255   255 255 255   255 255 255   255 255 255   255 255 255   255 255 255   255 255 255   255 255 255   255 255 255   255 255 255   255 255 255   255 255 255   255 255 255   255 255 255   255 255 255   255 255 255   255 255 255   255 255 255   255 255 255   255 255 255   255 255 255   255 255 255   255 255 255   255 255 255   255 255 255   255 255 255   255 255 255   255 255 255   255 255 255   255 255 255   255 255 255   255 255 255   255 255 255   255 255 255   255 255 255   255 255 255   255 255 255   255 255 255   255 255 255   255 255 255   255 255 255   255 255 255   255 255 255   255 255 255   255 255 255   255 255 255   255 255 255   255 255 255   255 255 255   255 255 255   255 255 255   255 255 255   255 255 255   255 255 255   255 255 255   255 255 255   255 255 255   255 255 255   255 255 255   255 255 255   255 255 255   255 255 255   255 255 255   255 255 255   255 255 255   255 255 255   255 255 255   255 255 255   255 255 255   255 255 255   255 255 255   255 255 255   255 255 255   255 255 255   255 255 255   255 255 255   255 255 255   255 255 255   255 255 255   255 255 255   255 255 255   255 255 255   255 255 255   255 255 255   255 255 255   255 255 255   255 255 255   255 255 255   255 255 255   255 255 255   255 255 255   255 255 255   255 255 255   255 255 255   255 255 255   255 255 255   255 255 255   255 255 255   255 255 255   255 255 255   255 255 255   255 255 255   255 255 255   255 255 255   255 255 255   255 255 255   255 255 255   255 255 255   255 255 255   255 255 255   255 255 255   255 255 255   255 255 255   255 255 255   255 255 255   255 255 255   255 255 255   255 255 255   255 255 255   255 255 255
255 255 255   255 255 255   255 255 255   255 255 255   255 255 255   255 255 255   255 255 255   255 255 255   255 255 255   255 255 255   255 255 255   255 255 255   255 255 255   255 255 255   255 255 255   255 255 255   255 255 255   255 255 255   255 255 255   255 255 255   255 255 255   255 255 255   255 255 255   255 255 255   255 255 255   255 255 255   255 255 255   255 255 255   255 255 255   255 255 255   255 255 255   255 255 255   255 255 255   255 255 255   255 255 255   255 255 255   255 255 255   255 255 255   255 255 255   255 255 255   255 255 255   255 255 255   255 255 255   255 255 255   255 255 255   255 255 255   255 255 255   255 255 255   255 255 255   255 255 255   255 255 255   255 255 255   255 255 255   255 255 255   255 255 255   255 255 255   255 255 255   255 255 255   255 255 255   255 255 255   255 255 255   255 255 255   255 255 255   255 255 255   255 255 255   255 255 255   255 255 255   255 255 255   255 255 255   255 255 255   255 255 255   255 255 255   255 255 255   255 255 255   255 255 255   255 255 255   255 255 255   255 255 255   255 255 255   255 255 255   255 255 255   255 255 255   255 255 255   255 255 255   255 255 255   255 255 255   255 255 255   255 255 255   255 255 255   255 255 255   255 255 255   255 255 255   255 255 255   255 255 255   255 255 255   255 255 255   255 255 255   255 255 255   255 255 255   255 255 255   255 255 255   255 255 255   255 255 255   255 255 255   255 255 255   255 255 255   255 255 255   255 255 255   255 255 255   255 255 255   255 255 255   255 255 255   255 255 255   255 255 255   255 255 255   255 255 255   255 255 255   255 255 255   255 255 255   255 255 255   255 255 255   255 255 255   255 255 255   255 255 255   255 255 255   255 255 255   255 255 255   255 255 255   255 255 255   255 255 255   255 255 255   255 255 255   255 255 255   255 255 255   255 255 255   255 255 255   255 255 255   255 255 255   255 255 255   255 255 255   255 255 255   255 255 255   255 255 255   255 255 255   255 255 255   255 255 255   255 255 255   255 255 255   255 255 255   255 255 255   255 255 255   255 255 255   255 255 255   255 255 255   255 255 255   255 255 255   255 255 255   255 255 255   255 255 255   255 255 255   255 255 255   255 255 255   255 255 255   255 255 255   255 255 255   255 255 255   255 255 255   255 255 255   255 255 255   255 255 255   255 255 255   255 255 255   255 255 255   255 255 255   255 255 255   255 255 255   255 255 255   255 255 255   255 255 255   255 255 255   255 255 255   255 255 255   255 255 255   255 255 255   255 255 255   255 255 255   255 255 255   255 255 255   255 255 255   255 255 255   255 255 255   255 255 255   255 255 255   255 255 255   255 255 255   255 255 255   255 255 255   255 255 255   255 255 255   255 255 255   255 255 255   255 255 255   255 255 255   255 255 255   255 255 255   255 255 255   255 255 255   255 255 255   255 255 255   255 255 255   255 255 255   255 255 255   255 255 255   255 255 255   255 255 255   255 255 255   255 255 255   255 255 255   255 255 255   255 255 255   255 255 255   255 255 255   255 255 255   255 255 255   255 255 255   255 255 255   255 255 255   255 255 255   255 255 255   255 255 255   255 255 255   255 255 255   255 255 255   255 255 255   255 255 255   255 255 255   255 255 255   255 255 255   255 255 255   255 255 255   255 255 255   255 255 255   255 255 255   255 255 255   255 255 255   255 255 255   255 255 255   255 255 255   255 255 255   255 255 255   255 255 255   255 255 255   255 255 255   255 255 255   255 255 255   255 255 255
255 255 255   255 255 255   255 255 255   255 255 255   255 255 255   255 255 255   255 255 255   255 255 255   255 255 255   255 255 255   255 255 255   255 255 255   255 255 255   255 255 255   255 255 255   255 255 255   255 255 255   255 255 255   255 255 255   255 255 255   255 255 255   255 255 255   255 255 255   255 255 255   255 255 255   255 255 255   255 255 255   255 255 255   255 255 255   255 255 255   255 255 255   255 255 255   255 255 255   255 255 255   255 255 255   255 255 255   255 255 255   255 255 255   255 255 255   255 255 255   255 255 255   255 255 255   255 255 255   255 255 255   255 255 255   255 255 255   255 255 255   255 255 255   255 255 255   255 255 255   255 255 255   255 255 255   255 255 255   255 255 255   255 255 255   255 255 255   255 255 255   255 255 255   255 255 255   255 255 255   255 255 255   255 255 255   255 255 255   255 255 255   255 255 255   255 255 255   255 255 255   255 255 255   255 255 255   255 255 255   255 255 255   255 255 255   255 255 255   255 255 255   255 255 255   255 255 255   255 255 255   255 255 255   255 255 255   255 255 255   255 255 255   255 255 255   255 255 255   255 255 255   255 255 255   255 255 255   255 255 255   255 255 255   255 255 255   255 255 255   255 255 255   255 255 255   255 255 255   255 255 255   255 255 255   255 255 255   255 255 255   255 255 255   255 255 255   255 255 255   255 255 255   255 255 255   255 255 255   255 255 255   255 255 255   255 255 255   255 255 255   255 255 255   255 255 255   255 255 255   255 255 255   255 255 255   255 255 255   255 255 255   255 255 255   255 255 255   255 255 255   255 255 255   255 255 255   255 255 255   255 255 255   255 255 255   255 255 255   255 255 255   255 255 255   255 255 255   255 255 255   255 255 255   255 255 255   255 255 255   255 255 255   255 255 255   255 255 255   255 255 255   255 255 255   255 255 255   255 255 255   255 255 255   255 255 255   255 255 255   255 255 255   255 255 255   255 255 255   255 255 255   255 255 255   255 255 255   255 255 255   255 255 255   255 255 255   255 255 255   255 255 255   255 255 255   255 255 255   255 255 255   255 255 255   255 255 255   255 255 255   255 255 255   255 255 255   255 255 255   255 255 255   255 255 255   255 255 255   255 255 255   255 255 255   255 255 255   255 255 255   255 255 255   255 255 255   255 255 255   255 255 255   255 255 255   255 255 255   255 255 255   255 255 255   255 255 255   255 255 255   255 255 255   255 255 255   255 255 255   255 255 255   255 255 255   255 255 255   255 255 255   255 255 255   255 255 255   255 255 255   255 255 255   255 255 255   255 255 255   255 255 255   255 255 255   255 255 255   255 255 255   255 255 255   255 255 255   255 255 255   255 255 255   255 255 255   255 255 255   255 255 255   255 255 255   255 255 255   255 255 255   255 255 255   255 255 255   255 255 255   255 255 255   255 255 255   255 255 255   255 255 255   255 255 255   255 255 255   255 255 255   255 255 255   255 255 255   255 255 255   255 255 255   255 255 255   255 255 255   255 255 255   255 255 255   255 255 255   255 255 255   255 255 255   255 255 255   255 255 255   255 255 255   255 255 255   255 255 255   255 255 255   255 255 255   255 255 255   255 255 255   255 255 255   255 255 255   255 255 255   255 255 255   255 255 255   255 255 255   255 255 255   255 255 255   255 255 255   255 255 255   255 255 255   255 255 255   255 255 255   255 255 255   255 255 255   255 255 255   255 255 255   255 255 255   255 255 255   255 255 255   255 255 255   255 255 255
255 255 255   255 255 255   255 255 255   255 255 255   255 255 255   255 255 255   255 255 255   255 255 255   255 255 255   255 255 255   255 255 255   255 255 255   255 255 255   255 255 255   255 255 255   255 255 255   255 255 255   255 255 255   255 255 255   255 255 255   255 255 255   255 255 255   255 255 255   255 255 255   255 255 255   255 255 255   255 255 255   255 255 255   255 255 255   255 255 255   255 255 255   255 255 255   255 255 255   255 255 255   255 255 255   255 255 255   255 255 255   255 255 255   255 255 255   255 255 255   255 255 255   255 255 255   255 255 255   255 255 255   255 255 255   255 255 255   255 255 255   255 255 255   255 255 255   255 255 255   255 255 255   255 255 255   255 255 255   255 255 255   255 255 255   255 255 255   255 255 255   255 255 255   255 255 255   255 255 255   255 255 255   255 255 255   255 255 255   255 255 255   255 255 255   255 255 255   255 255 255   255 255 255   255 255 255   255 255 255   255 255 255   255 255 255   255 255 255   255 255 255   255 255 255   255 255 255   255 255 255   255 255 255   255 255 255   255 255 255   255 255 255   255 255 255   255 255 255   255 255 255   255 255 255   255 255 255   255 255 255   255 255 255   255 255 255   255 255 255   255 255 255   255 255 255   255 255 255   255 255 255   255 255 255   255 255 255   255 255 255   255 255 255   255 255 255   255 255 255   255 255 255   255 255 255   255 255 255   255 255 255   255 255 255   255 255 255   255 255 255   255 255 255   255 255 255   255 255 255   255 255 255   255 255 255   255 255 255   255 255 255   255 255 255   255 255 255   255 255 255   255 255 255   255 255 255   255 255 255   255 255 255   255 255 255   255 255 255   255 255 255   255 255 255   255 255 255   255 255 255   255 255 255   255 255 255   255 255 255   255 255 255   255 255 255   255 255 255   255 255 255   255 255 255   255 255 255   255 255 255   255 255 255   255 255 255   255 255 255   255 255 255   255 255 255   255 255 255   255 255 255   255 255 255   255 255 255   255 255 255   255 255 255   255 255 255   255 255 255   255 255 255   255 255 255   255 255 255   255 255 255   255 255 255   255 255 255   255 255 255   255 255 255   255 255 255   255 255 255   255 255 255   255 255 255   255 255 255   255 255 255   255 255 255   255 255 255   255 255 255   255 255 255   255 255 255   255 255 255   255 255 255   255 255 255   255 255 255   255 255 255   255 255 255   255 255 255   255 255 255   255 255 255   255 255 255   255 255 255   255 255 255   255 255 255   255 255 255   255 255 255   255 255 255   255 255 255   255 255 255   255 255 255   255 255 255   255 255 255   255 255 255   255 255 255   255 255 255   255 255 255   255 255 255   255 255 255   255 255 255   255 255 255   255 255 255   255 255 255   255 255 255   255 255 255   255 255 255   255 255 255   255 255 255   255 255 255   255 255 255   255 255 255   255 255 255   255 255 255   255 255 255   255 255 255   255 255 255   255 255 255   255 255 255   255 255 255   255 255 255   255 255 255   255 255 255   255 255 255   255 255 255   255 255 255   255 255 255   255 255 255   255 255 255   255 255 255   255 255 255   255 255 255   255 255 255   255 255 255   255 255 255   255 255 255   255 255 255   255 255 255   255 255 255   255 255 255   255 255 255   255 255 255   255 255 255   255 255 255   255 255 255   255 255 255   255 255 255   255 255 255   255 255 255   255 255 255   255 255 255   255 255 255   255 255 255   255 255 255   255 255 255   255 255 255   255 255 255   255 255 255   255 255 255   255 255 255
255 255 255   255 255 255   255 255 255   255 255 255   255 255 255   255 255 255   255 255 255   255 255 255   255 255 255   255 255 255   255 255 255   255 255 255   255 255 255   255 255 255   255 255 255   255 255 255   255 255 255   255 255 255   255 255 255   255 255 255   255 255 255   255 255 255   255 255 255   255 255 255   255 255 255   255 255 255   255 255 255   255 255 255   255 255 255   255 255 255   255 255 255   255 255 255   255 255 255   255 255 255   255 255 255   255 255 255   255 255 255   255 255 255   255 255 255   255 255 255   255 255 255   255 255 255   255 255 255   255 255 255   255 255 255   255 255 255   255 255 255   255 255 255   255 255 255   255 255 255   255 255 255   255 255 255   255 255 255   255 255 255   255 255 255   255 255 255   255 255 255   255 255 255   255 255 255   255 255 255   255 255 255   255 255 255   255 255 255   255 255 255   255 255 255   255 255 255   255 255 255   255 255 255   255 255 255   255 255 255   255 255 255   255 255 255   255 255 255   255 255 255   255 255 255   255 255 255   255 255 255   255 255 255   255 255 255   255 255 255   255 255 255   255 255 255   255 255 255   255 255 255   255 255 255   255 255 255   255 255 255   255 255 255   255 255 255   255 255 255   255 255 255   255 255 255   255 255 255   255 255 255   255 255 255   255 255 255   255 255 255   255 255 255   255 255 255   255 255 255   255 255 255   255 255 255   255 255 255   255 255 255   255 255 255   255 255 255   255 255 255   255 255 255   255 255 255   255 255 255   255 255 255   255 255 255   255 255 255   255 255 255   255 255 255   255 255 255   255 255 255   255 255 255   255 255 255   255 255 255   255 255 255   255 255 255   255 255 255   255 255 255   255 255 255   255 255 255   255 255 255   255 255 255   255 255 255   255 255 255   255 255 255   255 255 255   255 255 255   255 255 255   255 255 255   255 255 255   255 255 255   255 255 255   255 255 255   255 255 255   255 255 255   255 255 255   255 255 255   255 255 255   255 255 255   255 255 255   255 255 255   255 255 255   255 255 255   255 255 255   255 255 255   255 255 255   255 255 255   255 255 255   255 255 255   255 255 255   255 255 255   255 255 255   255 255 255   255 255 255   255 255 255   255 255 255   255 255 255   255 255 255   255 255 255   255 255 255   255 255 255   255 255 255   255 255 255   255 255 255   255 255 255   255 255 255   255 255 255   255 255 255   255 255 255   255 255 255   255 255 255   255 255 255   255 255 255   255 255 255   255 255 255   255 255 255   255 255 255   255 255 255   255 255 255   255 255 255   255 255 255   255 255 255   255 255 255   255 255 255   255 255 255   255 255 255   255 255 255   255 255 255   255 255 255   255 255 255   255 255 255   255 255 255   255 255 255   255 255 255   255 255 255   255 255 255   255 255 255   255 255 255   255 255 255   255 255 255   255 255 255   255 255 255   255 255 255   255 255 255   255 255 255   255 255 255   255 255 255   255 255 255   255 255 255   255 255 255   255 255 255   255 255 255   255 255 255   255 255 255   255 255 255   255 255 255   255 255 255   255 255 255   255 255 255   255 255 255   255 255 255   255 255 255   255 255 255   255 255 255   255 255 255   255 255 255   255 255 255   255 255 255   255 255 255   255 255 255   255 255 255   255 255 255   255 255 255   255 255 255   255 255 255   255 255 255   255 255 255   255 255 255   255 255 255   255 255 255   255 255 255   255 255 255   255 255 255   255 255 255   255 255 255   255 255 255   255 255 255   255 255 255   255 255 255   255 255 255
255 255 255   255 255 255   255 255 255   255 255 255   255 255 255   255 255 255   255 255 255   255 255 255   255 255 255   255 255 255   255 255 255   255 255 255   255 255 255   255 255 255   255 255 255   255 255 255   255 255 255   255 255 255   255 255 255   255 255 255   255 255 255   255 255 255   255 255 255   255 255 255   255 255 255   255 255 255   255 255 255   255 255 255   255 255 255   255 255 255   255 255 255   255 255 255   255 255 255   255 255 255   255 255 255   255 255 255   255 255 255   255 255 255   255 255 255   255 255 255   255 255 255   255 255 255   255 255 255   255 255 255   255 255 255   255 255 255   255 255 255   255 255 255   255 255 255   255 255 255   255 255 255   255 255 255   255 255 255   255 255 255   255 255 255   255 255 255   255 255 255   255 255 255   255 255 255   255 255 255   255 255 255   255 255 255   255 255 255   255 255 255   255 255 255   255 255 255   255 255 255   255 255 255   255 255 255   255 255 255   255 255 255   255 255 255   255 255 255   255 255 255   255 255 255   255 255 255   255 255 255   255 255 255   255 255 255   255 255 255   255 255 255   255 255 255   255 255 255   255 255 255   255 255 255   255 255 255   255 255 255   255 255 255   255 255 255   255 255 255   255 255 255   255 255 255   255 255 255   255 255 255   255 255 255   255 255 255   255 255 255   255 255 255   255 255 255   255 255 255   255 255 255   255 255 255   255 255 255   255 255 255   255 255 255   255 255 255   255 255 255   255 255 255   255 255 255   255 255 255   255 255 255   255 255 255   255 255 255   255 255 255   255 255 255   255 255 255   255 255 255   255 255 255   255 255 255   255 255 255   255 255 255   255 255 255   255 255 255   255 255 255   255 255 255   255 255 255   255 255 255   255 255 255   255 255 255   255 255 255   255 255 255   255 255 255   255 255 255   255 255 255   255 255 255   255 255 255   255 255 255   255 255 255   255 255 255   255 255 255   255 255 255   255 255 255   255 255 255   255 255 255   255 255 255   255 255 255   255 255 255   255 255 255   255 255 255   255 255 255   255 255 255   255 255 255   255 255 255   255 255 255   255 255 255   255 255 255   255 255 255   255 255 255   255 255 255   255 255 255   255 255 255   255 255 255   255 255 255   255 255 255   255 255 255   255 255 255   255 255 255   255 255 255   255 255 255   255 255 255   255 255 255   255 255 255   255 255 255   255 255 255   255 255 255   255 255 255   255 255 255   255 255 255   255 255 255   255 255 255   255 255 255   255 255 255   255 255 255   255 255 255   255 255 255   255 255 255   255 255 255   255 255 255   255 255 255   255 255 255   255 255 255   255 255 255   255 255 255   255 255 255   255 255 255   255 255 255   255 255 255   255 255 255   255 255 255   255 255 255   255 255 255   255 255 255   255 255 255   255 255 255   255 255 255   255 255 255   255 255 255   255 255 255   255 255 255   255 255 255   255 255 255   255 255 255   255 255 255   255 255 255   255 255 255   255 255 255   255 255 255   255 255 255   255 255 255   255 255 255   255 255 255   255 255 255   255 255 255   255 255 255   255 255 255   255 255 255   255 255 255   255 255 255   255 255 255   255 255 255   255 255 255   255 255 255   255 255 255   255 255 255   255 255 255   255 255 255   255 255 255   255 255 255   255 255 255   255 255 255   255 255 255   255 255 255   255 255 255   255 255 255   255 255 255   255 255 255   255 255 255   255 255 255   255 255 255   255 255 255   255 255 255   255 255 255   255 255 255   255 255 255   255 255 255   255 255 255
255 255 255   255 255 255   255 255 255   255 255 255   255 255 255   255 255 255   255 255 255   255 255 255   255 255 255   255 255 255   255 255 255   255 255 255   255 255 255   255 255 255   255 255 255   255 255 255   255 255 255   255 255 255   255 255 255   255 255 255   255 255 255   255 255 255   255 255 255   255 255 255   255 255 255   255 255 255   255 255 255   255 255 255   255 255 255   255 255 255   255 255 255   255 255 255   255 255 255   255 255 255   255 255 255   255 255 255   255 255 255   255 255 255   255 255 255   255 255 255   255 255 255   255 255 255   255 255 255   255 255 255   255 255 255   255 255 255   255 255 255   255 255 255   255 255 255   255 255 255   255 255 255   255 255 255   255 255 255   255 255 255   255 255 255   255 255 255   255 255 255   255 255 255   255 255 255   255 255 255   255 255 255   255 255 255   255 255 255   255 255 255   255 255 255   255 255 255   255 255 255   255 255 255   255 255 255   255 255 255   255 255 255   255 255 255   255 255 255   255 255 255   255 255 255   255 255 255   255 255 255   255 255 255   255 255 255   255 255 255   255 255 255   255 255 255   255 255 255   255 255 255   255 255 255   255 255 255   255 255 255   255 255 255   255 255 255   255 255 255   255 255 255   255 255 255   255 255 255   255 255 255   255 255 255   255 255 255   255 255 255   255 255 255   255 255 255   255 255 255   255 255 255   255 255 255   255 255 255   255 255 255   255 255 255   255 255 255   255 255 255   255 255 255   255 255 255   255 255 255   255 255 255   255 255 255   255 255 255   255 255 255   255 255 255   255 255 255   255 255 255   255 255 255   255 255 255   255 255 255   255 255 255   255 255 255   255 255 255   255 255 255   255 255 255   255 255 255   255 255 255   255 255 255   255 255 255   255 255 255   255 255 255   255 255 255   255 255 255   255 255 255   255 255 255   255 255 255   255 255 255   255 255 255   255 255 255   255 255 255   255 255 255   255 255 255   255 255 255   255 255 255   255 255 255   255 255 255   255 255 255   255 255 255   255 255 255   255 255 255   255 255 255   255 255 255   255 255 255   255 255 255   255 255 255   255 255 255   255 255 255   255 255 255   255 255 255   255 255 255   255 255 255   255 255 255   255 255 255   255 255 255   255 255 255   255 255 255   255 255 255   255 255 255   255 255 255   255 255 255   255 255 255   255 255 255   255 255 255   255 255 255   255 255 255   255 255 255   255 255 255   255 255 255   255 255 255   255 255 255   255 255 255   255 255 255   255 255 255   255 255 255   255 255 255   255 255 255   255 255 255   255 255 255   255 255 255   255 255 255   255 255 255   255 255 255   255 255 255   255 255 255   255 255 255   255 255 255   255 255 255   255 255 255   255 255 255   255 255 255   255 255 255   255 255 255   255 255 255   255 255 255   255 255 255   255 255 255   255 255 255   255 255 255   255 255 255   255 255 255   255 255 255   255 255 255   255 255 255   255 255 255   255 255 255   255 255 255   255 255 255   255 255 255   255 255 255   255 255 255   255 255 255   255 255 255   255 255 255   255 255 255   255 255 255   255 255 255   255 255 255   255 255 255   255 255 255   255 255 255   255 255 255   255 255 255   255 255 255   255 255 255   255 255 255   255 255 255   255 255 255   255 255 255   255 255 255   255 255 255   255 255 255   255 255 255   255 255 255   255 255 255   255 255 255   255 255 255   255 255 255   255 255 255   255 255 255   255 255 255   255 255 255   255 255 255   255 255 255   255 255 255   255 255 255   255 255 255
255 255 255   255 255 255   255 255 255   255 255 255   255 255 255   255 255 255   255 255 255   255 255 255   255 255 255   255 255 255   255 255 255   255 255 255   255 255 255   255 255 255   255 255 255   255 255 255   255 255 255   255 255 255   255 255 255   255 255 255   255 255 255   255 255 255   255 255 255   255 255 255   255 255 255   255 255 255   255 255 255   255 255 255   255 255 255   255 255 255   255 255 255   255 255 255   255 255 255   255 255 255   255 255 255   255 255 255   255 255 255   255 255 255   255 255 255   255 255 255   255 255 255   255 255 255   255 255 255   255 255 255   255 255 255   255 255 255   255 255 255   255 255 255   255 255 255   255 255 255   255 255 255   255 255 255   255 255 255   255 255 255   255 255 255   255 255 255   255 255 255   255 255 255   255 255 255   255 255 255   255 255 255   255 255 255   255 255 255   255 255 255   255 255 255   255 255 255   255 255 255   255 255 255   255 255 255   255 255 255   255 255 255   255 255 255   255 255 255   255 255 255   255 255 255   255 255 255   255 255 255   255 255 255   255 255 255   255 255 255   255 255 255   255 255 255   255 255 255   255 255 255   255 255 255   255 255 255   255 255 255   255 255 255   255 255 255   255 255 255   255 255 255   255 255 255   255 255 255   255 255 255   255 255 255   255 255 255   255 255 255   255 255 255   255 255 255   255 255 255   255 255 255   255 255 255   255 255 255   255 255 255   255 255 255   255 255 255   255 255 255   255 255 255   255 255 255   255 255 255   255 255 255   255 255 255   255 255 255   255 255 255   255 255 255   255 255 255   255 255 255   255 255 255   255 255 255   255 255 255   255 255 255   255 255 255   255 255 255   255 255 255   255 255 255   255 255 255   255 255 255   255 255 255   255 255 255   255 255 255   255 255 255   255 255 255   255 255 255   255 255 255   255 255 255   255 255 255   255 255 255   255 255 255   255 255 255   255 255 255   255 255 255   255 255 255   255 255 255   255 255 255   255 255 255   255 255 255   255 255 255   255 255 255   255 255 255   255 255 255   255 255 255   255 255 255   255 255 255   255 255 255   255 255 255   255 255 255   255 255 255   255 255 255   255 255 255   255 255 255   255 255 255   255 255 255   255 255 255   255 255 255   255 255 255   255 255 255   255 255 255   255 255 255   255 255 255   255 255 255   255 255 255   255 255 255   255 255 255   255 255 255   255 255 255   255 255 255   255 255 255   255 255 255   255 255 255   255 255 255   255 255 255   255 255 255   255 255 255   255 255 255   255 255 255   255 255 255   255 255 255   255 255 255   255 255 255   255 255 255   255 255 255   255 255 255   255 255 255   255 255 255   255 255 255   255 255 255   255 255 255   255 255 255   255 255 255   255 255 255   255 255 255   255 255 255   255 255 255   255 255 255   255 255 255   255 255 255   255 255 255   255 255 255   255 255 255   255 255 255   255 255 255   255 255 255   255 255 255   255 255 255   255 255 255   255 255 255   255 255 255   255 255 255   255 255 255   255 255 255   255 255 255   255 255 255   255 255 255   255 255 255   255 255 255   255 255 255   255 255 255   255 255 255   255 255 255   255 255 255   255 255 255   255 255 255   255 255 255   255 255 255   255 255 255   255 255 255   255 255 255   255 255 255   255 255 255   255 255 255   255 255 255   255 255 255   255 255 255   255 255 255   255 255 255   255 255 255   255 255 255   255 255 255   255 255 255   255 255 255   255 255 255   255 255 255   255 255 255   255 255 255   255 255 255   255 255 255
255 255 255   255 255 255   255 255 255   255 255 255   255 255 255   255 255 255   255 255 255   255 255 255   255 255 255   255 255 255   255 255 255   255 255 255   255 255 255   255 255 255   255 255 255   255 255 255   255 255 255   255 255 255   255 255 255   255 255 255   255 255 255   255 255 255   255 255 255   255 255 255   255 255 255   255 255 255   255 255 255   255 255 255   255 255 255   255 255 255   255 255 255   255 255 255   255 255 255   255 255 255   255 255 255   255 255 255   255 255 255   255 255 255   255 255 255   255 255 255   255 255 255   255 255 255   255 255 255   255 255 255   255 255 255   255   0   0   255   0   0   255   0   0   255   0   0   255   0   0   255 255 255   255 255 255   255 255 255   255 255 255   255 255 255   255 255 255   255 255 255   255 255 255   255 255 255   255 255 255   255 255 255   255 255 255   255 255 255   255 255 255   255 255 255   255 255 255   255 255 255   255 255 255   255 255 255   255 255 255   255 255 255   255 255 255   255 255 255   255 255 255   255 255 255   255 255 255   255 255 255   255 255 255   255 255 255   255 255 255   255 255 255   255 255 255   255 255 255   255 255 255   255 255 255   255 255 255   255 255 255   255 255 255   255 255 255   255 255 255   255 255 255   255 255 255   255 255 255   255 255 255   255 255 255   255 255 255   255 255 255   255 255 255   255 255 255   255 255 255   255 255 255   255 255 255   255 255 255   255 255 255   255 255 255   255 255 255   255 255 255   255 255 255   255 255 255   255 255 255   255 255 255   255 255 255   255 255 255   255 255 255   255 255 255   255 255 255   255 255 255   255 255 255   255 255 255   255 255 255   255 255 255   255 255 255   255 255 255   255 255 255   255 255 255   255 255 255   255 255 255   255 255 255   255 255 255   255 255 255   255 255 255   255 255 255   255 255 255   255 255 255   255 255 255   255 255 255   255 255 255   255 255 255   255 255 255   255 255 255   255 255 255   255 255 255   255 255 255   255 255 255   255 255 255   255 255 255   255 255 255   255 255 255   255 255 255   255 255 255   255 255 255   255 255 255   255 255 255   255 255 255   255 255 255   255 255 255   255 255 255   255 255 255   255 255 255   255 255 255   255 255 255   255 255 255   255 255 255   255 255 255   255 255 255   255 255 255   255 255 255   255 255 255   255 255 255   255 255 255   255 255 255   255 255 255   255 255 255   255 255 255   255 255 255   255 255 255   255 255 255   255 255 255   255 255 255   255 255 255   255 255 255   255 255 255   255 255 255   255 255 255   255 255 255   255 255 255   255 255 255   255 255 255   255 255 255   255 255 255   255 255 255   255 255 255   255 255 255   255 255 255   255 255 255   255 255 255   255 255 255   255 255 255   255 255 255   255 255 255   255 255 255   255 255 255   255 255 255   255 255 255   255 255 255   255 255 255   255 255 255   255 255 255   255 255 255   255 255 255   255 255 255   255 255 255   255 255 255   255 255 255   255 255 255   255 255 255   255 255 255   255 255 255   255 255 255   255 255 255   255 255 255   255 255 255   255 255 255   255 255 255   255 255 255   255 255 255   255 255 255   255 255 255   255 255 255   255 255 255   255 255 255   255 255 255   255 255 255   255 255 255   255 255 255   255 255 255   255 255 255   255 255 255   255 255 255   255 255 255   255 255 255   255 255 255   255 255 255   255 255 255   255 255 255   255 255 255   255 255 255   255 255 255   255 255 255   255 255 255   255 255 255   255 255 255   255 255 255   255 255 255   255 255 255   255 255 255
255 255 255   255 255 255   255 255 255   255 255 255   255 255 255   255 255 255   255 255 255   255 255 255   255 255 255   255 255 255   255 255 255   255 255 255   255 255 255   255 255 255   255 255 255   255 255 255   255 255 255   255 255 255   255 255 255   255 255 255   255 255 255   255 255 255   255 255 255   255 255 255   255 255 255   255 255 255   255 255 255   255 255 255   255 255 255   255 255 255   255 255 255   255 255 255   255 255 255   255 255 255   255 255 255   255 255 255   255 255 255   255 255 255   255 255 255   255 255 255   255 255 255   255 255 255   255   0   0   255   0   0   255   0   0   255 255 255   255 255 255   255 255 255   255 255 255   255   0   0   255 255 255   255 255 255   255 255 255   255 255 255   255 255 255   255 255 255   255 255 255   255 255 255   255 255 255   255 255 255   255 255 255   255 255 255   255 255 255   255 255 255   255 255 255   255 255 255   255 255 255   255 255 255   255 255 255   255 255 255   255 255 255   255 255 255   255 255 255   255 255 255   255 255 255   255 255 255   255 255 255   255 255 255   255 255 255   255 255 255   255 255 255   255 255 255   255 255 255   255 255 255   255 255 255   255 255 255   255 255 255   255 255 255   255 255 255   255 255 255   255 255 255   255 255 255   255 255 255   255 255 255   255 255 255   255 255 255   255 255 255   255 255 255   255 255 255   255 255 255   255 255 255   255 255 255   255 255 255   255 255 255   255 255 255   255 255 255   255 255 255   255 255 255   255 255 255   255 255 255   255 255 255   255 255 255   255 255 255   255 255 255   255 255 255   255 255 255   255 255 255   255 255 255   255 255 255   255 255 255   255 255 255   255 255 255   255 255 255   255 255 255   255 255 255   255 255 255   255 255 255   255 255 255   255 255 255   255 255 255   255 255 255   255 255 255   255 255 255   255 255 255   255 255 255   255 255 255   255 255 255   255 255 255   255 255 255   255 255 255   255 255 255   255 255 255   255 255 255   255 255 255   255 255 255   255   0   0   255   0   0   255   0   0   255 255 255   255 255 255   255 255 255   255 255 255   255 255 255   255 255 255   255 255 255   255 255 255   255 255 255   255 255 255   255 255 255   255 255 255   255 255 255   255 255 255   255 255 255   255 255 255   255 255 255   255 255 255   255 255 255   255 255 255   255 255 255   255 255 255   255 255 255   255 255 255   255 255 255   255 255 255   255 255 255   255 255 255   255 255 255   255 255 255   255 255 255   255 255 255   255 255 255   255 255 255   255 255 255   255 255 255   255 255 255   255 255 255   255 255 255   255 255 255   255 255 255   255 255 255   255 255 255   255 255 255   255 255 255   255 255 255   255 255 255   255 255 255   255 255 255   255 255 255   255 255 255   255 255 255   255 255 255   255 255 255   255 255 255   255 255 255   255 255 255   255 255 255   255 255 255   255 255 255   255 255 255   255 255 255   255 255 255   255 255 255   255 255 255   255 255 255   255 255 255   255 255 255   255 255 255   255 255 255   255 255 255   255 255 255   255 255 255   255 255 255   255 255 255   255 255 255   255 255 255   255 255 255   255 255 255   255 255 255   255 255 255   255 255 255   255 255 255   255 255 255   255 255 255   255 255 255   255 255 255   255 255 255   255 255 255   255 255 255   255 255 255   255 255 255   255 255 255   255 255 255   255 255 255   255 255 255   255 255 255   255 255 255   255 255 255   255 255 255   255 255 255   255 255 255   255 255 255   255 255 255   255 255 255   255 255 255   255 255 255   255 255 255
255 255 255   255 255 255   255 255 255   255 255 255   255 255 255   255 255 255   255 255 255   255 255 255   255 255 255   255 255 255   255 255 255   255 255 255   255 255 255   255 255 255   255 255 255   255 255 255   255 255 255   255 255 255   255 255 255   255 255 255   255 255 255   255 255 255   255 255 255   255 255 255   255 255 255   255 255 255   255 255 255   255 255 255   255 255 255   255 255 255   255 255 255   255 255 255   255 255 255   255 255 255   255 255 255   255 255 255   255 255 255   255 255 255   255 255 255   255 255 255   255   0   0   255   0   0   255   0   0   255 255 255   255 255 255   255 255 255   255 255 255   255 255 255   255 255 255   255 255 255   255 255 255   255 255 255   255 255 255   255 255 255   255 255 255   255 255 255   255 255 255   255 255 255   255 255 255   255 255 255   255 255 255   255 255 255   255 255 255   255 255 255   255 255 255   255 255 255   255 255 255   255 255 255   255 255 255   255 255 255   255 255 255   255 255 255   255 255 255   255 255 255   255 255 255   255 255 255   255 255 255   255 255 255   255 255 255   255 255 255   255 255 255   255 255 255   255 255 255   255 255 255   255 255 255   255 255 255   255 255 255   255 255 255   255 255 255   255 255 255   255 255 255   255 255 255   255 255 255   255 255 255   255 255 255   255 255 255   255 255 255   255 255 255   255 255 255   255 255 255   255 255 255   255 255 255   255 255 255   255 255 255   255 255 255   255 255 255   255 255 255   255 255 255   255 255 255   255 255 255   255 255 255   255 255 255   255 255 255   255 255 255   255 255 255   255 255 255   255 255 255   255 255 255   255 255 255   255 255 255   255 255 255   255 255 255   255 255 255   255 255 255   255 255 255   255 255 255   255 255 255   255 255 255   255 255 255   255 255 255   255 255 255   255 255 255   255 255 255   255 255 255   255 255 255   255 255 255   255 255 255   255 255 255   255 255 255   255 255 255   255 255 255   255 255 255   255 255 255   255 255 255   255 255 255   255 255 255   255 255 255   255 255 255   255   0   0   255 255 255   255 255 255   255 255 255   255 255 255   255 255 255   255 255 255   255 255 255   255 255 255   255 255 255   255 255 255   255 255 255   255 255 255   255 255 255   255 255 255   255 255 255   255 255 255   255 255 255   255 255 255   255 255 255   255 255 255   255 255 255   255 255 255   255 255 255   255 255 255   255 255 255   255 255 255   255 255 255   255 255 255   255 255 255   255 255 255   255 255 255   255 255 255   255 255 255   255 255 255   255 255 255   255 255 255   255 255 255   255 255 255   255 255 255   255 255 255   255 255 255   255 255 255   255 255 255   255 255 255   255 255 255   255 255 255   255 255 255   255 255 255   255 255 255   255 255 255   255 255 255   255 255 255   255 255 255   255 255 255   255 255 255   255 255 255   255 255 255   255 255 255   255 255 255   255 255 255   255 255 255   255 255 255   255 255 255   255 255 255   255 255 255   255 255 255   255 255 255   255 255 255   255 255 255   255 255 255   255 255 255   255 255 255   255 255 255   255 255 255   255 255 255   255 255 255   255 255 255   255 255 255   255 255 255   255 255 255   255 255 255   255 255 255   255 255 255   255 255 255   255 255 255   255 255 255   255 255 255   255 255 255   255 255 255   255 255 255   255 255 255   255 255 255   255 255 255   255 255 255   255 255 255   255 255 255   255 255 255   255 255 255   255 255 255   255 255 255   255 255 255   255 255 255   255 255 255   255 255 255   255 255 255   255 255 255   255 255 255
255 255 255   255 255 255   255 255 255   255 255 255   255 255 255   255 255 255   255 255 255   255 255 255   255 255 255   255 255 255   255 255 255   255 255 255   255 255 255   255 255 255   255 255 255   255 255 255   255 255 255   255 255 255   255 255 255   255 255 255   255 255 255   255 255 255   255 255 255   255 255 255   255 255 255   255 255 255   255 255 255   255 255 255   255 255 255   255 255 255   255 255 255   255 255 255   255 255 255   255 255 255   255 255 255   255 255 255   255 255 255   255 255 255   255 255 255   255   0   0   255   0   0   255 255 255   255 255 255   255 255 255   255 255 255   255 255 255   255 255 255   255 255 255   255 255 255   255 255 255   255 255 255   255 255 255   255 255 255   255 255 255   255 255 255   255 255 255   255 255 255   255 255 255   255 255 255   255 255 255   255 255 255   255 255 255   255 255 255   255 255 255   255 255 255   255 255 255   255 255 255   255 255 255   255 255 255   255 255 255   255 255 255   255 255 255   255 255 255   255 255 255   255 255 255   255 255 255   255 255 255   255 255 255   255 255 255   255 255 255   255 255 255   255 255 255   255 255 255   255 255 255   255 255 255   255 255 255   255 255 255   255 255 255   255 255 255   255 255 255   255 255 255   255 255 255   255 255 255   255 255 255   255 255 255   255 255 255   255 255 255   255 255 255   255 255 255   255 255 255   255 255 255   255 255 255   255 255 255   255 255 255   255 255 255   255 255 255   255 255 255   255 255 255   255 255 255   255 255 255   255 255 255   255 255 255   255 255 255   255 255 255   255 255 255   255 255 255   255 255 255   255 255 255   255 255 255   255 255 255   255 255 255   255 255 255   255 255 255   255 255 255   255 255 255   255 255 255   255 255 255   255 255 255   255 255 255   255 255 255   255 255 255   255 255 255   255 255 255   255 255 255   255 255 255   255 255 255   255 255 255   255 255 255   255 255 255   255 255 255   255 255 255   255 255 255   255 255 255   255 255 255   255 255 255   255 255 255   255 255 255   255 255 255   255   0   0   255 255 255   255 255 255   255 255 255   255 255 255   255 255 255   255 255 255   255 255 255   255 255 255   255 255 255   255 255 255   255 255 255   255 255 255   255 255 255   255 255 255   255 255 255   255 255 255   255 255 255   255 255 255   255 255 255   255 255 255   255 255 255   255 255 255   255 255 255   255 255 255   255 255 255   255 255 255   255 255 255   255 255 255   255 255 255   255 255 255   255 255 255   255 255 255   255 255 255   255 255 255   255 255 255   255 255 255   255 255 255   255 255 255   255 255 255   255 255 255   255 255 255   255 255 255   255 255 255   255 255 255   255 255 255   255 255 255   255 255 255   255 255 255   255 255 255   255 255 255   255 255 255   255 255 255   255 255 255   255 255 255   255 255 255   255 255 255   255 255 255   255 255 255   255 255 255   255 255 255   255 255 255   255 255 255   255 255 255   255 255 255   255 255 255   255 255 255   255 255 255   255 255 255   255 255 255   255 255 255   255 255 255   255 255 255   255 255 255   255 255 255   255 255 255   255 255 255   255 255 255   255 255 255   255 255 255   255 255 255   255 255 255   255 255 255   255 255 255   255 255 255   255 255 255   255 255 255   255 255 255   255 255 255   255 255 255   255 255 255   255 255 255   255 255 255   255 255 255   255 255 255   255 255 255   255 255 255   255 255 255   255 255 255   255 255 255   255 255 255   255 255 255   255 255 255   255 255 255   255 255 255   255 255 255   255 255 255   255 255 255
255 255 255   255 255 255   255 255 255   255 255 255   255 255 255   255 255 255   255 255 255   255 255 255   255 255 255   255 255 255   255 255 255   255 255 255   255 255 255   255 255 255   255 255 255   255 255 255   255 255 255   255 255 255   255 255 255   255 255 255   255 255 255   255 255 255   255 255 255   255 255 255   255 255 255   255 255 255   255 255 255   255 255 255   255 255 255   255 255 255   255 255 255   255 255 255   255 255 255   255 255 255   255 255 255   255 255 255   255 255 255   255 255 255   255   0   0   255   0   0   255 255 255   255 255 255   255 255 255   255 255 255   255 255 255   255 255 255   255 255 255   255 255 255   255 255 255   255 255 255   255 255 255   255 255 255   255 255 255   255 255 255   255 255 255   255 255 255   255 255 255   255 255 255   255 255 255   255 255 255   255 255 255   255 255 255   255 255 255   255 255 255   255 255 255   255 255 255   255 255 255   255 255 255   255 255 255   255 255 255   255 255 255   255 255 255   255 255 255   255 255 255   255 255 255   255 255 255   255 255 255   255 255 255   255 255 255   255 255 255   255 255 255   255   0   0   255   0   0   255   0   0   255 255 255   255 255 255   255 255 255   255 255 255   255 255 255   255 255 255   255 255 255   255 255 255   255 255 255   255 255 255   255 255 255   255 255 255   255 255 255   255 255 255   255 255 255   255 255 255   255 255 255   255 255 255   255 255 255   255 255 255   255 255 255   255 255 255   255 255 255   255 255 255   255 255 255   255 255 255   255 255 255   255 255 255   255 255 255   255 255 255   255 255 255   255 255 255   255 255 255   255 255 255   255 255 255   255 255 255   255 255 255   255 255 255   255 255 255   255 255 255   255 255 255   255 255 255   255 255 255   255 255 255   255 255 255   255 255 255   255 255 255   255 255 255   255 255 255   255 255 255   255 255 255   255 255 255   255 255 255   255 255 255   255 255 255   255 255 255   255 255 255   255 255 255   255 255 255   255 255 255   255 255 255   255 255 255   255 255 255   255 255 255   255   0   0   255 255 255   255 255 255   255 255 255   255 255 255   255 255 255   255 255 255   255 255 255   255 255 255   255 255 255   255 255 255   255 255 255   255 255 255   255 255 255   255 255 255   255 255 255   255 255 255   255 255 255   255 255 255   255 255 255   255 255 255   255 255 255   255 255 255   255 255 255   255 255 255   255 255 255   255 255 255   255 255 255   255 255 255   255 255 255   255 255 255   255 255 255   255 255 255   255 255 255   255 255 255   255 255 255   255 255 255   255 255 255   255 255 255   255 255 255   255 255 255   255 255 255   255 255 255   255 255 255   255 255 255   255 255 255   255 255 255   255 255 255   255 255 255   255 255 255   255 255 255   255 255 255   255 255 255   255 255 255   255 255 255   255 255 255   255 255 255   255 255 255   255 255 255   255 255 255   255 255 255   255 255 255   255 255 255   255 255 255   255 255 255   255 255 255   255 255 255   255 255 255   255 255 255   255 255 255   255 255 255   255 255 255   255 255 255   255 255 255   255 255 255   255 255 255   255 255 255   255 255 255   255 255 255   255 255 255   255 255 255   255 255 255   255 255 255   255 255 255   255 255 255   255 255 255   255 255 255   255 255 255   255 255 255   255 255 255   255 255 255   255 255 255   255 255 255   255 255 255   255 255 255   255 255 255   255 255 255   255 255 255   255 255 255   255 255 255   255 255 255   255 255 255   255 255 255   255 255 255   255 255 255   255 255 255   255 255 255   255 255 255
255 255 255   255 255 255   255 255 255   255 255 255   255 255 255   255 255 255   255 255 255   255 255 255   255 255 255   255 255 255   255 255 255   255 255 255   255 255 255   255 255 255   255 255 255   255 255 255   255 255 255   255 255 255   255 255 255   255 255 255   255 255 255   255 255 255   255 255 255   255 255 255   255 255 255   255 255 255   255 255 255   255 255 255   255 255 255   255 255 255   255 255 255   255 255 255   255 255 255   255 255 255   255 255 255   255 255 255   255 255 255   255 255 255   255   0   0   255 255 255   255 255 255   255 255 255   255 255 255   255 255 255   255 255 255   255 255 255   255 255 255   255 255 255   255 255 255   255 255 255   255 255 255   255 255 255   255 255 255   255 255 255   255 255 255   255 255 255   255 255 255   255 255 255   255 255 255   255 255 255   255 255 255   255 255 255   255 255 255   255 255 255   255 255 255   255 255 255   255 255 255   255 255 255   255 255 255   255 255 255   255 255 255   255 255 255   255 255 255   255 255 255   255 255 255   255 255 255   255 255 255   255 255 255   255   0   0   255   0   0   255   0   0   255   0   0   255 255 255   255 255 255   255   0   0   255   0   0   255   0   0   255   0   0   255   0   0   255   0   0   255   0   0   255 255 255   255 255 255   255 255 255   255 255 255   255 255 255   255 255 255   255 255 255   255 255 255   255 255 255   255 255 255   255 255 255   255 255 255   255 255 255   255 255 255   255 255 255   255 255 255   255 255 255   255 255 255   255 255 255   255 255 255   255 255 255   255 255 255   255 255 255   255 255 255   255   0   0   255   0   0   255   0   0   255   0   0   255   0   0   255   0   0   255   0   0   255   0   0   255   0   0   255   0   0   255 255 255   255 255 255   255 255 255   255 255 255   255 255 255   255 255 255   255 255 255   255 255 255   255 255 255   255 255 255   255 255 255   255 255 255   255 255 255   255 255 255   255 255 255   255 255 255   255 255 255   255 255 255   255 255 255   255 255 255   255 255 255   255 255 255   255 255 255   255   0   0   255   0   0   255 255 255   255 255 255   255 255 255   255 255 255   255 255 255   255 255 255   255 255 255   255 255 255   255 255 255   255 255 255   255 255 255   255 255 255   255 255 255   255 255 255   255 255 255   255 255 255   255 255 255   255 255 255   255 255 255   255 255 255   255 255 255   255 255 255   255 255 255   255 255 255   255 255 255   255 255 255   255 255 255   255 255 255   255 255 255   255 255 255   255 255 255   255 255 255   255 255 255   255 255 255   255 255 255   255 255 255   255 255 255   255 255 255   255 255 255   255 255 255   255 255 255   255 255 255   255 255 255   255 255 255   255 255 255   255 255 255   255 255 255   255 255 255   255 255 255   255 255 255   255 255 255   255 255 255   255 255 255   255 255 255   255 255 255   255 255 255   255 255 255   255 255 255   255 255 255   255 255 255   255 255 255   255 255 255   255 255 255   255 255 255   255 255 255   255 255 255   255 255 255   255 255 255   255 255 255   255 255 255   255 255 255   255 255 255   255 255 255   255 255 255   255 255 255   255 255 255   255 255 255   255 255 255   255 255 255   255 255 255   255 255 255   255 255 255   255 255 255   255 255 255   255 255 255   255 255 255   255 255 255   255 255 255   255 255 255   255 255 255   255 255 255   255 255 255   255 255 255   255 255 255   255 255 255   255 255 255   255 255 255   255 255 255   255 255 255   255 255 255   255 255 255   255 255 255   255 255 255   255 255 255   255 255 255   255 255 255
255 255 255   255 255 255   255 255 255   255 255 255   255 255 255   255 255 255   255 255 255   255 255 255   255 255 255   255 255 255   255 255 255   255 255 255   255 255 255   255 255 255   255 255 255   255 255 255   255 255 255   255 255 255   255 255 255   255 255 255   255 255 255   255 255 255   255 255 255   255 255 255   255 255 255   255 255 255   255 255 255   255 255 255   255 255 255   255 255 255   255 255 255   255 255 255   255 255 255   255 255 255   255 255 255   255 255 255   255 255 255   255   0   0   255 255 255   255 255 255   255 255 255   255 255 255   255 255 255   255 255 255   255 255 255   255 255 255   255 255 255   255 255 255   255 255 255   255 255 255   255 255 255   255 255 255   255 255 255   255 255 255   255 255 255   255 255 255   255 255 255   255 255 255   255 255 255   255 255 255   255 255 255   255 255 255   255 255 255   255 255 255   255 255 255   255 255 255   255 255 255   255 255 255   255 255 255   255 255 255   255 255 255   255 255 255   255 255 255   255 255 255   255 255 255   255 255 255   255 255 255   255   0   0   255   0   0   255 255 255   255 255 255   255 255 255   255 255 255   255 255 255   255 255 255   255 255 255   255 255 255   255 255 255   255 255 255   255 255 255   255 255 255   255   0   0   255 255 255   255 255 255   255 255 255   255 255 255   255 255 255   255 255 255   255 255 255   255 255 255   255 255 255   255 255 255   255 255 255   255 255 255   255 255 255   255 255 255   255 255 255   255 255 255   255 255 255   255 255 255   255 255 255   255   0   0   255   0   0   255   0   0   255   0   0   255   0   0   255   0   0   255   0   0   255 255 255   255 255 255   255 255 255   255 255 255   255 255 255   255 255 255   255   0   0   255   0   0   255   0   0   255   0   0   255   0   0   255   0   0   255   0   0   255 255 255   255 255 255   255 255 255   255 255 255   255 255 255   255 255 255   255 255 255   255 255 255   255 255 255   255 255 255   255 255 255   255 255 255   255 255 255   255 255 255   255 255 255   255 255 255   255 255 255   255 255 255   255   0   0   255 255 255   255 255 255   255 255 255   255 255 255   255 255 255   255 255 255   255 255 255   255 255 255   255 255 255   255 255 255   255 255 255   255 255 255   255 255 255   255 255 255   255 255 255   255 255 255   255 255 255   255 255 255   255 255 255   255 255 255   255 255 255   255 255 255   255 255 255   255 255 255   255 255 255   255 255 255   255 255 255   255 255 255   255 255 255   255 255 255   255 255 255   255 255 255   255 255 255   255 255 255   255 255 255   255 255 255   255 255 255   255 255 255   255 255 255   255 255 255   255 255 255   255 255 255   255 255 255   255 255 255   255 255 255   255 255 255   255 255 255   255 255 255   255 255 255   255 255 255   255 255 255   255 255 255   255 255 255   255 255 255   255 255 255   255 255 255   255 255 255   255 255 255   255 255 255   255 255 255   255 255 255   255 255 255   255 255 255   255 255 255   255 255 255   255 255 255   255 255 255   255 255 255   255 255 255   255 255 255   255 255 255   255 255 255   255 255 255   255 255 255   255 255 255   255 255 255   255 255 255   255 255 255   255 255 255   255 255 255   255 255 255   255 255 255   255 255 255   255 255 255   255 255 255   255 255 255   255 255 255   255 255 255   255 255 255   255 255 255   255 255 255   255 255 255   255 255 255   255 255 255   255 255 255   255 255 255   255 255 255   255 255 255   255 255 255   255 255 255   255 255 255   255 255 255   255 255 255   255 255 255   255 255 255   255 255 255
255 255 255   255 255 255   255 255 255   255 255 255   255 255 255   255 255 255   255 255 255   255 255 255   255 255 255   255 255 255   255 255 255   255 255 255   255 255 255   255 255 255   255 255 255   255 255 255   255 255 255   255 255 255   255 255 255   255 255 255   255 255 255   255 255 255   255 255 255   255 255 255   255 255 255   255 255 255   255 255 255   255 255 255   255 255 255   255 255 255   255 255 255   255 255 255   255 255 255   255 255 255   255 255 255   255 255 255   255   0   0   255 255 255   255 255 255   255 255 255   255 255 255   255 255 255   255 255 255   255 255 255   255 255 255   255 255 255   255 255 255   255 255 255   255 255 255   255 255 255   255 255 255   255 255 255   255 255 255   255 255 255   255 255 255   255 255 255   255 255 255   255 255 255   255 255 255   255 255 255   255 255 255   255 255 255   255 255 255   255 255 255   255 255 255   255 255 255   255 255 255   255 255 255   255 255 255   255 255 255   255 255 255   255 255 255   255 255 255   255 255 255   255 255 255   255 255 255   255   0   0   255 255 255   255 255 255   255 255 255   255 255 255   255 255 255   255 255 255   255 255 255   255 255 255   255 255 255   255 255 255   255 255 255   255 255 255   255 255 255   255 255 255   255 255 255   255   0   0   255 255 255   255 255 255   255 255 255   255 255 255   255 255 255   255 255 255   255 255 255   255 255 255   255 255 255   255 255 255   255 255 255   255 255 255   255 255 255   255 255 255   255 255 255   255 255 255   255   0   0   255   0   0   255 255 255   255 255 255   255 255 255   255 255 255   255 255 255   255 255 255   255 255 255   255 255 255   255 255 255   255 255 255   255 255 255   255 255 255   255 255 255   255 255 255   255 255 255   255 255 255   255 255 255   255 255 255   255 255 255   255   0   0   255   0   0   255 255 255   255 255 255   255 255 255   255 255 255   255 255 255   255 255 255   255 255 255   255 255 255   255 255 255   255 255 255   255 255 255   255 255 255   255 255 255   255 255 255   255 255 255   255 255 255   255 255 255   255   0   0   255 255 255   255 255 255   255 255 255   255 255 255   255 255 255   255 255 255   255 255 255   255 255 255   255 255 255   255 255 255   255 255 255   255 255 255   255 255 255   255 255 255   255 255 255   255 255 255   255 255 255   255 255 255   255 255 255   255 255 255   255 255 255   255 255 255   255 255 255   255 255 255   255 255 255   255 255 255   255 255 255   255 255 255   255 255 255   255 255 255   255 255 255   255 255 255   255 255 255   255 255 255   255 255 255   255 255 255   255 255 255   255 255 255   255 255 255   255 255 255   255 255 255   255 255 255   255 255 255   255 255 255   255 255 255   255 255 255   255 255 255   255 255 255   255 255 255   255 255 255   255 255 255   255 255 255   255 255 255   255 255 255   255 255 255   255 255 255   255 255 255   255 255 255   255 255 255   255 255 255   255 255 255   255 255 255   255 255 255   255 255 255   255 255 255   255 255 255   255 255 255   255 255 255   255 255 255   255 255 255   255 255 255   255 255 255   255 255 255   255 255 255   255 255 255   255 255 255   255 255 255   255 255 255   255 255 255   255 255 255   255 255 255   255 255 255   255 255 255   255 255 255   255 255 255   255 255 255   255 255 255   255 255 255   255 255 255   255 255 255   255 255 255   255 255 255   255 255 255   255 255 255   255 255 255   255 255 255   255 255 255   255 255 255   255 255 255   255 255 255   255 255 255   255 255 255   255 255 255   255 255 255   255 255 255   255 255 255
255 255 255   255 255 255   255 255 255   255 255 255   255 255 255   255 255 255   255 255 255   255 255 255   255 255 255   255 255 255   255 255 255   255 255 255   255 255 255   255 255 255   255 255 255   255 255 255   255 255 255   255 255 255   255 255 255   255 255 255   255 255 255   255 255 255   255 255 255   255 255 255   255 255 255   255 255 255   255 255 255   255 255 255   255 255 255   255 255 255   255 255 255   255 255 255   255 255 255   255 255 255   255 255 255   255   0   0   255 255 255   255 255 255   255 255 255   255 255 255   255 255 255   255 255 255   255 255 255   255 255 255   255 255 255   255 255 255   255 255 255   255 255 255   255 255 255   255 255 255   255 255 255   255 255 255   255 255 255   255 255 255   255 255 255   255 255 255   255 255 255   255 255 255   255 255 255   255 255 255   255 255 255   255 255 255   255 255 255   255 255 255   255 255 255   255 255 255   255 255 255   255 255 255   255 255 255   255 255 255   255 255 255   255 255 255   255 255 255   255 255 255   255 255 255   255 255 255   255   0   0   255 255 255   255 255 255   255 255 255   255 255 255   255 255 255   255 255 255   255 255 255   255 255 255   255 255 255   255 255 255   255 255 255   255 255 255   255 255 255   255 255 255   255 255 255   255 255 255   255   0   0   255 255 255   255 255 255   255 255 255   255 255 255   255 255 255   255 255 255   255 255 255   255 255 255   255 255 255   255 255 255   255 255 255   255 255 255   255 255 255   255 255 255   255   0   0   255 255 255   255 255 255   255 255 255   255 255 255   255 255 255   255 255 255   255 255 255   255 255 255   255 255 255   255 255 255   255 255 255   255 255 255   255 255 255   255 255 255   255 255 255   255 255 255   255 255 255   255 255 255   255 255 255   255 255 255   255 255 255   255 255 255   255 255 255   255   0   0   255 255 255   255 255 255   255 255 255   255 255 255   255 255 255   255 255 255   255 255 255   255 255 255   255 255 255   255 255 255   255 255 255   255 255 255   255 255 255   255 255 255   255 255 255   255 255 255   255   0   0   255 255 255   255 255 255   255 255 255   255 255 255   255 255 255   255 255 255   255 255 255   255 255 255   255 255 255   255 255 255   255 255 255   255 255 255   255 255 255   255 255 255   255 255 255   255 255 255   255 255 255   255 255 255   255 255 255   255 255 255   255 255 255   255 255 255   255 255 255   255 255 255   255 255 255   255 255 255   255 255 255   255 255 255   255 255 255   255 255 255   255 255 255   255 255 255   255 255 255   255 255 255   255 255 255   255 255 255   255 255 255   255 255 255   255 255 255   255 255 255   255 255 255   255 255 255   255 255 255   255 255 255   255 255 255   255 255 255   255 255 255   255 255 255   255 255 255   255 255 255   255 255 255   255 255 255   255 255 255   255 255 255   255 255 255   255 255 255   255 255 255   255 255 255   255 255 255   255 255 255   255 255 255   255 255 255   255 255 255   255 255 255   255 255 255   255 255 255   255 255 255   255 255 255   255 255 255   255 255 255   255 255 255   255 255 255   255 255 255   255 255 255   255 255 255   255 255 255   255 255 255   255 255 255   255 255 255   255 255 255   255 255 255   255 255 255   255 255 255   255 255 255   255 255 255   255 255 255   255 255 255   255 255 255   255 255 255   255 255 255   255 255 255   255 255 255   255 255 255   255 255 255   255 255 255   255 255 255   255 255 255   255 255 255   255 255 255   255 255 255   255 255 255   255 255 255   255 255 255   255 255 255   255 255 255   255 255 255
255 255 255   255 255 255   255 255 255   255 255 255   255 255 255   255 255 255   255 255 255   255 255 255   255 255 255   255 255 255   255 255 255   255 255 255   255 255 255   255 255 255   255 255 255   255 255 255   255 255 255   255 255 255   255 255 255   255 255 255   255 255 255   255 255 255   255 255 255   255 255 255   255 255 255   255 255 255   255 255 255   255 255 255   255 255 255   255 255 255   255 255 255   255 255 255   255 255 255   255 255 255   255 255 255   255   0   0   255 255 255   255 255 255   255 255 255   255 255 255   255 255 255   255 255 255   255 255 255   255 255 255   255 255 255   255 255 255   255 255 255   255 255 255   255 255 255   255 255 255   255 255 255   255 255 255   255 255 255   255 255 255   255 255 255   255 255 255   255 255 255   255 255 255   255 255 255   255 255 255   255 255 255   255 255 255   255 255 255   255 255 255   255 255 255   255 255 255   255 255 255   255 255 255   255 255 255   255 255 255   255 255 255   255 255 255   255 255 255   255 255 255   255 255 255   255   0   0   255 255 255   255 255 255   255 255 255   255 255 255   255 255 255   255 255 255   255 255 255   255 255 255   255 255 255   255 255 255   255 255 255   255 255 255   255 255 255   255 255 255   255 255 255   255 255 255   255 255 255   255   0   0   255 255 255   255 255 255   255 255 255   255 255 255   255 255 255   255 255 255   255 255 255   255 255 255   255 255 255   255 255 255   255 255 255   255 255 255   255 255 255   255   0   0   255 255 255   255 255 255   255 255 255   255 255 255   255 255 255   255 255 255   255 255 255   255 255 255   255 255 255   255 255 255   255 255 255   255 255 255   255 255 255   255 255 255   255 255 255   255 255 255   255 255 255   255 255 255   255 255 255   255 255 255   255 255 255   255 255 255   255 255 255   255 255 255   255 255 255   255   0   0   255 255 255   255 255 255   255 255 255   255 255 255   255 255 255   255 255 255   255 255 255   255 255 255   255 255 255   255 255 255   255 255 255   255 255 255   255 255 255   255 255 255   255 255 255   255   0   0   255 255 255   255 255 255   255 255 255   255 255 255   255 255 255   255 255 255   255 255 255   255 255 255   255 255 255   255 255 255   255 255 255   255 255 255   255 255 255   255 255 255   255 255 255   255 255 255   255 255 255   255 255 255   255 255 255   255 255 255   255 255 255   255 255 255   255 255 255   255 255 255   255 255 255   255 255 255   255 255 255   255 255 255   255 255 255   255 255 255   255 255 255   255 255 255   255 255 255   255 255 255   255 255 255   255 255 255   255 255 255   255 255 255   255 255 255   255 255 255   255 255 255   255 255 255   255 255 255   255 255 255   255 255 255   255 255 255   255 255 255   255 255 255   255 255 255   255 255 255   255 255 255   255 255 255   255 255 255   255 255 255   255 255 255   255 255 255   255 255 255   255 255 255   255 255 255   255 255 255   255 255 255   255 255 255   255 255 255   255 255 255   255 255 255   255 255 255   255 255 255   255 255 255   255 255 255   255 255 255   255 255 255   255 255 255   255 255 255   255 255 255   255 255 255   255 255 255   255 255 255   255 255 255   255 255 255   255 255 255   255 255 255   255 255 255   255 255 255   255 255 255   255 255 255   255 255 255   255 255 255   255 255 255   255 255 255   255 255 255   255 255 255   255 255 255   255 255 255   255 255 255   255 255 255   255 255 255   255 255 255   255 255 255   255 255 255   255 255 255   255 255 255   255 255 255   255 255 255   255 255 255   255 255 255   255 255 255
255 255 255   255 255 255   255 255 255   255 255 255   255 255 255   255 255 255   255 255 255   255 255 255   255 255 255   255 255 255   255 255 255   255 255 255   255 255 255   255 255 255   255 255 255   255 255 255   255 255 255   255 255 255   255 255 255   255 255 255   255 255 255   255 255 255   255 255 255   255 255 255   255 255 255   255 255 255   255 255 255   255 255 255   255 255 255   255 255 255   255 255 255   255 255 255   255 255 255   255 255 255   255   0   0   255 255 255   255 255 255   255 255 255   255 255 255   255 255 255   255 255 255   255 255 255   255 255 255   255 255 255   255 255 255   255 255 255   255 255 255   255 255 255   255 255 255   255 255 255   255 255 255   255 255 255   255 255 255   255 255 255   255 255 255   255 255 255   255 255 255   255 255 255   255 255 255   255 255 255   255 255 255   255 255 255   255 255 255   255 255 255   255 255 255   255 255 255   255 255 255   255 255 255   255 255 255   255 255 255   255 255 255   255 255 255   255 255 255   255 255 255   255 255 255   255   0   0   255 255 255   255 255 255   255 255 255   255 255 255   255 255 255   255 255 255   255 255 255   255 255 255   255 255 255   255 255 255   255 255 255   255 255 255   255 255 255   255 255 255   255 255 255   255 255 255   255 255 255   255 255 255   255   0   0   255 255 255   255 255 255   255 255 255   255 255 255   255 255 255   255 255 255   255 255 255   255 255 255   255 255 255   255 255 255   255 255 255   255   0   0   255   0   0   255 255 255   255 255 255   255 255 255   255 255 255   255 255 255   255 255 255   255 255 255   255 255 255   255 255 255   255 255 255   255 255 255   255 255 255   255 255 255   255 255 255   255 255 255   255 255 255   255 255 255   255 255 255   255 255 255   255 255 255   255 255 255   255 255 255   255 255 255   255 255 255   255 255 255   255 255 255   255   0   0   255 255 255   255 255 255   255 255 255   255 255 255   255 255 255   255 255 255   255 255 255   255 255 255   255 255 255   255 255 255   255 255 255   255 255 255   255 255 255   255 255 255   255   0   0   255 255 255   255 255 255   255 255 255   255 255 255   255 255 255   255 255 255   255 255 255   255 255 255   255 255 255   255 255 255   255 255 255   255 255 255   255 255 255   255 255 255   255 255 255   255 255 255   255 255 255   255 255 255   255 255 255   255 255 255   255 255 255   255 255 255   255 255 255   255 255 255   255 255 255   255 255 255   255 255 255   255 255 255   255 255 255   255 255 255   255 255 255   255 255 255   255 255 255   255 255 255   255 255 255   255 255 255   255 255 255   255 255 255   255 255 255   255 255 255   255 255 255   255 255 255   255 255 255   255 255 255   255 255 255   255 255 255   255 255 255   255 255 255   255 255 255   255 255 255   255 255 255   255 255 255   255 255 255   255 255 255   255 255 255   255 255 255   255 255 255   255 255 255   255 255 255   255 255 255   255 255 255   255 255 255   255 255 255   255 255 255   255 255 255   255 255 255   255 255 255   255 255 255   255 255 255   255 255 255   255 255 255   255 255 255   255 255 255   255 255 255   255 255 255   255 255 255   255 255 255   255 255 255   255 255 255   255 255 255   255 255 255   255 255 255   255 255 255   255 255 255   255 255 255   255 255 255   255 255 255   255 255 255   255 255 255   255 255 255   255 255 255   255 255 255   255 255 255   255 255 255   255 255 255   255 255 255   255 255 255   255 255 255   255 255 255   255 255 255   255 255 255   255 255 255   255 255 255   255 255 255   255 255 255   255 255 255
255 255 255   255 255 255   255 255 255   255 255 255   255 255 255   255 255 255   255 255 255   255 255 255   255 255 255   255 255 255   255 255 255   255 255 255   255 255 255   255 255 255   255 255 255   255 255 255   255 255 255   255 255 255   255 255 255   255 255 255   255 255 255   255 255 255   255 255 255   255 255 255   255 255 255   255 255 255   255 255 255   255 255 255   255 255 255   255 255 255   255 255 255   255 255 255   255 255 255   255 255 255   255   0   0   255 255 255   255 255 255   255 255 255   255 255 255   255 255 255   255 255 255   255 255 255   255 255 255   255 255 255   255 255 255   255 255 255   255 255 255   255 255 255   255 255 255   255 255 255   255 255 255   255 255 255   255 255 255   255 255 255   255 255 255   255 255 255   255 255 255   255 255 255   255 255 255   255 255 255   255 255 255   255 255 255   255 255 255   255 255 255   255 255 255   255 255 255   255 255 255   255 255 255   255 255 255   255 255 255   255 255 255   255 255 255   255 255 255   255 255 255   255 255 255   255   0   0   255 255 255   255 255 255   255 255 255   255 255 255   255 255 255   255 255 255   255 255 255   255 255 255   255 255 255   255 255 255   255 255 255   255 255 255   255 255 255   255 255 255   255 255 255   255 255 255   255 255 255   255 255 255   255   0   0   255 255 255   255 255 255   255 255 255   255 255 255   255 255 255   255 255 255   255 255 255   255 255 255   255 255 255   255 255 255   255 255 255   255   0   0   255 255 255   255 255 255   255 255 255   255 255 255   255 255 255   255 255 255   255 255 255   255 255 255   255 255 255   255 255 255   255 255 255   255 255 255   255 255 255   255 255 255   255 255 255   255 255 255   255 255 255   255 255 255   255 255 255   255 255 255   255 255 255   255 255 255   255 255 255   255 255 255   255 255 255   255 255 255   255 255 255   255   0   0   255   0   0   255 255 255   255 255 255   255 255 255   255 255 255   255 255 255   255 255 255   255 255 255   255 255 255   255 255 255   255 255 255   255 255 255   255 255 255   255 255 255   255   0   0   255 255 255   255 255 255   255 255 255   255 255 255   255 255 255   255 255 255   255 255 255   255 255 255   255 255 255   255 255 255   255 255 255   255 255 255   255 255 255   255 255 255   255 255 255   255 255 255   255 255 255   255 255 255   255 255 255   255 255 255   255 255 255   255 255 255   255 255 255   255 255 255   255 255 255   255 255 255   255 255 255   255 255 255   255 255 255   255 255 255   255 255 255   255 255 255   255 255 255   255 255 255   255 255 255   255 255 255   255 255 255   255 255 255   255 255 255   255 255 255   255 255 255   255 255 255   255 255 255   255 255 255   255 255 255   255 255 255   255 255 255   255 255 255   255 255 255   255 255 255   255 255 255   255 255 255   255 255 255   255 255 255   255 255 255   255 255 255   255 255 255   255 255 255   255 255 255   255 255 255   255 255 255   255 255 255   255 255 255   255 255 255   255 255 255   255 255 255   255 255 255   255 255 255   255 255 255   255 255 255   255 255 255   255 255 255   255 255 255   255 255 255   255 255 255   255 255 255   255 255 255   255 255 255   255 255 255   255 255 255   255 255 255   255 255 255   255 255 255   255 255 255   255 255 255   255 255 255   255 255 255   255 255 255   255 255 255   255 255 255   255 255 255   255 255 255   255 255 255   255 255 255   255 255 255   255 255 255   255 255 255   255 255 255   255 255 255   255 255 255   255 255 255   255 255 255   255 255 255   255 255 255   255 255 255   255 255 255
255 255 255   255 255 255   255 255 255   255 255 255   255 255 255   255 255 255   255 255 255   255 255 255   255 255 255   255 255 255   255 255 255   255 255 255   255 255 255   255 255 255   255 255 255   255 255 255   255 255 255   255 255 255   255 255 255   255 255 255   255 255 255   255 255 255   255 255 255   255 255 255   255 255 255   255 255 255   255 255 255   255 255 255   255 255 255   255 255 255   255 255 255   255 255 255   255 255 255   255 255 255   255   0   0   255 255 255   255 255 255   255 255 255   255 255 255   255 255 255   255 255 255   255 255 255   255 255 255   255 255 255   255 255 255   255 255 255   255 255 255   255 255 255   255 255 255   255 255 255   255 255 255   255 255 255   255 255 255   255 255 255   255 255 255   255 255 255   255 255 255   255 255 255   255 255 255   255 255 255   255 255 255   255 255 255   255 255 255   255 255 255   255 255 255   255 255 255   255 255 255   255 255 255   255 255 255   255 255 255   255 255 255   255 255 255   255 255 255   255 255 255   255 255 255   255   0   0   255 255 255   255 255 255   255 255 255   255 255 255   255 255 255   255 255 255   255 255 255   255 255 255   255 255 255   255 255 255   255 255 255   255 255 255   255 255 255   255 255 255   255 255 255   255 255 255   255 255 255   255 255 255   255   0   0   255   0   0   255 255 255   255 255 255   255 255 255   255 255 255   255 255 255   255 255 255   255 255 255   255 255 255   255 255 255   255 255 255   255   0   0   255 255 255   255 255 255   255 255 255   255 255 255   255 255 255   255 255 255   255 255 255   255 255 255   255 255 255   255 255 255   255 255 255   255 255 255   255 255 255   255 255 255   255 255 255   255 255 255   255 255 255   255 255 255   255 255 255   255 255 255   255 255 255   255 255 255   255 255 255   255 255 255   255 255 255   255 255 255   255 255 255   255 255 255   255   0   0   255 255 255   255 255 255   255 255 255   255 255 255   255 255 255   255 255 255   255 255 255   255 255 255   255 255 255   255 255 255   255 255 255   255 255 255   255 255 255   255   0   0   255 255 255   255 255 255   255 255 255   255 255 255   255 255 255   255 255 255   255 255 255   255 255 255   255 255 255   255 255 255   255 255 255   255 255 255   255 255 255   255 255 255   255 255 255   255 255 255   255 255 255   255 255 255   255 255 255   255 255 255   255 255 255   255 255 255   255 255 255   255 255 255   255 255 255   255 255 255   255 255 255   255 255 255   255 255 255   255 255 255   255 255 255   255 255 255   255 255 255   255 255 255   255 255 255   255 255 255   255 255 255   255 255 255   255 255 255   255 255 255   255 255 255   255 255 255   255 255 255   255 255 255   255 255 255   255 255 255   255 255 255   255 255 255   255 255 255   255 255 255   255 255 255   255 255 255   255 255 255   255 255 255   255 255 255   255 255 255   255 255 255   255 255 255   255 255 255   255 255 255   255 255 255   255 255 255   255 255 255   255 255 255   255 255 255   255 255 255   255 255 255   255 255 255   255 255 255   255 255 255   255 255 255   255 255 255   255 255 255   255 255 255   255 255 255   255 255 255   255 255 255   255 255 255   255 255 255   255 255 255   255 255 255   255 255 255   255 255 255   255 255 255   255 255 255   255 255 255   255 255 255   255 255 255   255 255 255   255 255 255   255 255 255   255 255 255   255 255 255   255 255 255   255 255 255   255 255 255   255 255 255   255 255 255   255 255 255   255 255 255   255 255 255   255 255 255   255 255 255   255 255 255   255 255 255   255 255 255
255 255 255   255 255 255   255 255 255   255 255 255   255 255 255   255 255 255   255 255 255   255 255 255   255 255 255   255 255 255   255 255 255   255 255 255   255 255 255   255 255 255   255 255 255   255 255 255   255 255 255   255 255 255   255 255 255   255 255 255   255 255 255   255 255 255   255 255 255   255 255 255   255 255 255   255 255 255   255 255 255   255 255 255   255 255 255   255 255 255   255 255 255   255 255 255   255 255 255   255 255 255   255   0   0   255 255 255   255 255 255   255 255 255   255 255 255   255 255 255   255 255 255   255 255 255   255 255 255   255 255 255   255 255 255   255 255 255   255 255 255   255 255 255   255 255 255   255 255 255   255 255 255   255 255 255   255 255 255   255 255 255   255 255 255   255 255 255   255 255 255   255 255 255   255 255 255   255 255 255   255 255 255   255 255 255   255 255 255   255 255 255   255 255 255   255 255 255   255 255 255   255 255 255   255 255 255   255 255 255   255 255 255   255 255 255   255 255 255   255 255 255   255 255 255   255   0   0   255 255 255   255 255 255   255 255 255   255 255 255   255 255 255   255 255 255   255 255 255   255 255 255   255 255 255   255 255 255   255 255 255   255 255 255   255 255 255   255 255 255   255 255 255   255 255 255   255 255 255   255 255 255   255 255 255   255   0   0   255 255 255   255 255 255   255 255 255   255 255 255   255 255 255   255 255 255   255 255 255   255 255 255   255 255 255   255 255 255   255   0   0   255 255 255   255 255 255   255 255 255   255 255 255   255 255 255   255 255 255   255 255 255   255 255 255   255 255 255   255 255 255   255 255 255   255 255 255   255 255 255   255 255 255   255 255 255   255 255 255   255 255 255   255 255 255   255 255 255   255 255 255   255 255 255   255 255 255   255 255 255   255 255 255   255 255 255   255 255 255   255 255 255   255 255 255   255   0   0   255 255 255   255 255 255   255 255 255   255 255 255   255 255 255   255 255 255   255 255 255   255 255 255   255 255 255   255 255 255   255 255 255   255 255 255   255 255 255   255   0   0   255 255 255   255 255 255   255 255 255   255 255 255   255 255 255   255 255 255   255 255 255   255 255 255   255 255 255   255 255 255   255 255 255   255 255 255   255 255 255   255 255 255   255 255 255   255 255 255   255 255 255   255 255 255   255 255 255   255 255 255   255 255 255   255 255 255   255 255 255   255 255 255   255 255 255   255 255 255   255 255 255   255 255 255   255 255 255   255 255 255   255 255 255   255 255 255   255 255 255   255 255 255   255 255 255   255 255 255   255 255 255   255 255 255   255 255 255   255 255 255   255 255 255   255 255 255   255 255 255   255 255 255   255 255 255   255 255 255   255 255 255   255 255 255   255 255 255   255 255 255   255 255 255   255 255 255   255 255 255   255 255 255   255 255 255   255 255 255   255 255 255   255 255 255   255 255 255   255 255 255   255 255 255   255 255 255   255 255 255   255 255 255   255 255 255   255 255 255   255 255 255   255 255 255   255 255 255   255 255 255   255 255 255   255 255 255   255 255 255   255 255 255   255 255 255   255 255 255   255 255 255   255 255 255   255 255 255   255 255 255   255 255 255   255 255 255   255 255 255   255 255 255   255 255 255   255 255 255   255 255 255   255 255 255   255 255 255   255 255 255   255 255 255   255 255 255   255 255 255   255 255 255   255 255 255   255 255 255   255 255 255   255 255 255   255 255 255   255 255 255   255 255 255   255 255 255   255 255 255   255 255 255   255 255 255   255 255 255
255 255 255   255 255 255   255 255 255   255 255 255   255 255 255   255 255 255   255 255 255   255 255 255   255 255 255   255 255 255   255 255 255   255 255 255   255 255 255   255 255 255   255 255 255   255 255 255   255 255 255   255 255 255   255 255 255   255 255 255   255 255 255   255 255 255   255 255 255   255 255 255   255 255 255   255 255 255   255 255 255   255 255 255   255 255 255   255 255 255   255 255 255   255 255 255   255 255 255   255 255 255   255   0   0   255 255 255   255 255 255   255 255 255   255 255 255   255 255 255   255 255 255   255 255 255   255 255 255   255 255 255   255 255 255   255 255 255   255 255 255   255 255 255   255 255 255   255 255 255   255 255 255   255 255 255   255 255 255   255 255 255   255 255 255   255 255 255   255 255 255   255 255 255   255 255 255   255 255 255   255 255 255   255 255 255   255 255 255   255 255 255   255 255 255   255 255 255   255 255 255   255 255 255   255 255 255   255 255 255   255 255 255   255 255 255   255 255 255   255 255 255   255 255 255   255   0   0   255 255 255   255 255 255   255 255 255   255 255 255   255 255 255   255 255 255   255 255 255   255 255 255   255 255 255   255 255 255   255 255 255   255 255 255   255 255 255   255 255 255   255 255 255   255 255 255   255 255 255   255 255 255   255 255 255   255 255 255   255   0   0   255 255 255   255 255 255   255 255 255   255 255 255   255 255 255   255 255 255   255 255 255   255 255 255   255 255 255   255   0   0   255 255 255   255 255 255   255 255 255   255 255 255   255 255 255   255 255 255   255 255 255   255 255 255   255 255 255   255 255 255   255 255 255   255 255 255   255 255 255   255 255 255   255 255 255   255 255 255   255 255 255   255 255 255   255 255 255   255 255 255   255 255 255   255 255 255   255 255 255   255 255 255   255 255 255   255 255 255   255 255 255   255 255 255   255   0   0   255 255 255   255 255 255   255 255 255   255 255 255   255 255 255   255 255 255   255 255 255   255 255 255   255 255 255   255 255 255   255 255 255   255 255 255   255 255 255   255   0   0   255 255 255   255 255 255   255 255 255   255 255 255   255 255 255   255 255 255   255 255 255   255 255 255   255 255 255   255 255 255   255 255 255   255 255 255   255 255 255   255 255 255   255 255 255   255 255 255   255 255 255   255 255 255   255 255 255   255 255 255   255 255 255   255 255 255   255 255 255   255 255 255   255 255 255   255 255 255   255 255 255   255 255 255   255 255 255   255 255 255   255 255 255   255 255 255   255 255 255   255 255 255   255 255 255   255 255 255   255 255 255   255 255 255   255 255 255   255 255 255   255 255 255   255 255 255   255 255 255   255 255 255   255 255 255   255 255 255   255 255 255   255 255 255   255 255 255   255 255 255   255 255 255   255 255 255   255 255 255   255 255 255   255 255 255   255 255 255   255 255 255   255 255 255   255 255 255   255 255 255   255 255 255   255 255 255   255 255 255   255 255 255   255 255 255   255 255 255   255 255 255   255 255 255   255 255 255   255 255 255   255 255 255   255 255 255   255 255 255   255 255 255   255 255 255   255 255 255   255 255 255   255 255 255   255 255 255   255 255 255   255 255 255   255 255 255   255 255 255   255 255 255   255 255 255   255 255 255   255 255 255   255 255 255   255 255 255   255 255 255   255 255 255   255 255 255   255 255 255   255 255 255   255 255 255   255 255 255   255 255 255   255 255 255   255 255 255   255 255 255   255 255 255   255 255 255   255 255 255   255 255 255   255 255 255   255 255 255
255 255 255   255 255 255   255 255 255   255 255 255   255 255 255   255 255 255   255 255 255   255 255 255   255 255 255   255 255 255   255 255 255   255 255 255   255 255 255   255 255 255   255 255 255   255 255 255   255 255 255   255 255 255   255 255 255   255 255 255   255 255 255   255 255 255   255 255 255   255 255 255   255 255 255   255 255 255   255 255 255   255 255 255   255 255 255   255 255 255   255 255 255   255 255 255   255 255 255   255 255 255   255   0   0   255 255 255   255 255 255   255 255 255   255 255 255   255 255 255   255 255 255   255 255 255   255 255 255   255 255 255   255 255 255   255 255 255   255 255 255   255 255 255   255 255 255   255 255 255   255 255 255   255 255 255   255 255 255   255 255 255   255 255 255   255 255 255   255 255 255   255 255 255   255 255 255   255 255 255   255 255 255   255 255 255   255 255 255   255 255 255   255 255 255   255 255 255   255 255 255   255 255 255   255 255 255   255 255 255   255 255 255   255 255 255   255 255 255   255 255 255   255 255 255   255   0   0   255   0   0   255 255 255   255 255 255   255 255 255   255 255 255   255 255 255   255 255 255   255 255 255   255 255 255   255 255 255   255 255 255   255 255 255   255 255 255   255 255 255   255 255 255   255 255 255   255 255 255   255 255 255   255 255 255   255 255 255   255   0   0   255 255 255   255 255 255   255 255 255   255 255 255   255 255 255   255 255 255   255 255 255   255 255 255   255 255 255   255   0   0   255 255 255   255 255 255   255 255 255   255 255 255   255 255 255   255 255 255   255 255 255   255 255 255   255 255 255   255 255 255   255 255 255   255 255 255   255 255 255   255 255 255   255 255 255   255 255 255   255 255 255   255 255 255   255 255 255   255 255 255   255 255 255   255 255 255   255 255 255   255 255 255   255 255 255   255 255 255   255 255 255   255 255 255   255   0   0   255 255 255   255 255 255   255 255 255   255 255 255   255 255 255   255 255 255   255 255 255   255 255 255   255 255 255   255 255 255   255 255 255   255 255 255   255 255 255   255   0   0   255 255 255   255 255 255   255 255 255   255 255 255   255 255 255   255 255 255   255 255 255   255 255 255   255 255 255   255 255 255   255 255 255   255 255 255   255 255 255   255 255 255   255 255 255   255 255 255   255 255 255   255 255 255   255 255 255   255 255 255   255 255 255   255 255 255   255 255 255   255 255 255   255 255 255   255 255 255   255 255 255   255 255 255   255 255 255   255 255 255   255 255 255   255 255 255   255 255 255   255 255 255   255 255 255   255 255 255   255 255 255   255 255 255   255 255 255   255 255 255   255 255 255   255 255 255   255 255 255   255 255 255   255 255 255   255 255 255   255 255 255   255 255 255   255 255 255   255 255 255   255 255 255   255 255 255   255 255 255   255 255 255   255 255 255   255 255 255   255 255 255   255 255 255   255 255 255   255 255 255   255 255 255   255 255 255   255 255 255   255 255 255   255 255 255   255 255 255   255 255 255   255 255 255   255 255 255   255 255 255   255 255 255   255 255 255   255 255 255   255 255 255   255 255 255   255 255 255   255 255 255   255 255 255   255 255 255   255 255 255   255 255 255   255 255 255   255 255 255   255 255 255   255 255 255   255 255 255   255 255 255   255 255 255   255 255 255   255 255 255   255 255 255   255 255 255   255 255 255   255 255 255   255 255 255   255 255 255   255 255 255   255 255 255   255 255 255   255 255 255   255 255 255   255 255 255   255 255 255   255 255 255   255 255 255   255 255 255
255 255 255   255 255 255   255 255 255   255 255 255   255 255 255   255 255 255   255 255 255   255 255 255   255 255 255   255 255 255   255 255 255   255 255 255   255 255 255   255 255 255   255 255 255   255 255 255   255 255 255   255 255 255   255 255 255   255 255 255   255 255 255   255 255 255   255 255 255   255 255 255   255 255 255   255 255 255   255 255 255   255 255 255   255 255 255   255 255 255   255 255 255   255 255 255   255 255 255   255 255 255   255 255 255   255   0   0   255 255 255   255 255 255   255 255 255   255 255 255   255 255 255   255 255 255   255 255 255   255 255 255   255 255 255   255 255 255   255 255 255   255 255 255   255 255 255   255 255 255   255 255 255   255 255 255   255 255 255   255 255 255   255 255 255   255 255 255   255 255 255   255 255 255   255 255 255   255 255 255   255 255 255   255 255 255   255 255 255   255 255 255   255 255 255   255 255 255   255 255 255   255 255 255   255 255 255   255 255 255   255 255 255   255 255 255   255 255 255   255 255 255   255 255 255   255 255 255   255 255 255   255   0   0   255 255 255   255 255 255   255 255 255   255 255 255   255 255 255   255 255 255   255 255 255   255 255 255   255 255 255   255 255 255   255 255 255   255 255 255   255 255 255   255 255 255   255 255 255   255 255 255   255 255 255   255 255 255   255   0   0   255 255 255   255 255 255   255 255 255   255 255 255   255 255 255   255 255 255   255 255 255   255 255 255   255 255 255   255   0   0   255 255 255   255 255 255   255 255 255   255 255 255   255 255 255   255 255 255   255 255 255   255 255 255   255 255 255   255 255 255   255 255 255   255 255 255   255 255 255   255 255 255   255 255 255   255 255 255   255 255 255   255 255 255   255 255 255   255 255 255   255 255 255   255 255 255   255 255 255   255 255 255   255 255 255   255 255 255   255 255 255   255 255 255   255   0   0   255 255 255   255 255 255   255 255 255   255 255 255   255 255 255   255 255 255   255 255 255   255 255 255   255 255 255   255 255 255   255 255 255   255 255 255   255   0   0   255 255 255   255 255 255   255 255 255   255 255 255   255 255 255   255 255 255   255 255 255   255 255 255   255 255 255   255 255 255   255 255 255   255 255 255   255 255 255   255 255 255   255 255 255   255 255 255   255 255 255   255 255 255   255 255 255   255 255 255   255 255 255   255 255 255   255 255 255   255 255 255   255 255 255   255 255 255   255 255 255   255 255 255   255 255 255   255 255 255   255 255 255   255 255 255   255 255 255   255 255 255   255 255 255   255 255 255   255 255 255   255 255 255   255 255 255   255 255 255   255 255 255   255 255 255   255 255 255   255 255 255   255 255 255   255 255 255   255 255 255   255 255 255   255 255 255   255 255 255   255 255 255   255 255 255   255 255 255   255 255 255   255 255 255   255 255 255   255 255 255   255 255 255   255 255 255   255 255 255   255 255 255   255 255 255   255 255 255   255 255 255   255 255 255   255 255 255   255 255 255   255 255 255   255 255 255   255 255 255   255 255 255   255 255 255   255 255 255   255 255 255   255 255 255   255 255 255   255 255 255   255 255 255   255 255 255   255 255 255   255 255 255   255 255 255   255 255 255   255 255 255   255 255 255   255 255 255   255 255 255   255 255 255   255 255 255   255 255 255   255 255 255   255 255 255   255 255 255   255 255 255   255 255 255   255 255 255   255 255 255   255 255 255   255 255 255   255 255 255   255 255 255   255 255 255   255 255 255   255 255 255   255 255 255   255 255 255   255 255 255
255 255 255   255 255 255   255 255 255   255 255 255   255 255 255   255 255 255   255 255 255   255 255 255   255 255 255   255 255 255   255 255 255   255 255 255   255 255 255   255 255 255   255 255 255   255 255 255   255 255 255   255 255 255   255 255 255   255 255 255   255 255 255   255 255 255   255 255 255   255 255 255   255 255 255   255 255 255   255 255 255   255 255 255   255 255 255   255 255 255   255 255 255   255 255 255   255 255 255   255 255 255   255 255 255   255   0   0   255 255 255   255 255 255   255 255 255   255 255 255   255 255 255   255 255 255   255 255 255   255 255 255   255 255 255   255 255 255   255 255 255   255 255 255   255 255 255   255 255 255   255 255 255   255 255 255   255 255 255   255 255 255   255 255 255   255 255 255   255 255 255   255 255 255   255 255 255   255 255 255   255 255 255   255 255 255   255 255 255   255 255 255   255   0   0   255 255 255   255 255 255   255 255 255   255 255 255   255 255 255   255 255 255   255 255 255   255 255 255   255 255 255   255 255 255   255 255 255   255 255 255   255 255 255   255   0   0   255 255 255   255 255 255   255 255 255   255 255 255   255 255 255   255 255 255   255 255 255   255 255 255   255 255 255   255 255 255   255 255 255   255 255 255   255 255 255   255 255 255   255 255 255   255 255 255   255   0   0   255   0   0   255 255 255   255 255 255   255 255 255   255 255 255   255 255 255   255 255 255   255 255 255   255 255 255   255 255 255   255   0   0   255 255 255   255 255 255   255 255 255   255 255 255   255 255 255   255 255 255   255 255 255   255 255 255   255 255 255   255 255 255   255 255 255   255 255 255   255 255 255   255 255 255   255 255 255   255 255 255   255 255 255   255 255 255   255 255 255   255 255 255   255 255 255   255 255 255   255 255 255   255 255 255   255 255 255   255 255 255   255 255 255   255   0   0   255 255 255   255 255 255   255 255 255   255 255 255   255 255 255   255 255 255   255 255 255   255 255 255   255 255 255   255 255 255   255 255 255   255 255 255   255 255 255   255   0   0   255 255 255   255 255 255   255 255 255   255 255 255   255 255 255   255 255 255   255 255 255   255 255 255   255 255 255   255 255 255   255 255 255   255 255 255   255 255 255   255 255 255   255 255 255   255 255 255   255 255 255   255 255 255   255 255 255   255 255 255   255 255 255   255 255 255   255 255 255   255 255 255   255 255 255   255 255 255   255 255 255   255 255 255   255 255 255   255 255 255   255 255 255   255 255 255   255 255 255   255 255 255   255 255 255   255 255 255   255 255 255   255 255 255   255 255 255   255 255 255   255 255 255   255 255 255   255 255 255   255 255 255   255 255 255   255 255 255   255 255 255   255 255 255   255 255 255   255 255 255   255 255 255   255 255 255   255 255 255   255 255 255   255 255 255   255 255 255   255 255 255   255 255 255   255 255 255   255 255 255   255 255 255   255 255 255   255 255 255   255 255 255   255 255 255   255 255 255   255 255 255   255 255 255   255 255 255   255 255 255   255 255 255   255 255 255   255 255 255   255 255 255   255 255 255   255 255 255   255 255 255   255 255 255   255 255 255   255 255 255   255 255 255   255 255 255   255 255 255   255 255 255   255 255 255   255 255 255   255 255 255   255 255 255   255 255 255   255 255 255   255 255 255   255 255 255   255 255 255   255 255 255   255 255 255   255 255 255   255 255 255   255 255 255   255 255 255   255 255 255   255 255 255   255 255 255   255 255 255   255 255 255   255 255 255   255 255 255   255 255 255
255 255 255   255 255 255   255 255 255   255 255 255   255 255 255   255 255 255   255 255 255   255 255 255   255 255 255   255 255 255   255 255 255   255 255 255   255 255 255   255 255 255   255 255 255   255 255 255   255 255 255   255 255 255   255 255 255   255 255 255   255 255 255   255 255 255   255 255 255   255 255 255   255 255 255   255 255 255   255 255 255   255 255 255   255 255 255   255 255 255   255 255 255   255 255 255   255 255 255   255 255 255   255 255 255   255 255 255   255   0   0   255   0   0   255 255 255   255 255 255   255 255 255   255 255 255   255 255 255   255 255 255   255 255 255   255 255 255   255 255 255   255 255 255   255 255 255   255 255 255   255 255 255   255 255 255   255 255 255   255 255 255   255 255 255   255 255 255   255 255 255   255 255 255   255 255 255   255 255 255   255 255 255   255 255 255   255 255 255   255   0   0   255 255 255   255 255 255   255 255 255   255 255 255   255 255 255   255 255 255   255 255 255   255 255 255   255 255 255   255 255 255   255 255 255   255 255 255   255 255 255   255 255 255   255   0   0   255   0   0   255 255 255   255 255 255   255 255 255   255 255 255   255 255 255   255 255 255   255 255 255   255 255 255   255 255 255   255 255 255   255 255 255   255 255 255   255 255 255   255 255 255   255 255 255   255   0   0   255 255 255   255 255 255   255 255 255   255 255 255   255 255 255   255 255 255   255 255 255   255 255 255   255 255 255   255 255 255   255 255 255   255   0   0   255 255 255   255 255 255   255 255 255   255 255 255   255 255 255   255 255 255   255 255 255   255 255 255   255 255 255   255 255 255   255 255 255   255 255 255   255 255 255   255 255 255   255 255 255   255 255 255   255 255 255   255 255 255   255 255 255   255 255 255   255 255 255   255 255 255   255 255 255   255 255 255   255 255 255   255 255 255   255   0   0   255 255 255   255 255 255   255 255 255   255 255 255   255 255 255   255 255 255   255 255 255   255 255 255   255 255 255   255 255 255   255 255 255   255 255 255   255 255 255   255   0   0   255 255 255   255 255 255   255 255 255   255 255 255   255 255 255   255 255 255   255 255 255   255 255 255   255 255 255   255 255 255   255 255 255   255 255 255   255 255 255   255 255 255   255 255 255   255 255 255   255 255 255   255 255 255   255 255 255   255 255 255   255 255 255   255 255 255   255 255 255   255 255 255   255 255 255   255 255 255   255 255 255   255 255 255   255 255 255   255 255 255   255 255 255   255 255 255   255 255 255   255 255 255   255 255 255   255 255 255   255 255 255   255 255 255   255 255 255   255 255 255   255 255 255   255 255 255   255 255 255   255 255 255   255 255 255   255 255 255   255 255 255   255 255 255   255 255 255   255 255 255   255 255 255   255 255 255   255 255 255   255 255 255   255 255 255   255 255 255   255 255 255   255 255 255   255 255 255   255 255 255   255 255 255   255 255 255   255 255 255   255 255 255   255 255 255   255 255 255   255 255 255   255 255 255   255 255 255   255 255 255   255 255 255   255 255 255   255 255 255   255 255 255   255 255 255   255 255 255   255 255 255   255 255 255   255 255 255   255 255 255   255 255 255   255 255 255   255 255 255   255 255 255   255 255 255   255 255 255   255 255 255   255 255 255   255 255 255   255 255 255   255 255 255   255 255 255   255 255 255   255 255 255   255 255 255   255 255 255   255 255 255   255 255 255   255 255 255   255 255 255   255 255 255   255 255 255   255 255 255   255 255 255   255 255 255   255 255 255   255 255 255
255 255 255   255 255 255   255 255 255   255 255 255   255 255 255   255 255 255   255 255 255   255 255 255   255 255 255   255 255 255   255 255 255   255 255 255   255 255 255   255 255 255   255 255 255   255 255 255   255 255 255   255 255 255   255 255 255   255 255 255   255 255 255   255 255 255   255 255 255   255 255 255   255 255 255   255 255 255   255 255 255   255 255 255   255 255 255   255 255 255   255 255 255   255 255 255   255 255 255   255 255 255   255 255 255   255 255 255   255 255 255   255 255 255   255   0   0   255   0   0   255 255 255   255 255 255   255 255 255   255 255 255   255 255 255   255 255 255   255 255 255   255 255 255   255 255 255   255 255 255   255 255 255   255 255 255   255 255 255   255 255 255   255 255 255   255 255 255   255 255 255   255 255 255   255 255 255   255 255 255   255 255 255   255 255 255   255   0   0   255 255 255   255 255 255   255 255 255   255 255 255   255 255 255   255 255 255   255 255 255   255 255 255   255 255 255   255 255 255   255 255 255   255 255 255   255 255 255   255 255 255   255 255 255   255 255 255   255   0   0   255   0   0   255 255 255   255 255 255   255 255 255   255 255 255   255 255 255   255 255 255   255 255 255   255 255 255   255 255 255   255 255 255   255 255 255   255 255 255   255 255 255   255 255 255   255   0   0   255 255 255   255 255 255   255 255 255   255 255 255   255 255 255   255 255 255   255 255 255   255 255 255   255 255 255   255 255 255   255 255 255   255 255 255   255   0   0   255 255 255   255 255 255   255 255 255   255 255 255   255 255 255   255 255 255   255 255 255   255 255 255   255 255 255   255 255 255   255 255 255   255 255 255   255 255 255   255 255 255   255 255 255   255 255 255   255 255 255   255 255 255   255 255 255   255 255 255   255 255 255   255 255 255   255 255 255   255 255 255   255   0   0   255 255 255   255 255 255   255 255 255   255 255 255   255 255 255   255 255 255   255 255 255   255 255 255   255 255 255   255 255 255   255 255 255   255 255 255   255 255 255   255   0   0   255 255 255   255 255 255   255 255 255   255 255 255   255 255 255   255 255 255   255 255 255   255 255 255   255 255 255   255 255 255   255 255 255   255 255 255   255 255 255   255 255 255   255   0   0   255   0   0   255 255 255   255 255 255   255 255 255   255 255 255   255 255 255   255 255 255   255 255 255   255 255 255   255 255 255   255 255 255   255 255 255   255 255 255   255 255 255   255 255 255   255 255 255   255 255 255   255 255 255   255 255 255   255 255 255   255 255 255   255 255 255   255 255 255   255 255 255   255 255 255   255 255 255   255 255 255   255 255 255   255 255 255   255 255 255   255 255 255   255 255 255   255 255 255   255 255 255   255 255 255   255 255 255   255 255 255   255 255 255   255 255 255   255 255 255   255 255 255   255 255 255   255 255 255   255 255 255   255 255 255   255 255 255   255 255 255   255 255 255   255 255 255   255 255 255   255 255 255   255 255 255   255 255 255   255 255 255   255 255 255   255 255 255   255 255 255   255 255 255   255 255 255   255 255 255   255 255 255   255 255 255   255 255 255   255 255 255   255 255 255   255 255 255   255 255 255   255 255 255   255 255 255   255 255 255   255 255 255   255 255 255   255 255 255   255 255 255   255 255 255   255 255 255   255 255 255   255 255 255   255 255 255   255 255 255   255 255 255   255 255 255   255 255 255   255 255 255   255 255 255   255 255 255   255 255 255   255 255 255   255 255 255   255 255 255   255 255 255   255 255 255   255 255 255
255 255 255   255 255 255   255 255 255   255 255 255   255 255 255   255 255 255   255 255 255   255 255 255   255 255 255   255 255 255   255 255 255   255 255 255   255 255 255   255 255 255   255 255 255   255 255 255   255 255 255   255 255 255   255 255 255   255 255 255   255 255 255   255 255 255   255 255 255   255 255 255   255 255 255   255 255 255   255 255 255   255 255 255   255 255 255   255 255 255   255 255 255   255 255 255   255 255 255   255 255 255   255 255 255   255 255 255   255 255 255   255 255 255   255 255 255   255 255 255   255   0   0   255   0   0   255 255 255   255 255 255   255 255 255   255 255 255   255 255 255   255 255 255   255 255 255   255 255 255   255 255 255   255 255 255   255 255 255   255 255 255   255 255 255   255 255 255   255 255 255   255 255 255   255 255 255   255 255 255   255   0   0   255   0   0   255   0   0   255 255 255   255 255 255   255 255 255   255 255 255   255 255 255   255 255 255   255 255 255   255 255 255   255 255 255   255 255 255   255 255 255   255 255 255   255 255 255   255 255 255   255 255 255   255 255 255   255 255 255   255 255 255   255   0   0   255   0   0   255 255 255   255 255 255   255 255 255   255 255 255   255 255 255   255 255 255   255 255 255   255 255 255   255 255 255   255 255 255   255 255 255   255 255 255   255   0   0   255 255 255   255 255 255   255 255 255   255 255 255   255 255 255   255 255 255   255 255 255   255 255 255   255 255 255   255 255 255   255 255 255   255 255 255   255   0   0   255   0   0   255 255 255   255 255 255   255 255 255   255 255 255   255 255 255   255 255 255   255 255 255   255 255 255   255 255 255   255 255 255   255 255 255   255 255 255   255 255 255   255 255 255   255 255 255   255 255 255   255 255 255   255 255 255   255 255 255   255 255 255   255 255 255   255 255 255   255   0   0   255 255 255   255 255 255   255 255 255   255 255 255   255 255 255   255 255 255   255 255 255   255 255 255   255 255 255   255 255 255   255 255 255   255 255 255   255 255 255   255 255 255   255   0   0   255 255 255   255 255 255   255 255 255   255 255 255   255 255 255   255   0   0   255   0   0   255   0   0   255   0   0   255   0   0   255   0   0   255   0   0   255   0   0   255   0   0   255   0   0   255 255 255   255   0   0   255   0   0   255   0   0   255   0   0   255   0   0   255 255 255   255 255 255   255 255 255   255 255 255   255 255 255   255 255 255   255 255 255   255 255 255   255 255 255   255 255 255   255 255 255   255 255 255   255 255 255   255 255 255   255 255 255   255 255 255   255 255 255   255 255 255   255 255 255   255 255 255   255 255 255   255 255 255   255 255 255   255 255 255   255 255 255   255 255 255   255 255 255   255 255 255   255 255 255   255 255 255   255 255 255   255 255 255   255 255 255   255 255 255   255 255 255   255 255 255   255 255 255   255 255 255   255 255 255   255 255 255   255 255 255   255 255 255   255 255 255   255 255 255   255 255 255   255 255 255   255 255 255   255 255 255   255 255 255   255 255 255   255 255 255   255 255 255   255 255 255   255 255 255   255 255 255   255 255 255   255 255 255   255 255 255   255 255 255   255 255 255   255 255 255   255 255 255   255 255 255   255 255 255   255 255 255   255 255 255   255 255 255   255 255 255   255 255 255   255 255 255   255 255 255   255 255 255   255 255 255   255 255 255   255 255 255   255 255 255   255 255 255   255 255 255   255 255 255   255 255 255   255 255 255   255 255 255   255 255 255   255 255 255   255 255 255   255 255 255   255 255 255
255 255 255   255 255 255   255 255 255   255 255 255   255 255 255   255 255 255   255 255 255   255 255 255   255 255 255   255 255 255   255 255 255   255 255 255   255 255 255   255 255 255   255 255 255   255 255 255   255 255 255   255 255 255   255 255 255   255 255 255   255 255 255   255 255 255   255 255 255   255 255 255   255 255 255   255 255 255   255 255 255   255 255 255   255 255 255   255 255 255   255 255 255   255 255 255   255 255 255   255 255 255   255 255 255   255 255 255   255 255 255   255 255 255   255 255 255   255 255 255   255 255 255   255 255 255   255   0   0   255   0   0   255 255 255   255 255 255   255 255 255   255 255 255   255 255 255   255 255 255   255 255 255   255 255 255   255 255 255   255   0   0   255   0   0   255   0   0   255   0   0   255   0   0   255   0   0   255   0   0   255 255 255   255 255 255   255 255 255   255 255 255   255 255 255   255 255 255   255 255 255   255 255 255   255 255 255   255 255 255   255 255 255   255 255 255   255 255 255   255 255 255   255 255 255   255 255 255   255 255 255   255 255 255   255 255 255   255 255 255   255 255 255   255 255 255   255   0   0   255   0   0   255   0   0   255 255 255   255 255 255   255 255 255   255 255 255   255 255 255   255 255 255   255 255 255   255 255 255   255 255 255   255   0   0   255 255 255   255 255 255   255 255 255   255 255 255   255 255 255   255 255 255   255 255 255   255 255 255   255 255 255   255 255 255   255 255 255   255 255 255   255 255 255   255 255 255   255   0   0   255 255 255   255 255 255   255 255 255   255 255 255   255 255 255   255 255 255   255 255 255   255 255 255   255 255 255   255 255 255   255 255 255   255 255 255   255 255 255   255 255 255   255 255 255   255 255 255   255 255 255   255 255 255   255 255 255   255 255 255   255 255 255   255   0   0   255 255 255   255 255 255   255 255 255   255 255 255   255 255 255   255 255 255   255 255 255   255 255 255   255 255 255   255 255 255   255 255 255   255 255 255   255 255 255   255 255 255   255 255 255   255   0   0   255   0   0   255   0   0   255   0   0   255   0   0   255   0   0   255 255 255   255 255 255   255 255 255   255 255 255   255 255 255   255 255 255   255 255 255   255 255 255   255 255 255   255 255 255   255 255 255   255 255 255   255 255 255   255 255 255   255 255 255   255 255 255   255   0   0   255   0   0   255 255 255   255 255 255   255 255 255   255 255 255   255 255 255   255 255 255   255 255 255   255 255 255   255 255 255   255 255 255   255 255 255   255 255 255   255 255 255   255 255 255   255 255 255   255 255 255   255 255 255   255 255 255   255 255 255   255 255 255   255 255 255   255 255 255   255 255 255   255 255 255   255 255 255   255 255 255   255 255 255   255 255 255   255 255 255   255 255 255   255 255 255   255 255 255   255 255 255   255 255 255   255 255 255   255 255 255   255 255 255   255 255 255   255 255 255   255 255 255   255 255 255   255 255 255   255 255 255   255 255 255   255 255 255   255 255 255   255 255 255   255 255 255   255 255 255   255 255 255   255 255 255   255 255 255   255 255 255   255 255 255   255 255 255   255 255 255   255 255 255   255 255 255   255 255 255   255 255 255   255 255 255   255 255 255   255 255 255   255 255 255   255 255 255   255 255 255   255 255 255   255 255 255   255 255 255   255 255 255   255 255 255   255 255 255   255 255 255   255 255 255   255 255 255   255 255 255   255 255 255   255 255 255   255 255 255   255 255 255   255 255 255   255 255 255   255 255 255   255 255 255   255 255 255
255 255 255   255 255 255   255 255 255   255 255 255   255 255 255   255 255 255   255 255 255   255 255 255   255 255 255   255 255 255   255 255 255   255 255 255   255 255 255   255 255 255   255 255 255   255 255 255   255 255 255   255 255 255   255 255 255   255 255 255   255 255 255   255 255 255   255 255 255   255 255 255   255 255 255   255 255 255   255 255 255   255 255 255   255 255 255   255 255 255   255 255 255   255 255 255   255 255 255   255 255 255   255 255 255   255 255 255   255 255 255   255 255 255   255 255 255   255 255 255   255 255 255   255 255 255   255 255 255   255 255 255   255   0   0   255   0   0   255   0   0   255   0   0   255   0   0   255   0   0   255   0   0   255   0   0   255   0   0   255   0   0   255 255 255   255 255 255   255 255 255   255 255 255   255 255 255   255 255 255   255 255 255   255 255 255   255 255 255   255 255 255   255 255 255   255 255 255   255 255 255   255 255 255   255 255 255   255 255 255   255 255 255   255 255 255   255 255 255   255 255 255   255 255 255   255 255 255   255 255 255   255 255 255   255 255 255   255 255 255   255 255 255   255 255 255   255 255 255   255 255 255   255   0   0   255   0   0   255   0   0   255 255 255   255 255 255   255 255 255   255 255 255   255 255 255   255   0   0   255   0   0   255 255 255   255 255 255   255 255 255   255 255 255   255 255 255   255 255 255   255 255 255   255 255 255   255 255 255   255 255 255   255 255 255   255 255 255   255 255 255   255 255 255   255 255 255   255 255 255   255   0   0   255 255 255   255 255 255   255 255 255   255 255 255   255 255 255   255 255 255   255 255 255   255 255 255   255 255 255   255 255 255   255 255 255   255 255 255   255 255 255   255 255 255   255 255 255   255 255 255   255 255 255   255 255 255   255   0   0   255   0   0   255 255 255   255 255 255   255 255 255   255 255 255   255 255 255   255 255 255   255 255 255   255 255 255   255 255 255   255 255 255   255 255 255   255 255 255   255 255 255   255 255 255   255 255 255   255 255 255   255 255 255   255 255 255   255 255 255   255 255 255   255 255 255   255 255 255   255 255 255   255 255 255   255 255 255   255 255 255   255 255 255   255 255 255   255 255 255   255 255 255   255 255 255   255 255 255   255 255 255   255 255 255   255 255 255   255 255 255   255 255 255   255 255 255   255 255 255   255 255 255   255 255 255   255 255 255   255 255 255   255 255 255   255 255 255   255 255 255   255 255 255   255 255 255   255 255 255   255 255 255   255 255 255   255 255 255   255 255 255   255 255 255   255 255 255   255 255 255   255 255 255   255 255 255   255 255 255   255 255 255   255 255 255   255 255 255   255 255 255   255 255 255   255 255 255   255 255 255   255 255 255   255 255 255   255 255 255   255 255 255   255 255 255   255 255 255   255 255 255   255 255 255   255 255 255   255 255 255   255 255 255   255 255 255   255 255 255   255 255 255   255 255 255   255 255 255   255 255 255   255 255 255   255 255 255   255 255 255   255 255 255   255 255 255   255 255 255   255 255 255   255 255 255   255 255 255   255 255 255   255 255 255   255 255 255   255 255 255   255 255 255   255 255 255   255 255 255   255 255 255   255 255 255   255 255 255   255 255 255   255 255 255   255 255 255   255 255 255   255 255 255   255 255 255   255 255 255   255 255 255   255 255 255   255 255 255   255 255 255   255 255 255   255 255 255   255 255 255   255 255 255   255 255 255   255 255 255   255 255 255   255 255 255   255 255 255   255 255 255   255 255 255   255 255 255
255 255 255   255 255 255   255 255 255   255 255 255   255 255 255   255 255 255   255 255 255   255 255 255   255 255 255   255 255 255   255 255 255   255 255 255   255 255 255   255 255 255   255 255 255   255 255 255   255 255 255   255 255 255   255 255 255   255 255 255   255 255 255   255 255 255   255 255 255   255 255 255   255 255 255   255 255 255   255 255 255   255 255 255   255 255 255   255 255 255   255 255 255   255 255 255   255 255 255   255 255 255   255 255 255   255 255 255   255 255 255   255 255 255   255 255 255   255 255 255   255 255 255   255 255 255   255 255 255   255 255 255   255 255 255   255 255 255   255 255 255   255 255 255   255 255 255   255 255 255   255 255 255   255 255 255   255 255 255   255 255 255   255 255 255   255 255 255   255 255 255   255 255 255   255 255 255   255 255 255   255 255 255   255 255 255   255 255 255   255 255 255   255 255 255   255 255 255   255 255 255   255 255 255   255 255 255   255 255 255   255 255 255   255 255 255   255 255 255   255 255 255   255 255 255   255 255 255   255 255 255   255 255 255   255 255 255   255 255 255   255 255 255   255 255 255   255 255 255   255 255 255   255 255 255   255 255 255   255   0   0   255   0   0   255   0   0   255   0   0   255   0   0   255   0   0   255 255 255   255 255 255   255 255 255   255 255 255   255 255 255   255 255 255   255 255 255   255 255 255   255 255 255   255 255 255   255 255 255   255 255 255   255 255 255   255 255 255   255 255 255   255 255 255   255 255 255   255 255 255   255 255 255   255   0   0   255   0   0   255 255 255   255 255 255   255 255 255   255 255 255   255 255 255   255 255 255   255 255 255   255 255 255   255 255 255   255 255 255   255 255 255   255 255 255   255 255 255   255   0   0   255   0   0   255   0   0   255   0   0   255 255 255   255 255 255   255 255 255   255 255 255   255 255 255   255 255 255   255 255 255   255 255 255   255 255 255   255 255 255   255 255 255   255 255 255   255 255 255   255 255 255   255 255 255   255 255 255   255 255 255   255 255 255   255 255 255   255 255 255   255 255 255   255 255 255   255 255 255   255 255 255   255 255 255   255 255 255   255 255 255   255 255 255   255 255 255   255 255 255   255 255 255   255 255 255   255 255 255   255 255 255   255 255 255   255 255 255   255 255 255   255 255 255   255 255 255   255 255 255   255 255 255   255 255 255   255 255 255   255 255 255   255 255 255   255 255 255   255 255 255   255 255 255   255 255 255   255 255 255   255 255 255   255 255 255   255 255 255   255 255 255   255 255 255   255 255 255   255 255 255   255 255 255   255 255 255   255 255 255   255 255 255   255 255 255   255 255 255   255 255 255   255 255 255   255 255 255   255 255 255   255 255 255   255 255 255   255 255 255   255 255 255   255 255 255   255 255 255   255 255 255   255 255 255   255 255 255   255 255 255   255 255 255   255 255 255   255 255 255   255 255 255   255 255 255   255 255 255   255 255 255   255 255 255   255 255 255   255 255 255   255 255 255   255 255 255   255 255 255   255 255 255   255 255 255   255 255 255   255 255 255   255 255 255   255 255 255   255 255 255   255 255 255   255 255 255   255 255 255   255 255 255   255 255 255   255 255 255   255 255 255   255 255 255   255 255 255   255 255 255   255 255 255   255 255 255   255 255 255   255 255 255   255 255 255   255 255 255   255 255 255   255 255 255   255 255 255   255 255 255   255 255 255   255 255 255   255 255 255   255 255 255   255 255 255   255 255 255   255 255 255   255 255 255   255 255 255
255 255 255   255 255 255   255 255 255   255 255 255   255 255 255   255 255 255   255 255 255   255 255 255   255 255 255   255 255 255   255 255 255   255 255 255   255 255 255   255 255 255   255 255 255   255 255 255   255 255 255   255 255 255   255 255 255   255 255 255   255 255 255   255 255 255   255 255 255   255 255 255   255 255 255   255 255 255   255 255 255   255 255 255   255 255 255   255 255 255   255 255 255   255 255 255   255 255 255   255 255 255   255 255 255   255 255 255   255 255 255   255 255 255   255 255 255   255 255 255   255 255 255   255 255 255   255 255 255   255 255 255   255 255 255   255 255 255   255 255 255   255 255 255   255 255 255   255 255 255   255 255 255   255 255 255   255 255 255   255 255 255   255 255 255   255 255 255   255 255 255   255 255 255   255 255 255   255 255 255   255 255 255   255 255 255   255 255 255   255 255 255   255 255 255   255 255 255   255 255 255   255 255 255   255 255 255   255 255 255   255 255 255   255 255 255   255 255 255   255 255 255   255 255 255   255 255 255   255 255 255   255 255 255   255 255 255   255 255 255   255 255 255   255 255 255   255 255 255   255 255 255   255 255 255   255 255 255   255 255 255   255 255 255   255 255 255   255 255 255   255 255 255   255 255 255   255 255 255   255 255 255   255 255 255   255 255 255   255 255 255   255 255 255   255 255 255   255 255 255   255 255 255   255 255 255   255 255 255   255 255 255   255 255 255   255 255 255   255 255 255   255 255 255   255 255 255   255 255 255   255 255 255   255 255 255   255   0   0   255   0   0   255   0   0   255 255 255   255 255 255   255 255 255   255 255 255   255 255 255   255 255 255   255 255 255   255   0   0   255   0   0   255   0   0   255   0   0   255   0   0   255 255 255   255 255 255   255 255 255   255 255 255   255 255 255   255 255 255   255 255 255   255 255 255   255 255 255   255 255 255   255 255 255   255 255 255   255 255 255   255 255 255   255 255 255   255 255 255   255 255 255   255 255 255   255 255 255   255 255 255   255 255 255   255 255 255   255 255 255   255 255 255   255 255 255   255 255 255   255 255 255   255 255 255   255 255 255   255 255 255   255 255 255   255 255 255   255 255 255   255 255 255   255 255 255   255 255 255   255 255 255   255 255 255   255 255 255   255 255 255   255 255 255   255 255 255   255 255 255   255 255 255   255 255 255   255 255 255   255 255 255   255 255 255   255 255 255   255 255 255   255 255 255   255 255 255   255 255 255   255 255 255   255 255 255   255 255 255   255 255 255   255 255 255   255 255 255   255 255 255   255 255 255   255 255 255   255 255 255   255 255 255   255 255 255   255 255 255   255 255 255   255 255 255   255 255 255   255 255 255   255 255 255   255 255 255   255 255 255   255 255 255   255 255 255   255 255 255   255 255 255   255 255 255   255 255 255   255 255 255   255 255 255   255 255 255   255 255 255   255 255 255   255 255 255   255 255 255   255 255 255   255 255 255   255 255 255   255 255 255   255 255 255   255 255 255   255 255 255   255 255 255   255 255 255   255 255 255   255 255 255   255 255 255   255 255 255   255 255 255   255 255 255   255 255 255   255 255 255   255 255 255   255 255 255   255 255 255   255 255 255   255 255 255   255 255 255   255 255 255   255 255 255   255 255 255   255 255 255   255 255 255   255 255 255   255 255 255   255 255 255   255 255 255   255 255 255   255 255 255   255 255 255   255 255 255   255 255 255   255 255 255   255 255 255   255 255 255   255 255 255   255 255 255   255 255 255
255 255 255   255 255 255   255 255 255   255 255 255   255 255 255   255 255 255   255 255 255   255 255 255   255 255 255   255 255 255   255 255 255   255 255 255   255 255 255   255 255 255   255 255 255   255 255 255   255 255 255   255 255 255   255 255 255   255 255 255   255 255 255   255 255 255   255 255 255   255 255 255   255 255 255   255 255 255   255 255 255   255 255 255   255 255 255   255 255 255   255 255 255   255 255 255   255 255 255   255 255 255   255 255 255   255 255 255   255 255 255   255 255 255   255 255 255   255 255 255   255 255 255   255 255 255   255 255 255   255 255 255   255 255 255   255 255 255   255 255 255   255 255 255   255 255 255   255 255 255   255 255 255   255 255 255   255 255 255   255 255 255   255 255 255   255 255 255   255 255 255   255 255 255   255 255 255   255 255 255   255 255 255   255 255 255   255 255 255   255 255 255   255 255 255   255 255 255   255 255 255   255 255 255   255 255 255   255 255 255   255 255 255   255 255 255   255 255 255   255 255 255   255 255 255   255 255 255   255 255 255   255 255 255   255 255 255   255 255 255   255 255 255   255 255 255   255 255 255   255 255 255   255 255 255   255 255 255   255 255 255   255 255 255   255 255 255   255 255 255   255 255 255   255 255 255   255 255 255   255 255 255   255 255 255   255 255 255   255 255 255   255 255 255   255 255 255   255 255 255   255 255 255   255 255 255   255 255 255   255 255 255   255 255 255   255 255 255   255 255 255   255 255 255   255 255 255   255 255 255   255 255 255   255 255 255   255 255 255   255 255 255   255 255 255   255   0   0   255   0   0   255   0   0   255   0   0   255   0   0   255   0   0   255   0   0   255   0   0   255 255 255   255 255 255   255 255 255   255 255 255   255 255 255   255 255 255   255 255 255   255 255 255   255 255 255   255 255 255   255 255 255   255 255 255   255 255 255   255 255 255   255 255 255   255 255 255   255 255 255   255 255 255   255 255 255   255 255 255   255 255 255   255 255 255   255 255 255   255 255 255   255 255 255   255 255 255   255 255 255   255 255 255   255 255 255   255 255 255   255 255 255   255 255 255   255 255 255   255 255 255   255 255 255   255 255 255   255 255 255   255 255 255   255 255 255   255 255 255   255 255 255   255 255 255   255 255 255   255 255 255   255 255 255   255 255 255   255 255 255   255 255 255   255 255 255   255 255 255   255 255 255   255 255 255   255 255 255   255 255 255   255 255 255   255 255 255   255 255 255   255 255 255   255 255 255   255 255 255   255 255 255   255 255 255   255 255 255   255 255 255   255 255 255   255 255 255   255 255 255   255 255 255   255 255 255   255 255 255   255 255 255   255 255 255   255 255 255   255 255 255   255 255 255   255 255 255   255 255 255   255 255 255   255 255 255   255 255 255   255 255 255   255 255 255   255 255 255   255 255 255   255 255 255   255 255 255   255 255 255   255 255 255   255 255 255   255 255 255   255 255 255   255 255 255   255 255 255   255 255 255   255 255 255   255 255 255   255 255 255   255 255 255   255 255 255   255 255 255   255 255 255   255 255 255   255 255 255   255 255 255   255 255 255   255 255 255   255 255 255   255 255 255   255 255 255   255 255 255   255 255 255   255 255 255   255 255 255   255 255 255   255 255 255   255 255 255   255 255 255   255 255 255   255 255 255   255 255 255   255 255 255   255 255 255   255 255 255   255 255 255   255 255 255   255 255 255   255 255 255   255 255 255   255 255 255   255 255 255   255 255 255   255 255 255   255 255 255
255 255 255   255 255 255   255 255 255   255 255 255   255 255 255   255 255 255   255 255 255   255 255 255   255 255 255   255 255 255   255 255 255   255 255 255   255 255 255   255 255 255   255 255 255   255 255 255   255 255 255   255 255 255   255 255 255   255 255 255   255 255 255   255 255 255   255 255 255   255 255 255   255 255 255   255 255 255   255 255 255   255 255 255   255 255 255   255 255 255   255 255 255   255 255 255   255 255 255   255 255 255   255 255 255   255 255 255   255 255 255   255 255 255   255 255 255   255 255 255   255 255 255   255 255 255   255 255 255   255 255 255   255 255 255   255 255 255   255 255 255   255 255 255   255 255 255   255 255 255   255 255 255   255 255 255   255 255 255   255 255 255   255 255 255   255 255 255   255 255 255   255 255 255   255 255 255   255 255 255   255 255 255   255 255 255   255 255 255   255 255 255   255 255 255   255 255 255   255 255 255   255 255 255   255 255 255   255 255 255   255 255 255   255 255 255   255 255 255   255 255 255   255 255 255   255 255 255   255 255 255   255 255 255   255 255 255   255 255 255   255 255 255   255 255 255   255 255 255   255 255 255   255 255 255   255 255 255   255 255 255   255 255 255   255 255 255   255 255 255   255 255 255   255 255 255   255 255 255   255 255 255   255 255 255   255 255 255   255 255 255   255 255 255   255 255 255   255 255 255   255 255 255   255 255 255   255 255 255   255 255 255   255 255 255   255 255 255   255 255 255   255 255 255   255 255 255   255 255 255   255 255 255   255 255 255   255 255 255   255 255 255   255 255 255   255 255 255   255 255 255   255 255 255   255 255 255   255 255 255   255 255 255   255 255 255   255 255 255   255 255 255   255 255 255   255 255 255   255 255 255   255 255 255   255 255 255   255 255 255   255 255 255   255 255 255   255 255 255   255 255 255   255 255 255   255 255 255   255 255 255   255 255 255   255 255 255   255 255 255   255 255 255   255 255 255   255 255 255   255 255 255   255 255 255   255 255 255   255 255 255   255 255 255   255 255 255   255 255 255   255 255 255   255 255 255   255 255 255   255 255 255   255 255 255   255 255 255   255 255 255   255 255 255   255 255 255   255 255 255   255 255 255   255 255 255   255 255 255   255 255 255   255 255 255   255 255 255   255 255 255   255 255 255   255 255 255   255 255 255   255 255 255   255 255 255   255 255 255   255 255 255   255 255 255   255 255 255   255 255 255   255 255 255   255 255 255   255 255 255   255 255 255   255 255 255   255 255 255   255 255 255   255 255 255   255 255 255   255 255 255   255 255 255   255 255 255   255 255 255   255 255 255   255 255 255   255 255 255   255 255 255   255 255 255   255 255 255   255 255 255   255 255 255   255 255 255   255 255 255   255 255 255   255 255 255   255 255 255   255 255 255   255 255 255   255 255 255   255 255 255   255 255 255   255 255 255   255 255 255   255 255 255   255 255 255   255 255 255   255 255 255   255 255 255   255 255 255   255 255 255   255 255 255   255 255 255   255 255 255   255 255 255   255 255 255   255 255 255   255 255 255   255 255 255   255 255 255   255 255 255   255 255 255   255 255 255   255 255 255   255 255 255   255 255 255   255 255 255   255 255 255   255 255 255   255 255 255   255 255 255   255 255 255   255 255 255   255 255 255   255 255 255   255 255 255   255 255 255   255 255 255   255 255 255   255 255 255   255 255 255   255 255 255   255 255 255   255 255 255   255 255 255   255 255 255   255 255 255   255 255 255   255 255 255   255 255 255
255 255 255   255 255 255   255 255 255   255 255 255   255 255 255   255 255 255   255 255 255   255 255 255   255 255 255   255 255 255   255 255 255   255 255 255   255 255 255   255 255 255   255 255 255   255 255 255   255 255 255   255 255 255   255 255 255   255 255 255   255 255 255   255 255 255   255 255 255   255 255 255   255 255 255   255 255 255   255 255 255   255 255 255   255 255 255   255 255 255   255 255 255   255 255 255   255 255 255   255 255 255   255 255 255   255 255 255   255 255 255   255 255 255   255 255 255   255 255 255   255 255 255   255 255 255   255 255 255   255 255 255   255 255 255   255 255 255   255 255 255   255 255 255   255 255 255   255 255 255   255 255 255   255 255 255   255 255 255   255 255 255   255 255 255   255 255 255   255 255 255   255 255 255   255 255 255   255 255 255   255 255 255   255 255 255   255 255 255   255 255 255   255 255 255   255 255 255   255 255 255   255 255 255   255 255 255   255 255 255   255 255 255   255 255 255   255 255 255   255 255 255   255 255 255   255 255 255   255 255 255   255 255 255   255 255 255   255 255 255   255 255 255   255 255 255   255 255 255   255 255 255   255 255 255   255 255 255   255 255 255   255 255 255   255 255 255   255 255 255   255 255 255   255 255 255   255 255 255   255 255 255   255 255 255   255 255 255   255 255 255   255 255 255   255 255 255   255 255 255   255 255 255   255 255 255   255 255 255   255 255 255   255 255 255   255 255 255   255 255 255   255 255 255   255 255 255   255 255 255   255 255 255   255 255 255   255 255 255   255 255 255   255 255 255   255 255 255   255 255 255   255 255 255   255 255 255   255 255 255   255 255 255   255 255 255   255 255 255   255 255 255   255 255 255   255 255 255   255 255 255   255 255 255   255 255 255   255 255 255   255 255 255   255 255 255   255 255 255   255 255 255   255 255 255   255 255 255   255 255 255   255 255 255   255 255 255   255 255 255   255 255 255   255 255 255   255 255 255   255 255 255   255 255 255   255 255 255   255 255 255   255 255 255   255 255 255   255 255 255   255 255 255   255 255 255   255 255 255   255 255 255   255 255 255   255 255 255   255 255 255   255 255 255   255 255 255   255 255 255   255 255 255   255 255 255   255 255 255   255 255 255   255 255 255   255 255 255   255 255 255   255 255 255   255 255 255   255 255 255   255 255 255   255 255 255   255 255 255   255 255 255   255 255 255   255 255 255   255 255 255   255 255 255   255 255 255   255 255 255   255 255 255   255 255 255   255 255 255   255 255 255   255 255 255   255 255 255   255 255 255   255 255 255   255 255 255   255 255 255   255 255 255   255 255 255   255 255 255   255 255 255   255 255 255   255 255 255   255 255 255   255 255 255   255 255 255   255 255 255   255 255 255   255 255 255   255 255 255   255 255 255   255 255 255   255 255 255   255 255 255   255 255 255   255 255 255   255 255 255   255 255 255   255 255 255   255 255 255   255 255 255   255 255 255   255 255 255   255 255 255   255 255 255   255 255 255   255 255 255   255 255 255   255 255 255   255 255 255   255 255 255   255 255 255   255 255 255   255 255 255   255 255 255   255 255 255   255 255 255   255 255 255   255 255 255   255 255 255   255 255 255   255 255 255   255 255 255   255 255 255   255 255 255   255 255 255   255 255 255   255 255 255   255 255 255   255 255 255   255 255 255   255 255 255   255 255 255   255 255 255   255 255 255   255 255 255   255 255 255   255 255 255   255 255 255   255 255 255   255 255 255   255 255 255   255 255 255
255 255 255   255 255 255   255 255 255   255 255 255   255 255 255   255 255 255   255 255 255   255 255 255   255 255 255   255 255 255   255 255 255   255 255 255   255 255 255   255 255 255   255 255 255   255 255 255   255 255 255   255 255 255   255 255 255   255 255 255   255 255 255   255 255 255   255 255 255   255 255 255   255 255 255   255 255 255   255 255 255   255 255 255   255 255 255   255 255 255   255 255 255   255 255 255   255 255 255   255 255 255   255 255 255   255 255 255   255 255 255   255 255 255   255 255 255   255 255 255   255 255 255   255 255 255   255 255 255   255 255 255   255 255 255   255 255 255   255 255 255   255 255 255   255 255 255   255 255 255   255 255 255   255 255 255   255 255 255   255 255 255   255 255 255   255 255 255   255 255 255   255 255 255   255 255 255   255 255 255   255 255 255   255 255 255   255 255 255   255 255 255   255 255 255   255 255 255   255 255 255   255 255 255   255 255 255   255 255 255   255 255 255   255 255 255   255 255 255   255 255 255   255 255 255   255 255 255   255 255 255   255 255 255   255 255 255   255 255 255   255 255 255   255 255 255   255 255 255   255 255 255   255 255 255   255 255 255   255 255 255   255 255 255   255 255 255   255 255 255   255 255 255   255 255 255   255 255 255   255 255 255   255 255 255   255 255 255   255 255 255   255 255 255   255 255 255   255 255 255   255 255 255   255 255 255   255 255 255   255 255 255   255 255 255   255 255 255   255 255 255   255 255 255   255 255 255   255 255 255   255 255 255   255 255 255   255 255 255   255 255 255   255 255 255   255 255 255   255 255 255   255 255 255   255 255 255   255 255 255   255 255 255   255 255 255   255 255 255   255 255 255   255 255 255   255 255 255   255 255 255   255 255 255   255 255 255   255 255 255   255 255 255   255 255 255   255 255 255   255 255 255   255 255 255   255 255 255   255 255 255   255 255 255   255 255 255   255 255 255   255 255 255   255 255 255   255 255 255   255 255 255   255 255 255   255 255 255   255 255 255   255 255 255   255 255 255   255 255 255   255 255 255   255 255 255   255 255 255   255 255 255   255 255 255   255 255 255   255 255 255   255 255 255   255 255 255   255 255 255   255 255 255   255 255 255   255 255 255   255 255 255   255 255 255   255 255 255   255 255 255   255 255 255   255 255 255   255 255 255   255 255 255   255 255 255   255 255 255   255 255 255   255 255 255   255 255 255   255 255 255   255 255 255   255 255 255   255 255 255   255 255 255   255 255 255   255 255 255   255 255 255   255 255 255   255 255 255   255 255 255   255 255 255   255 255 255   255 255 255   255 255 255   255 255 255   255 255 255   255 255 255   255 255 255   255 255 255   255 255 255   255 255 255   255 255 255   255 255 255   255 255 255   255 255 255   255 255 255   255 255 255   255 255 255   255 255 255   255 255 255   255 255 255   255 255 255   255 255 255   255 255 255   255 255 255   255 255 255   255 255 255   255 255 255   255 255 255   255 255 255   255 255 255   255 255 255   255 255 255   255 255 255   255 255 255   255 255 255   255 255 255   255 255 255   255 255 255   255 255 255   255 255 255   255 255 255   255 255 255   255 255 255   255 255 255   255 255 255   255 255 255   255 255 255   255 255 255   255 255 255   255 255 255   255 255 255   255 255 255   255 255 255   255 255 255   255 255 255   255 255 255   255 255 255   255 255 255   255 255 255   255 255 255   255 255 255   255 255 255   255 255 255   255 255 255   255 255 255   255 255 255   255 255 255   255 255 255
255 255 255   255 255 255   255 255 255   255 255 255   255 255 255   255 255 255   255 255 255   255 255 255   255 255 255   255 255 255   255 255 255   255 255 255   255 255 255   255 255 255   255 255 255   255 255 255   255 255 255   255 255 255   255 255 255   255 255 255   255 255 255   255 255 255   255 255 255   255 255 255   255 255 255   255 255 255   255 255 255   255 255 255   255 255 255   255 255 255   255 255 255   255 255 255   255 255 255   255 255 255   255 255 255   255 255 255   255 255 255   255 255 255   255 255 255   255 255 255   255 255 255   255 255 255   255 255 255   255 255 255   255 255 255   255 255 255   255 255 255   255 255 255   255 255 255   255 255 255   255 255 255   255 255 255   255 255 255   255 255 255   255 255 255   255 255 255   255 255 255   255 255 255   255 255 255   255 255 255   255 255 255   255 255 255   255 255 255   255 255 255   255 255 255   255 255 255   255 255 255   255 255 255   255 255 255   255 255 255   255 255 255   255 255 255   255 255 255   255 255 255   255 255 255   255 255 255   255 255 255   255 255 255   255 255 255   255 255 255   255 255 255   255 255 255   255 255 255   255 255 255   255 255 255   255 255 255   255 255 255   255 255 255   255 255 255   255 255 255   255 255 255   255 255 255   255 255 255   255 255 255   255 255 255   255 255 255   255 255 255   255 255 255   255 255 255   255 255 255   255 255 255   255 255 255   255 255 255   255 255 255   255 255 255   255 255 255   255 255 255   255 255 255   255 255 255   255 255 255   255 255 255   255 255 255   255 255 255   255 255 255   255 255 255   255 255 255   255 255 255   255 255 255   255 255 255   255 255 255   255 255 255   255 255 255   255 255 255   255 255 255   255 255 255   255 255 255   255 255 255   255 255 255   255 255 255   255 255 255   255 255 255   255 255 255   255 255 255   255 255 255   255 255 255   255 255 255   255 255 255   255 255 255   255 255 255   255 255 255   255 255 255   255 255 255   255 255 255   255 255 255   255 255 255   255 255 255   255 255 255   255 255 255   255 255 255   255 255 255   255 255 255   255 255 255   255 255 255   255 255 255   255 255 255   255 255 255   255 255 255   255 255 255   255 255 255   255 255 255   255 255 255   255 255 255   255 255 255   255 255 255   255 255 255   255 255 255   255 255 255   255 255 255   255 255 255   255 255 255   255 255 255   255 255 255   255 255 255   255 255 255   255 255 255   255 255 255   255 255 255   255 255 255   255 255 255   255 255 255   255 255 255   255 255 255   255 255 255   255 255 255   255 255 255   255 255 255   255 255 255   255 255 255   255 255 255   255 255 255   255 255 255   255 255 255   255 255 255   255 255 255   255 255 255   255 255 255   255 255 255   255 255 255   255 255 255   255 255 255   255 255 255   255 255 255   255 255 255   255 255 255   255 255 255   255 255 255   255 255 255   255 255 255   255 255 255   255 255 255   255 255 255   255 255 255   255 255 255   255 255 255   255 255 255   255 255 255   255 255 255   255 255 255   255 255 255   255 255 255   255 255 255   255 255 255   255 255 255   255 255 255   255 255 255   255 255 255   255 255 255   255 255 255   255 255 255   255 255 255   255 255 255   255 255 255   255 255 255   255 255 255   255 255 255   255 255 255   255 255 255   255 255 255   255 255 255   255 255 255   255 255 255   255 255 255   255 255 255   255 255 255   255 255 255   255 255 255   255 255 255   255 255 255   255 255 255   255 255 255   255 255 255   255 255 255   255 255 255   255 255 255   255 255 255   255 255 255
255 255 255   255 255 255   255 255 255   255 255 255   255 255 255   255 255 255   255 255 255   255 255 255   255 255 255   255 255 255   255 255 255   255 255 255   255 255 255   255 255 255   255 255 255   255 255 255   255 255 255   255 255 255   255 255 255   255 255 255   255 255 255   255 255 255   255 255 255   255 255 255   255 255 255   255 255 255   255 255 255   255 255 255   255 255 255   255 255 255   255 255 255   255 255 255   255 255 255   255 255 255   255 255 255   255 255 255   255 255 255   255 255 255   255 255 255   255 255 255   255 255 255   255 255 255   255 255 255   255 255 255   255 255 255   255 255 255   255 255 255   255 255 255   255 255 255   255 255 255   255 255 255   255 255 255   255 255 255   255 255 255   255 255 255   255 255 255   255 255 255   255 255 255   255 255 255   255 255 255   255 255 255   255 255 255   255 255 255   255 255 255   255 255 255   255 255 255   255 255 255   255 255 255   255 255 255   255 255 255   255 255 255   255 255 255   255 255 255   255 255 255   255 255 255   255 255 255   255 255 255   255 255 255   255 255 255   255 255 255   255 255 255   255 255 255   255 255 255   255 255 255   255 255 255   255 255 255   255 255 255   255 255 255   255 255 255   255 255 255   255 255 255   255 255 255   255 255 255   255 255 255   255 255 255   255 255 255   255 255 255   255 255 255   255 255 255   255 255 255   255 255 255   255 255 255   255 255 255   255 255 255   255 255 255   255 255 255   255 255 255   255 255 255   255 255 255   255 255 255   255 255 255   255 255 255   255 255 255   255 255 255   255 255 255   255 255 255   255 255 255   255 255 255   255 255 255   255 255 255   255 255 255   255 255 255   255 255 255   255 255 255   255 255 255   255 255 255   255 255 255   255 255 255   255 255 255   255 255 255   255 255 255   255 255 255   255 255 255   255 255 255   255 255 255   255 255 255   255 255 255   255 255 255   255 255 255   255 255 255   255 255 255   255 255 255   255 255 255   255 255 255   255 255 255   255 255 255   255 255 255   255 255 255   255 255 255   255 255 255   255 255 255   255 255 255   255 255 255   255 255 255   255 255 255   255 255 255   255 255 255   255 255 255   255 255 255   255 255 255   255 255 255   255 255 255   255 255 255   255 255 255   255 255 255   255 255 255   255 255 255   255 255 255   255 255 255   255 255 255   255 255 255   255 255 255   255 255 255   255 255 255   255 255 255   255 255 255   255 255 255   255 255 255   255 255 255   255 255 255   255 255 255   255 255 255   255 255 255   255 255 255   255 255 255   255 255 255   255 255 255   255 255 255   255 255 255   255 255 255   255 255 255   255 255 255   255 255 255   255 255 255   255 255 255   255 255 255   255 255 255   255 255 255   255 255 255   255 255 255   255 255 255   255 255 255   255 255 255   255 255 255   255 255 255   255 255 255   255 255 255   255 255 255   255 255 255   255 255 255   255 255 255   255 255 255   255 255 255   255 255 255   255 255 255   255 255 255   255 255 255   255 255 255   255 255 255   255 255 255   255 255 255   255 255 255   255 255 255   255 255 255   255 255 255   255 255 255   255 255 255   255 255 255   255 255 255   255 255 255   255 255 255   255 255 255   255 255 255   255 255 255   255 255 255   255 255 255   255 255 255   255 255 255   255 255 255   255 255 255   255 255 255   255 255 255   255 255 255   255 255 255   255 255 255   255 255 255   255 255 255   255 255 255   255 255 255   255 255 255   255 255 255   255 255 255   255 255 255   255 255 255   255 255 255   255 255 255
255 255 255   255 255 255   255 255 255   255 255 255   255 255 255   255 255 255   255 255 255   255 255 255   255 255 255   255 255 255   255 255 255   255 255 255   255 255 255   255 255 255   255 255 255   255 255 255   255 255 255   255 255 255   255 255 255   255 255 255   255 255 255   255 255 255   255 255 255   255 255 255   255 255 255   255 255 255   255 255 255   255 255 255   255 255 255   255 255 255   255 255 255   255 255 255   255 255 255   255 255 255   255 255 255   255 255 255   255 255 255   255 255 255   255 255 255   255 255 255   255 255 255   255 255 255   255 255 255   255 255 255   255 255 255   255 255 255   255 255 255   255 255 255   255 255 255   255 255 255   255 255 255   255 255 255   255 255 255   255 255 255   255 255 255   255 255 255   255 255 255   255 255 255   255 255 255   255 255 255   255 255 255   255 255 255   255 255 255   255 255 255   255 255 255   255 255 255   255 255 255   255 255 255   255 255 255   255 255 255   255 255 255   255 255 255   255 255 255   255 255 255   255 255 255   255 255 255   255 255 255   255 255 255   255 255 255   255 255 255   255 255 255   255 255 255   255 255 255   255 255 255   255 255 255   255 255 255   255 255 255   255 255 255   255 255 255   255 255 255   255 255 255   255 255 255   255 255 255   255 255 255   255 255 255   255 255 255   255 255 255   255 255 255   255 255 255   255 255 255   255 255 255   255 255 255   255 255 255   255 255 255   255 255 255   255 255 255   255 255 255   255 255 255   255 255 255   255 255 255   255 255 255   255 255 255   255 255 255   255 255 255   255 255 255   255 255 255   255 255 255   255 255 255   255 255 255   255 255 255   255 255 255   255 255 255   255 255 255   255 255 255   255 255 255   255 255 255   255 255 255   255 255 255   255 255 255   255 255 255   255 255 255   255 255 255   255 255 255   255 255 255   255 255 255   255 255 255   255 255 255   255 255 255   255 255 255   255 255 255   255 255 255   255 255 255   255 255 255   255 255 255   255 255 255   255 255 255   255 255 255   255 255 255   255 255 255   255 255 255   255 255 255   255 255 255   255 255 255   255 255 255   255 255 255   255 255 255   255 255 255   255 255 255   255 255 255   255 255 255   255 255 255   255 255 255   255 255 255   255 255 255   255 255 255   255 255 255   255 255 255   255 255 255   255 255 255   255 255 255   255 255 255   255 255 255   255 255 255   255 255 255   255 255 255   255 255 255   255 255 255   255 255 255   255 255 255   255 255 255   255 255 255   255 255 255   255 255 255   255 255 255   255 255 255   255 255 255   255 255 255   255 255 255   255 255 255   255 255 255   255 255 255   255 255 255   255 255 255   255 255 255   255 255 255   255 255 255   255 255 255   255 255 255   255 255 255   255 255 255   255 255 255   255 255 255   255 255 255   255 255 255   255 255 255   255 255 255   255 255 255   255 255 255   255 255 255   255 255 255   255 255 255   255 255 255   255 255 255   255 255 255   255 255 255   255 255 255   255 255 255   255 255 255   255 255 255   255 255 255   255 255 255   255 255 255   255 255 255   255 255 255   255 255 255   255 255 255   255 255 255   255 255 255   255 255 255   255 255 255   255 255 255   255 255 255   255 255 255   255 255 255   255 255 255   255 255 255   255 255 255   255 255 255   255 255 255   255 255 255   255 255 255   255 255 255   255 255 255   255 255 255   255 255 255   255 255 255   255 255 255   255 255 255   255 255 255   255 255 255   255 255 255   255 255 255   255 255 255   255 255 255   255 255 255   255 255 255
255 255 255   255 255 255   255 255 255   255 255 255   255 255 255   255 255 255   255 255 255   255 255 255   255 255 255   255 255 255   255 255 255   255 255 255   255 255 255   255 255 255   255 255 255   255 255 255   255 255 255   255 255 255   255 255 255   255 255 255   255 255 255   255 255 255   255 255 255   255 255 255   255 255 255   255 255 255   255 255 255   255 255 255   255 255 255   255 255 255   255 255 255   255 255 255   255 255 255   255 255 255   255 255 255   255 255 255   255 255 255   255 255 255   255 255 255   255 255 255   255 255 255   255 255 255   255 255 255   255 255 255   255 255 255   255 255 255   255 255 255   255 255 255   255 255 255   255 255 255   255 255 255   255 255 255   255 255 255   255 255 255   255 255 255   255 255 255   255 255 255   255 255 255   255 255 255   255 255 255   255 255 255   255 255 255   255 255 255   255 255 255   255 255 255   255 255 255   255 255 255   255 255 255   255 255 255   255 255 255   255 255 255   255 255 255   255 255 255   255 255 255   255 255 255   255 255 255   255 255 255   255 255 255   255 255 255   255 255 255   255 255 255   255 255 255   255 255 255   255 255 255   255 255 255   255 255 255   255 255 255   255 255 255   255 255 255   255 255 255   255 255 255   255 255 255   255 255 255   255 255 255   255 255 255   255 255 255   255 255 255   255 255 255   255 255 255   255 255 255   255 255 255   255 255 255   255 255 255   255 255 255   255 255 255   255 255 255   255 255 255   255 255 255   255 255 255   255 255 255   255 255 255   255 255 255   255 255 255   255 255 255   255 255 255   255 255 255   255 255 255   255 255 255   255 255 255   255 255 255   255 255 255   255 255 255   255 255 255   255 255 255   255 255 255   255 255 255   255 255 255   255 255 255   255 255 255   255 255 255   255 255 255   255 255 255   255 255 255   255 255 255   255 255 255   255 255 255   255 255 255   255 255 255   255 255 255   255 255 255   255 255 255   255 255 255   255 255 255   255 255 255   255 255 255   255 255 255   255 255 255   255 255 255   255 255 255   255 255 255   255 255 255   255 255 255   255 255 255   255 255 255   255 255 255   255 255 255   255 255 255   255 255 255   255 255 255   255 255 255   255 255 255   255 255 255   255 255 255   255 255 255   255 255 255   255 255 255   255 255 255   255 255 255   255 255 255   255 255 255   255 255 255   255 255 255   255 255 255   255 255 255   255 255 255   255 255 255   255 255 255   255 255 255   255 255 255   255 255 255   255 255 255   255 255 255   255 255 255   255 255 255   255 255 255   255 255 255   255 255 255   255 255 255   255 255 255   255 255 255   255 255 255   255 255 255   255 255 255   255 255 255   255 255 255   255 255 255   255 255 255   255 255 255   255 255 255   255 255 255   255 255 255   255 255 255   255 255 255   255 255 255   255 255 255   255 255 255   255 255 255   255 255 255   255 255 255   255 255 255   255 255 255   255 255 255   255 255 255   255 255 255   255 255 255   255 255 255   255 255 255   255 255 255   255 255 255   255 255 255   255 255 255   255 255 255   255 255 255   255 255 255   255 255 255   255 255 255   255 255 255   255 255 255   255 255 255   255 255 255   255 255 255   255 255 255   255 255 255   255 255 255   255 255 255   255 255 255   255 255 255   255 255 255   255 255 255   255 255 255   255 255 255   255 255 255   255 255 255   255 255 255   255 255 255   255 255 255   255 255 255   255 255 255   255 255 255   255 255 255   255 255 255   255 255 255   255 255 255   255 255 255   255 255 255   255 255 255
255 255 255   255 255 255   255 255 255   255 255 255   255 255 255   255 255 255   255 255 255   255 255 255   255 255 255   255 255 255   255 255 255   255 255 255   255 255 255   255 255 255   255 255 255   255 255 255   255 255 255   255 255 255   255 255 255   255 255 255   255 255 255   255 255 255   255 255 255   255 255 255   255 255 255   255 255 255   255 255 255   255 255 255   255 255 255   255 255 255   255 255 255   255 255 255   255 255 255   255 255 255   255 255 255   255 255 255   255 255 255   255 255 255   255 255 255   255 255 255   255 255 255   255 255 255   255 255 255   255 255 255   255 255 255   255 255 255   255 255 255   255 255 255   255 255 255   255 255 255   255 255 255   255 255 255   255 255 255   255 255 255   255 255 255   255 255 255   255 255 255   255 255 255   255 255 255   255 255 255   255 255 255   255 255 255   255 255 255   255 255 255   255 255 255   255 255 255   255 255 255   255 255 255   255 255 255   255 255 255   255 255 255   255 255 255   255 255 255   255 255 255   255 255 255   255 255 255   255 255 255   255 255 255   255 255 255   255 255 255   255 255 255   255 255 255   255 255 255   255 255 255   255 255 255   255 255 255   255 255 255   255 255 255   255 255 255   255 255 255   255 255 255   255 255 255   255 255 255   255 255 255   255 255 255   255 255 255   255 255 255   255 255 255   255 255 255   255 255 255   255 255 255   255 255 255   255 255 255   255 255 255   255 255 255   255 255 255   255 255 255   255 255 255   255 255 255   255 255 255   255 255 255   255 255 255   255 255 255   255 255 255   255 255 255   255 255 255   255 255 255   255 255 255   255 255 255   255 255 255   255 255 255   255 255 255   255 255 255   255 255 255   255 255 255   255 255 255   255 255 255   255 255 255   255 255 255   255 255 255   255 255 255   255 255 255   255 255 255   255 255 255   255 255 255   255 255 255   255 255 255   255 255 255   255 255 255   255 255 255   255 255 255   255 255 255   255 255 255   255 255 255   255 255 255   255 255 255   255 255 255   255 255 255   255 255 255   255 255 255   255 255 255   255 255 255   255 255 255   255 255 255   255 255 255   255 255 255   255 255 255   255 255 255   255 255 255   255 255 255   255 255 255   255 255 255   255 255 255   255 255 255   255 255 255   255 255 255   255 255 255   255 255 255   255 255 255   255 255 255   255 255 255   255 255 255   255 255 255   255 255 255   255 255 255   255 255 255   255 255 255   255 255 255   255 255 255   255 255 255   255 255 255   255 255 255   255 255 255   255 255 255   255 255 255   255 255 255   255 255 255   255 255 255   255 255 255   255 255 255   255 255 255   255 255 255   255 255 255   255 255 255   255 255 255   255 255 255   255 255 255   255 255 255   255 255 255   255 255 255   255 255 255   255 255 255   255 255 255   255 255 255   255 255 255   255 255 255   255 255 255   255 255 255   255 255 255   255 255 255   255 255 255   255 255 255   255 255 255   255 255 255   255 255 255   255 255 255   255 255 255   255 255 255   255 255 255   255 255 255   255 255 255   255 255 255   255 255 255   255 255 255   255 255 255   255 255 255   255 255 255   255 255 255   255 255 255   255 255 255   255 255 255   255 255 255   255 255 255   255 255 255   255 255 255   255 255 255   255 255 255   255 255 255   255 255 255   255 255 255   255 255 255   255 255 255   255 255 255   255 255 255   255 255 255   255 255 255   255 255 255   255 255 255   255 255 255   255 255 255   255 255 255   255 255 255   255 255 255   255 255 255   255 255 255   255 255 255
255 255 255   255 255 255   255 255 255   255 255 255   255 255 255   255 255 255   255 255 255   255 255 255   255 255 255   255 255 255   255 255 255   255 255 255   255 255 255   255 255 255   255 255 255   255 255 255   255 255 255   255 255 255   255 255 255   255 255 255   255 255 255   255 255 255   255 255 255   255 255 255   255 255 255   255 255 255   255 255 255   255 255 255   255 255 255   255 255 255   255 255 255   255 255 255   255 255 255   255 255 255   255 255 255   255 255 255   255 255 255   255 255 255   255 255 255   255 255 255   255 255 255   255 255 255   255 255 255   255 255 255   255 255 255   255 255 255   255 255 255   255 255 255   255 255 255   255 255 255   255 255 255   255 255 255   255 255 255   255 255 255   255 255 255   255 255 255   255 255 255   255 255 255   255 255 255   255 255 255   255 255 255   255 255 255   255 255 255   255 255 255   255 255 255   255 255 255   255 255 255   255 255 255   255 255 255   255 255 255   255 255 255   255 255 255   255 255 255   255 255 255   255 255 255   255 255 255   255 255 255   255 255 255   255 255 255   255 255 255   255 255 255   255 255 255   255 255 255   255 255 255   255 255 255   255 255 255   255 255 255   255 255 255   255 255 255   255 255 255   255 255 255   255 255 255   255 255 255   255 255 255   255 255 255   255 255 255   255 255 255   255 255 255   255 255 255   255 255 255   255 255 255   255 255 255   255 255 255   255 255 255   255 255 255   255 255 255   255 255 255   255 255 255   255 255 255   255 255 255   255 255 255   255 255 255   255 255 255   255 255 255   255 255 255   255 255 255   255 255 255   255 255 255   255 255 255   255 255 255   255 255 255   255 255 255   255 255 255   255 255 255   255 255 255   255 255 255   255 255 255   255 255 255   255 255 255   255 255 255   255 255 255   255 255 255   255 255 255   255 255 255   255 255 255   255 255 255   255 255 255   255 255 255   255 255 255   255 255 255   255 255 255   255 255 255   255 255 255   255 255 255   255 255 255   255 255 255   255 255 255   255 255 255   255 255 255   255 255 255   255 255 255   255 255 255   255 255 255   255 255 255   255 255 255   255 255 255   255 255 255   255 255 255   255 255 255   255 255 255   255 255 255   255 255 255   255 255 255   255 255 255   255 255 255   255 255 255   255 255 255   255 255 255   255 255 255   255 255 255   255 255 255   255 255 255   255 255 255   255 255 255   255 255 255   255 255 255   255 255 255   255 255 255   255 255 255   255 255 255   255 255 255   255 255 255   255 255 255   255 255 255   255 255 255   255 255 255   255 255 255   255 255 255   255 255 255   255 255 255   255 255 255   255 255 255   255 255 255   255 255 255   255 255 255   255 255 255   255 255 255   255 255 255   255 255 255   255 255 255   255 255 255   255 255 255   255 255 255   255 255 255   255 255 255   255 255 255   255 255 255   255 255 255   255 255 255   255 255 255   255 255 255   255 255 255   255 255 255   255 255 255   255 255 255   255 255 255   255 255 255   255 255 255   255 255 255   255 255 255   255 255 255   255 255 255   255 255 255   255 255 255   255 255 255   255 255 255   255 255 255   255 255 255   255 255 255   255 255 255   255 255 255   255 255 255   255 255 255   255 255 255   255 255 255   255 255 255   255 255 255   255 255 255   255 255 255   255 255 255   255 255 255   255 255 255   255 255 255   255 255 255   255 255 255   255 255 255   255 255 255   255 255 255   255 255 255   255 255 255   255 255 255   255 255 255   255 255 255   255 255 255   255 255 255   255 255 255
255 255 255   255 255 255   255 255 255   255 255 255   255 255 255   255 255 255   255 255 255   255 255 255   255 255 255   255 255 255   255 255 255   255 255 255   255 255 255   255 255 255   255 255 255   255 255 255   255 255 255   255 255 255   255 255 255   255 255 255   255 255 255   255 255 255   255 255 255   255 255 255   255 255 255   255 255 255   255 255 255   255 255 255   255 255 255   255 255 255   255 255 255   255 255 255   255 255 255   255 255 255   255 255 255   255 255 255   255 255 255   255 255 255   255 255 255   255 255 255   255 255 255   255 255 255   255 255 255   255 255 255   255 255 255   255 255 255   255 255 255   255 255 255   255 255 255   255 255 255   255 255 255   255 255 255   255 255 255   255 255 255   255 255 255   255 255 255   255 255 255   255 255 255   255 255 255   255 255 255   255 255 255   255 255 255   255 255 255   255 255 255   255 255 255   255 255 255   255 255 255   255 255 255   255 255 255   255 255 255   255 255 255   255 255 255   255 255 255   255 255 255   255 255 255   255 255 255   255 255 255   255 255 255   255 255 255   255 255 255   255 255 255   255 255 255   255 255 255   255 255 255   255 255 255   255 255 255   255 255 255   255 255 255   255 255 255   255 255 255   255 255 255   255 255 255   255 255 255   255 255 255   255 255 255   255 255 255   255 255 255   255 255 255   255 255 255   255 255 255   255 255 255   255 255 255   255 255 255   255 255 255   255 255 255   255 255 255   255 255 255   255 255 255   255 255 255   255 255 255   255 255 255   255 255 255   255 255 255   255 255 255   255 255 255   255 255 255   255 255 255   255 255 255   255 255 255   255 255 255   255 255 255   255 255 255   255 255 255   255 255 255   255 255 255   255 255 255   255 255 255   255 255 255   255 255 255   255 255 255   255 255 255   255 255 255   255 255 255   255 255 255   255 255 255   255 255 255   255 255 255   255 255 255   255 255 255   255 255 255   255 255 255   255 255 255   255 255 255   255 255 255   255 255 255   255 255 255   255 255 255   255 255 255   255 255 255   255 255 255   255 255 255   255 255 255   255 255 255   255 255 255   255 255 255   255 255 255   255 255 255   255 255 255   255 255 255   255 255 255   255 255 255   255 255 255   255 255 255   255 255 255   255 255 255   255 255 255   255 255 255   255 255 255   255 255 255   255 255 255   255 255 255   255 255 255   255 255 255   255 255 255   255 255 255   255 255 255   255 255 255   255 255 255   255 255 255   255 255 255   255 255 255   255 255 255   255 255 255   255 255 255   255 255 255   255 255 255   255 255 255   255 255 255   255 255 255   255 255 255   255 255 255   255 255 255   255 255 255   255 255 255   255 255 255   255 255 255   255 255 255   255 255 255   255 255 255   255 255 255   255 255 255   255 255 255   255 255 255   255 255 255   255 255 255   255 255 255   255 255 255   255 255 255   255 255 255   255 255 255   255 255 255   255 255 255   255 255 255   255 255 255   255 255 255   255 255 255   255 255 255   255 255 255   255 255 255   255 255 255   255 255 255   255 255 255   255 255 255   255 255 255   255 255 255   255 255 255   255 255 255   255 255 255   255 255 255   255 255 255   255 255 255   255 255 255   255 255 255   255 255 255   255 255 255   255 255 255   255 255 255   255 255 255   255 255 255   255 255 255   255 255 255   255 255 255   255 255 255   255 255 255   255 255 255   255 255 255   255 255 255   255 255 255   255 255 255   255 255 255   255 255 255   255 255 255   255 255 255   255 255 255   255 255 255   255 255 255
255 255 255   255 255 255   255 255 255   255 255 255   255 255 255   255 255 255   255 255 255   255 255 255   255 255 255   255 255 255   255 255 255   255 255 255   255 255 255   255 255 255   255 255 255   255 255 255   255 255 255   255 255 255   255 255 255   255 255 255   255 255 255   255 255 255   255 255 255   255 255 255   255 255 255   255 255 255   255 255 255   255 255 255   255 255 255   255 255 255   255 255 255   255 255 255   255 255 255   255 255 255   255 255 255   255 255 255   255 255 255   255 255 255   255 255 255   255 255 255   255 255 255   255 255 255   255 255 255   255 255 255   255 255 255   255 255 255   255 255 255   255 255 255   255 255 255   255 255 255   255 255 255   255 255 255   255 255 255   255 255 255   255 255 255   255 255 255   255 255 255   255 255 255   255 255 255   255 255 255   255 255 255   255 255 255   255 255 255   255 255 255   255 255 255   255 255 255   255 255 255   255 255 255   255 255 255   255 255 255   255 255 255   255 255 255   255 255 255   255 255 255   255 255 255   255 255 255   255 255 255   255 255 255   255 255 255   255 255 255   255 255 255   255 255 255   255 255 255   255 255 255   255 255 255   255 255 255   255 255 255   255 255 255   255 255 255   255 255 255   255 255 255   255 255 255   255 255 255   255 255 255   255 255 255   255 255 255   255 255 255   255 255 255   255 255 255   255 255 255   255 255 255   255 255 255   255 255 255   255 255 255   255 255 255   255 255 255   255 255 255   255 255 255   255 255 255   255 255 255   255 255 255   255 255 255   255 255 255   255 255 255   255 255 255   255 255 255   255 255 255   255 255 255   255 255 255   255 255 255   255 255 255   255 255 255   255 255 255   255 255 255   255 255 255   255 255 255   255 255 255   255 255 255   255 255 255   255 255 255   255 255 255   255 255 255   255 255 255   255 255 255   255 255 255   255 255 255   255 255 255   255 255 255   255 255 255   255 255 255   255 255 255   255 255 255   255 255 255   255 255 255   255 255 255   255 255 255   255 255 255   255 255 255   255 255 255   255 255 255   255 255 255   255 255 255   255 255 255   255 255 255   255 255 255   255 255 255   255 255 255   255 255 255   255 255 255   255 255 255   255 255 255   255 255 255   255 255 255   255 255 255   255 255 255   255 255 255   255 255 255   255 255 255   255 255 255   255 255 255   255 255 255   255 255 255   255 255 255   255 255 255   255 255 255   255 255 255   255 255 255   255 255 255   255 255 255   255 255 255   255 255 255   255 255 255   255 255 255   255 255 255   255 255 255   255 255 255   255 255 255   255 255 255   255 255 255   255 255 255   255 255 255   255 255 255   255 255 255   255 255 255   255 255 255   255 255 255   255 255 255   255 255 255   255 255 255   255 255 255   255 255 255   255 255 255   255 255 255   255 255 255   255 255 255   255 255 255   255 255 255   255 255 255   255 255 255   255 255 255   255 255 255   255 255 255   255 255 255   255 255 255   255 255 255   255 255 255   255 255 255   255 255 255   255 255 255   255 255 255   255 255 255   255 255 255   255 255 255   255 255 255   255 255 255   255 255 255   255 255 255   255 255 255   255 255 255   255 255 255   255 255 255   255 255 255   255 255 255   255 255 255   255 255 255   255 255 255   255 255 255   255 255 255   255 255 255   255 255 255   255 255 255   255 255 255   255 255 255   255 255 255   255 255 255   255 255 255   255 255 255   255 255 255   255 255 255   255 255 255   255 255 255   255 255 255   255 255 255   255 255 255   255 255 255   255 255 255
255 255 255   255 255 255   255 255 255   255 255 255   255 255 255   255 255 255   255 255 255   255 255 255   255 255 255   255 255 255   255 255 255   255 255 255   255 255 255   255 255 255   255 255 255   255 255 255   255 255 255   255 255 255   255 255 255   255 255 255   255 255 255   255 255 255   255 255 255   255 255 255   255 255 255   255 255 255   255 255 255   255 255 255   255 255 255   255 255 255   255 255 255   255 255 255   255 255 255   255 255 255   255 255 255   255 255 255   255 255 255   255 255 255   255 255 255   255 255 255   255 255 255   255 255 255   255 255 255   255 255 255   255 255 255   255 255 255   255 255 255   255 255 255   255 255 255   255 255 255   255 255 255   255 255 255   255 255 255   255 255 255   255 255 255   255 255 255   255 255 255   255 255 255   255 255 255   255 255 255   255 255 255   255 255 255   255 255 255   255 255 255   255 255 255   255 255 255   255 255 255   255 255 255   255 255 255   255 255 255   255 255 255   255 255 255   255 255 255   255 255 255   255 255 255   255 255 255   255 255 255   255 255 255   255 255 255   255 255 255   255 255 255   255 255 255   255 255 255   255 255 255   255 255 255   255 255 255   255 255 255   255 255 255   255 255 255   255 255 255   255 255 255   255 255 255   255 255 255   255 255 255   255 255 255   255 255 255   255 255 255   255 255 255   255 255 255   255 255 255   255 255 255   255 255 255   255 255 255   255 255 255   255 255 255   255 255 255   255 255 255   255 255 255   255 255 255   255 255 255   255 255 255   255 255 255   255 255 255   255 255 255   255 255 255   255 255 255   255 255 255   255 255 255   255 255 255   255 255 255   255 255 255   255 255 255   255 255 255   255 255 255   255 255 255   255 255 255   255 255 255   255 255 255   255 255 255   255 255 255   255 255 255   255 255 255   255 255 255   255 255 255   255 255 255   255 255 255   255 255 255   255 255 255   255 255 255   255 255 255   255 255 255   255 255 255   255 255 255   255 255 255   255 255 255   255 255 255   255 255 255   255 255 255   255 255 255   255 255 255   255 255 255   255 255 255   255 255 255   255 255 255   255 255 255   255 255 255   255 255 255   255 255 255   255 255 255   255 255 255   255 255 255   255 255 255   255 255 255   255 255 255   255 255 255   255 255 255   255 255 255   255 255 255   255 255 255   255 255 255   255 255 255   255 255 255   255 255 255   255 255 255   255 255 255   255 255 255   255 255 255   255 255 255   255 255 255   255 255 255   255 255 255   255 255 255   255 255 255   255 255 255   255 255 255   255 255 255   255 255 255   255 255 255   255 255 255   255 255 255   255 255 255   255 255 255   255 255 255   255 255 255   255 255 255   255 255 255   255 255 255   255 255 255   255 255 255   255 255 255   255 255 255   255 255 255   255 255 255   255 255 255   255 255 255   255 255 255   255 255 255   255 255 255   255 255 255   255 255 255   255 255 255   255 255 255   255 255 255   255 255 255   255 255 255   255 255 255   255 255 255   255 255 255   255 255 255   255 255 255   255 255 255   255 255 255   255 255 255   255 255 255   255 255 255   255 255 255   255 255 255   255 255 255   255 255 255   255 255 255   255 255 255   255 255 255   255 255 255   255 255 255   255 255 255   255 255 255   255 255 255   255 255 255   255 255 255   255 255 255   255 255 255   255 255 255   255 255 255   255 255 255   255 255 255   255 255 255   255 255 255   255 255 255   255 255 255   255 255 255   255 255 255   255 255 255   255 255 255   255 255 255   255 255 255   255 255 255
255 255 255   255 255 255   255 255 255   255 255 255   255 255 255   255 255 255   255 255 255   255 255 255   255 255 255   255 255 255   255 255 255   255 255 255   255 255 255   255 255 255   255 255 255   255 255 255   255 255 255   255 255 255   255 255 255   255 255 255   255 255 255   255 255 255   255 255 255   255 255 255   255 255 255   255 255 255   255 255 255   255 255 255   255 255 255   255 255 255   255 255 255   255 255 255   255 255 255   255 255 255   255 255 255   255 255 255   255 255 255   255 255 255   255 255 255   255 255 255   255 255 255   255 255 255   255 255 255   255 255 255   255 255 255   255 255 255   255 255 255   255 255 255   255 255 255   255 255 255   255 255 255   255 255 255   255 255 255   255 255 255   255 255 255   255 255 255   255 255 255   255 255 255   255 255 255   255 255 255   255 255 255   255 255 255   255 255 255   255 255 255   255 255 255   255 255 255   255 255 255   255 255 255   255 255 255   255 255 255   255 255 255   255 255 255   255 255 255   255 255 255   255 255 255   255 255 255   255 255 255   255 255 255   255 255 255   255 255 255   255 255 255   255 255 255   255 255 255   255 255 255   255 255 255   255 255 255   255 255 255   255 255 255   255 255 255   255 255 255   255 255 255   255 255 255   255 255 255   255 255 255   255 255 255   255 255 255   255 255 255   255 255 255   255 255 255   255 255 255   255 255 255   255 255 255   255 255 255   255 255 255   255 255 255   255 255 255   255 255 255   255 255 255   255 255 255   255 255 255   255 255 255   255 255 255   255 255 255   255 255 255   255 255 255   255 255 255   255 255 255   255 255 255   255 255 255   255 255 255   255 255 255   255 255 255   255 255 255   255 255 255   255 255 255   255 255 255   255 255 255   255 255 255   255 255 255   255 255 255   255 255 255   255 255 255   255 255 255   255 255 255   255 255 255   255 255 255   255 255 255   255 255 255   255 255 255   255 255 255   255 255 255   255 255 255   255 255 255   255 255 255   255 255 255   255 255 255   255 255 255   255 255 255   255 255 255   255 255 255   255 255 255   255 255 255   255 255 255   255 255 255   255 255 255   255 255 255   255 255 255   255 255 255   255 255 255   255 255 255   255 255 255   255 255 255   255 255 255   255 255 255   255 255 255   255 255 255   255 255 255   255 255 255   255 255 255   255 255 255   255 255 255   255 255 255   255 255 255   255 255 255   255 255 255   255 255 255   255 255 255   255 255 255   255 255 255   255 255 255   255 255 255   255 255 255   255 255 255   255 255 255   255 255 255   255 255 255   255 255 255   255 255 255   255 255 255   255 255 255   255 255 255   255 255 255   255 255 255   255 255 255   255 255 255   255 255 255   255 255 255   255 255 255   255 255 255   255 255 255   255 255 255   255 255 255   255 255 255   255 255 255   255 255 255   255 255 255   255 255 255   255 255 255   255 255 255   255 255 255   255 255 255   255 255 255   255 255 255   255 255 255   255 255 255   255 255 255   255 255 255   255 255 255   255 255 255   255 255 255   255 255 255   255 255 255   255 255 255   255 255 255   255 255 255   255 255 255   255 255 255   255 255 255   255 255 255   255 255 255   255 255 255   255 255 255   255 255 255   255 255 255   255 255 255   255 255 255   255 255 255   255 255 255   255 255 255   255 255 255   255 255 255   255 255 255   255 255 255   255 255 255   255 255 255   255 255 255   255 255 255   255 255 255   255 255 255   255 255 255   255 255 255   255 255 255   255 255 255   255 255 255   255 255 255   255 255 255
255 255 255   255 255 255   255 255 255   255 255 255   255 255 255   255 255 255   255 255 255   255 255 255   255 255 255   255 255 255   255 255 255   255 255 255   255 255 255   255 255 255   255 255 255   255 255 255   255 255 255   255 255 255   255 255 255   255 255 255   255 255 255   255 255 255   255 255 255   255 255 255   255 255 255   255 255 255   255 255 255   255 255 255   255 255 255   255 255 255   255 255 255   255 255 255   255 255 255   255 255 255   255 255 255   255 255 255   255 255 255   255 255 255   255 255 255   255 255 255   255 255 255   255 255 255   255 255 255   255 255 255   255 255 255   255 255 255   255 255 255   255 255 255   255 255 255   255 255 255   255 255 255   255 255 255   255 255 255   255 255 255   255 255 255   255 255 255   255 255 255   255 255 255   255 255 255   255 255 255   255 255 255   255 255 255   255 255 255   255 255 255   255 255 255   255 255 255   255 255 255   255 255 255   255 255 255   255 255 255   255 255 255   255 255 255   255 255 255   255 255 255   255 255 255   255 255 255   255 255 255   255 255 255   255 255 255   255 255 255   255 255 255   255 255 255   255 255 255   255 255 255   255 255 255   255 255 255   255 255 255   255 255 255   255 255 255   255 255 255   255 255 255   255 255 255   255 255 255   255 255 255   255 255 255   255 255 255   255 255 255   255 255 255   255 255 255   255 255 255   255 255 255   255 255 255   255 255 255   255 255 255   255 255 255   255 255 255   255 255 255   255 255 255   255 255 255   255 255 255   255 255 255   255 255 255   255 255 255   255 255 255   255 255 255   255 255 255   255 255 255   255 255 255   255 255 255   255 255 255   255 255 255   255 255 255   255 255 255   255 255 255   255 255 255   255 255 255   255 255 255   255 255 255   255 255 255   255 255 255   255 255 255   255 255 255   255 255 255   255 255 255   255 255 255   255 255 255   255 255 255   255 255 255   255 255 255   255 255 255   255 255 255   255 255 255   255 255 255   255 255 255   255 255 255   255 255 255   255 255 255   255 255 255   255 255 255   255 255 255   255 255 255   255 255 255   255 255 255   255 255 255   255 255 255   255 255 255   255 255 255   255 255 255   255 255 255   255 255 255   255 255 255   255 255 255   255 255 255   255 255 255   255 255 255   255 255 255   255 255 255   255 255 255   255 255 255   255 255 255   255 255 255   255 255 255   255 255 255   255 255 255   255 255 255   255 255 255   255 255 255   255 255 255   255 255 255   255 255 255   255 255 255   255 255 255   255 255 255   255 255 255   255 255 255   255 255 255   255 255 255   255 255 255   255 255 255   255 255 255   255 255 255   255 255 255   255 255 255   255 255 255   255 255 255   255 255 255   255 255 255   255 255 255   255 255 255   255 255 255   255 255 255   255 255 255   255 255 255   255 255 255   255 255 255   255 255 255   255 255 255   255 255 255   255 255 255   255 255 255   255 255 255   255 255 255   255 255 255   255 255 255   255 255 255   255 255 255   255 255 255   255 255 255   255 255 255   255 255 255   255 255 255   255 255 255   255 255 255   255 255 255   255 255 255   255 255 255   255 255 255   255 255 255   255 255 255   255 255 255   255 255 255   255 255 255   255 255 255   255 255 255   255 255 255   255 255 255   255 255 255   255 255 255   255 255 255   255 255 255   255 255 255   255 255 255   255 255 255   255 255 255   255 255 255   255 255 255   255 255 255   255 255 255   255 255 255   255 255 255   255 255 255   255 255 255   255 255 255   255 255 255   255 255 255   255 255 255
255 255 255   255 255 255   255 255 255   255 255 255   255 255 255   255 255 255   255 255 255   255 255 255   255 255 255   255 255 255   255 255 255   255 255 255   255 255 255   255 255 255   255 255 255   255 255 255   255 255 255   255 255 255   255 255 255   255 255 255   255 255 255   255 255 255   255 255 255   255 255 255   255 255 255   255 255 255   255 255 255   255 255 255   255 255 255   255 255 255   255 255 255   255 255 255   255 255 255   255 255 255   255 255 255   255 255 255   255 255 255   255 255 255   255 255 255   255 255 255   255 255 255   255 255 255   255 255 255   255 255 255   255 255 255   255 255 255   255 255 255   255 255 255   255 255 255   255 255 255   255 255 255   255 255 255   255 255 255   255 255 255   255 255 255   255 255 255   255 255 255   255 255 255   255 255 255   255 255 255   255 255 255   255 255 255   255 255 255   255 255 255   255 255 255   255 255 255   255 255 255   255 255 255   255 255 255   255 255 255   255 255 255   255 255 255   255 255 255   255 255 255   255 255 255   255 255 255   255 255 255   255 255 255   255 255 255   255 255 255   255 255 255   255 255 255   255 255 255   255 255 255   255 255 255   255 255 255   255 255 255   255 255 255   255 255 255   255 255 255   255 255 255   255 255 255   255 255 255   255 255 255   255 255 255   255 255 255   255 255 255   255 255 255   255 255 255   255 255 255   255 255 255   255 255 255   255 255 255   255 255 255   255 255 255   255 255 255   255 255 255   255 255 255   255 255 255   255 255 255   255 255 255   255 255 255   255 255 255   255 255 255   255 255 255   255 255 255   255 255 255   255 255 255   255 255 255   255 255 255   255 255 255   255 255 255   255 255 255   255 255 255   255 255 255   255 255 255   255 255 255   255 255 255   255 255 255   255 255 255   255 255 255   255 255 255   255 255 255   255 255 255   255 255 255   255 255 255   255 255 255   255 255 255   255 255 255   255 255 255   255 255 255   255 255 255   255 255 255   255 255 255   255 255 255   255 255 255   255 255 255   255 255 255   255 255 255   255 255 255   255 255 255   255 255 255   255 255 255   255 255 255   255 255 255   255 255 255   255 255 255   255 255 255   255 255 255   255 255 255   255 255 255   255 255 255   255 255 255   255 255 255   255 255 255   255 255 255   255 255 255   255 255 255   255 255 255   255 255 255   255 255 255   255 255 255   255 255 255   255 255 255   255 255 255   255 255 255   255 255 255   255 255 255   255 255 255   255 255 255   255 255 255   255 255 255   255 255 255   255 255 255   255 255 255   255 255 255   255 255 255   255 255 255   255 255 255   255 255 255   255 255 255   255 255 255   255 255 255   255 255 255   255 255 255   255 255 255   255 255 255   255 255 255   255 255 255   255 255 255   255 255 255   255 255 255   255 255 255   255 255 255   255 255 255   255 255 255   255 255 255   255 255 255   255 255 255   255 255 255   255 255 255   255 255 255   255 255 255   255 255 255   255 255 255   255 255 255   255 255 255   255 255 255   255 255 255   255 255 255   255 255 255   255 255 255   255 255 255   255 255 255   255 255 255   255 255 255   255 255 255   255 255 255   255 255 255   255 255 255   255 255 255   255 255 255   255 255 255   255 255 255   255 255 255   255 255 255   255 255 255   255 255 255   255 255 255   255 255 255   255 255 255   255 255 255   255 255 255   255 255 255   255 255 255   255 255 255   255 255 255   255 255 255   255 255 255   255 255 255   255 255 255   255 255 255   255 255 255   255 255 255   255 255 255   255 255 255
255 255 255   255 255 255   255 255 255   255 255 255   255 255 255   255 255 255   255 255 255   255 255 255   255 255 255   255 255 255   255 255 255   255 255 255   255 255 255   255 255 255   255 255 255   255 255 255   255 255 255   255 255 255   255 255 255   255 255 255   255 255 255   255 255 255   255 255 255   255 255 255   255 255 255   255 255 255   255 255 255   255 255 255   255 255 255   255 255 255   255 255 255   255 255 255   255 255 255   255 255 255   255 255 255   255 255 255   255 255 255   255 255 255   255 255 255   255 255 255   255 255 255   255 255 255   255 255 255   255 255 255   255 255 255   255 255 255   255 255 255   255 255 255   255 255 255   255 255 255   255 255 255   255 255 255   255 255 255   255 255 255   255 255 255   255 255 255   255 255 255   255 255 255   255 255 255   255 255 255   255 255 255   255 255 255   255 255 255   255 255 255   255 255 255   255 255 255   255 255 255   255 255 255   255 255 255   255 255 255   255 255 255   255 255 255   255 255 255   255 255 255   255 255 255   255 255 255   255 255 255   255 255 255   255 255 255   255 255 255   255 255 255   255 255 255   255 255 255   255 255 255   255 255 255   255 255 255   255 255 255   255 255 255   255 255 255   255 255 255   255 255 255   255 255 255   255 255 255   255 255 255   255 255 255   255 255 255   255 255 255   255 255 255   255 255 255   255 255 255   255 255 255   255 255 255   255 255 255   255 255 255   255 255 255   255 255 255   255 255 255   255 255 255   255 255 255   255 255 255   255 255 255   255 255 255   255 255 255   255 255 255   255 255 255   255 255 255   255 255 255   255 255 255   255 255 255   255 255 255   255 255 255   255 255 255   255 255 255   255 255 255   255 255 255   255 255 255   255 255 255   255 255 255   255 255 255   255 255 255   255 255 255   255 255 255   255 255 255   255 255 255   255 255 255   255 255 255   255 255 255   255 255 255   255 255 255   255 255 255   255 255 255   255 255 255   255 255 255   255 255 255   255 255 255   255 255 255   255 255 255   255 255 255   255 255 255   255 255 255   255 255 255   255 255 255   255 255 255   255 255 255   255 255 255   255 255 255   255 255 255   255 255 255   255 255 255   255 255 255   255 255 255   255 255 255   255 255 255   255 255 255   255 255 255   255 255 255   255 255 255   255 255 255   255 255 255   255 255 255   255 255 255   255 255 255   255 255 255   255 255 255   255 255 255   255 255 255   255 255 255   255 255 255   255 255 255   255 255 255   255 255 255   255 255 255   255 255 255   255 255 255   255 255 255   255 255 255   255 255 255   255 255 255   255 255 255   255 255 255   255 255 255   255 255 255   255 255 255   255 255 255   255 255 255   255 255 255   255 255 255   255 255 255   255 255 255   255 255 255   255 255 255   255 255 255   255 255 255   255 255 255   255 255 255   255 255 255   255 255 255   255 255 255   255 255 255   255 255 255   255 255 255   255 255 255   255 255 255   255 255 255   255 255 255   255 255 255   255 255 255   255 255 255   255 255 255   255 255 255   255 255 255   255 255 255   255 255 255   255 255 255   255 255 255   255 255 255   255 255 255   255 255 255   255 255 255   255 255 255   255 255 255   255 255 255   255 255 255   255 255 255   255 255 255   255 255 255   255 255 255   255 255 255   255 255 255   255 255 255   255 255 255   255 255 255   255 255 255   255 255 255   255 255 255   255 255 255   255 255 255   255 255 255   255 255 255   255 255 255   255 255 255   255 255 255   255 255 255   255 255 255   255 255 255   255 255 255
255 255 255   255 255 255   255 255 255   255 255 255   255 255 255   255 255 255   255 255 255   255 255 255   255 255 255   255 255 255   255 255 255   255 255 255   255 255 255   255 255 255   255 255 255   255 255 255   255 255 255   255 255 255   255 255 255   255 255 255   255 255 255   255 255 255   255 255 255   255 255 255   255 255 255   255 255 255   255 255 255   255 255 255   255 255 255   255 255 255   255 255 255   255 255 255   255 255 255   255 255 255   255 255 255   255 255 255   255 255 255   255 255 255   255 255 255   255 255 255   255 255 255   255 255 255   255 255 255   255 255 255   255 255 255   255 255 255   255 255 255   255 255 255   255 255 255   255 255 255   255 255 255   255 255 255   255 255 255   255 255 255   255 255 255   255 255 255   255 255 255   255 255 255   255 255 255   255 255 255   255 255 255   255 255 255   255 255 255   255 255 255   255 255 255   255 255 255   255 255 255   255 255 255   255 255 255   255 255 255   255 255 255   255 255 255   255 255 255   255 255 255   255 255 255   255 255 255   255 255 255   255 255 255   255 255 255   255 255 255   255 255 255   255 255 255   255 255 255   255 255 255   255 255 255   255 255 255   255 255 255   255 255 255   255 255 255   255 255 255   255 255 255   255 255 255   255 255 255   255 255 255   255 255 255   255 255 255   255 255 255   255 255 255   255 255 255   255 255 255   255 255 255   255 255 255   255 255 255   255 255 255   255 255 255   255 255 255   255 255 255   255 255 255   255 255 255   255 255 255   255 255 255   255 255 255   255 255 255   255 255 255   255 255 255   255 255 255   255 255 255   255 255 255   255 255 255   255 255 255   255 255 255   255 255 255   255 255 255   255 255 255   255 255 255   255 255 255   255 255 255   255 255 255   255 255 255   255 255 255   255 255 255   255 255 255   255 255 255   255 255 255   255 255 255   255 255 255   255 255 255   255 255 255   255 255 255   255 255 255   255 255 255   255 255 255   255 255 255   255 255 255   255 255 255   255 255 255   255 255 255   255 255 255   255 255 255   255 255 255   255 255 255   255 255 255   255 255 255   255 255 255   255 255 255   255 255 255   255 255 255   255 255 255   255 255 255   255 255 255   255 255 255   255 255 255   255 255 255   255 255 255   255 255 255   255 255 255   255 255 255   255 255 255   255 255 255   255 255 255   255 255 255   255 255 255   255 255 255   255 255 255   255 255 255   255 255 255   255 255 255   255 255 255   255 255 255   255 255 255   255 255 255   255 255 255   255 255 255   255 255 255   255 255 255   255 255 255   255 255 255   255 255 255   255 255 255   255 255 255   255 255 255   255 255 255   255 255 255   255 255 255   255 255 255   255 255 255   255 255 255   255 255 255   255 255 255   255 255 255   255 255 255   255 255 255   255 255 255   255 255 255   255 255 255   255 255 255   255 255 255   255 255 255   255 255 255   255 255 255   255 255 255   255 255 255   255 255 255   255 255 255   255 255 255   255 255 255   255 255 255   255 255 255   255 255 255   255 255 255   255 255 255   255 255 255   255 255 255   255 255 255   255 255 255   255 255 255   255 255 255   255 255 255   255 255 255   255 255 255   255 255 255   255 255 255   255 255 255   255 255 255   255 255 255   255 255 255   255 255 255   255 255 255   255 255 255   255 255 255   255 255 255   255 255 255   255 255 255   255 255 255   255 255 255   255 255 255   255 255 255   255 255 255   255 255 255   255 255 255   255 255 255   255 255 255   255 255 255   255 255 255   255 255 255   255 255 255
255 255 255   255 255 255   255 255 255   255 255 255   255 255 255   255 255 255   255 255 255   255 255 255   255 255 255   255 255 255   255 255 255   255 255 255   255 255 255   255 255 255   255 255 255   255 255 255   255 255 255   255 255 255   255 255 255   255 255 255   255 255 255   255 255 255   255 255 255   255 255 255   255 255 255   255 255 255   255 255 255   255 255 255   255 255 255   255 255 255   255 255 255   255 255 255   255 255 255   255 255 255   255 255 255   255 255 255   255 255 255   255 255 255   255 255 255   255 255 255   255 255 255   255 255 255   255 255 255   255 255 255   255 255 255   255 255 255   255 255 255   255 255 255   255 255 255   255 255 255   255 255 255   255 255 255   255 255 255   255 255 255   255 255 255   255 255 255   255 255 255   255 255 255   255 255 255   255 255 255   255 255 255   255 255 255   255 255 255   255 255 255   255 255 255   255 255 255   255 255 255   255 255 255   255 255 255   255 255 255   255 255 255   255 255 255   255 255 255   255 255 255   255 255 255   255 255 255   255 255 255   255 255 255   255 255 255   255 255 255   255 255 255   255 255 255   255 255 255   255 255 255   255 255 255   255 255 255   255 255 255   255 255 255   255 255 255   255 255 255   255 255 255   255 255 255   255 255 255   255 255 255   255 255 255   255 255 255   255 255 255   255 255 255   255 255 255   255 255 255   255 255 255   255 255 255   255 255 255   255 255 255   255 255 255   255 255 255   255 255 255   255 255 255   255 255 255   255 255 255   255 255 255   255 255 255   255 255 255   255 255 255   255 255 255   255 255 255   255 255 255   255 255 255   255 255 255   255 255 255   255 255 255   255 255 255   255 255 255   255 255 255   255 255 255   255 255 255   255 255 255   255 255 255   255 255 255   255 255 255   255 255 255   255 255 255   255 255 255   255 255 255   255 255 255   255 255 255   255 255 255   255 255 255   255 255 255   255 255 255   255 255 255   255 255 255   255 255 255   255 255 255   255 255 255   255 255 255   255 255 255   255 255 255   255 255 255   255 255 255   255 255 255   255 255 255   255 255 255   255 255 255   255 255 255   255 255 255   255 255 255   255 255 255   255 255 255   255 255 255   255 255 255   255 255 255   255 255 255   255 255 255   255 255 255   255 255 255   255 255 255   255 255 255   255 255 255   255 255 255   255 255 255   255 255 255   255 255 255   255 255 255   255 255 255   255 255 255   255 255 255   255 255 255   255 255 255   255 255 255   255 255 255   255 255 255   255 255 255   255 255 255   255 255 255   255 255 255   255 255 255   255 255 255   255 255 255   255 255 255   255 255 255   255 255 255   255 255 255   255 255 255   255 255 255   255 255 255   255 255 255   255 255 255   255 255 255   255 255 255   255 255 255   255 255 255   255 255 255   255 255 255   255 255 255   255 255 255   255 255 255   255 255 255   255 255 255   255 255 255   255 255 255   255 255 255   255 255 255   255 255 255   255 255 255   255 255 255   255 255 255   255 255 255   255 255 255   255 255 255   255 255 255   255 255 255   255 255 255   255 255 255   255 255 255   255 255 255   255 255 255   255 255 255   255 255 255   255 255 255   255 255 255   255 255 255   255 255 255   255 255 255   255 255 255   255 255 255   255 255 255   255 255 255   255 255 255   255 255 255   255 255 255   255 255 255   255 255 255   255 255 255   255 255 255   255 255 255   255 255 255   255 255 255   255 255 255   255 255 255   255 255 255   255 255 255   255 255 255   255 255 255   255 255 255   255 255 255
255 255 255   255 255 255   255 255 255   255 255 255   255 255 255   255 255 255   255 255 255   255 255 255   255 255 255   255 255 255   255 255 255   255 255 255   255 255 255   255 255 255   255 255 255   255 255 255   255 255 255   255 255 255   255 255 255   255 255 255   255 255 255   255 255 255   255 255 255   255 255 255   255 255 255   255 255 255   255 255 255   255 255 255   255 255 255   255 255 255   255 255 255   255 255 255   255 255 255   255 255 255   255 255 255   255 255 255   255 255 255   255 255 255   255 255 255   255 255 255   255 255 255   255 255 255   255 255 255   255 255 255   255 255 255   255 255 255   255 255 255   255 255 255   255 255 255   255 255 255   255 255 255   255 255 255   255 255 255   255 255 255   255 255 255   255 255 255   255 255 255   255 255 255   255 255 255   255 255 255   255 255 255   255 255 255   255 255 255   255 255 255   255 255 255   255 255 255   255 255 255   255 255 255   255 255 255   255 255 255   255 255 255   255 255 255   255 255 255   255 255 255   255 255 255   255 255 255   255 255 255   255 255 255   255 255 255   255 255 255   255 255 255   255 255 255   255 255 255   255 255 255   255 255 255   255 255 255   255 255 255   255 255 255   255 255 255   255 255 255   255 255 255   255 255 255   255 255 255   255 255 255   255 255 255   255 255 255   255 255 255   255 255 255   255 255 255   255 255 255   255 255 255   255 255 255   255 255 255   255 255 255   255 255 255   255 255 255   255 255 255   255 255 255   255 255 255   255 255 255   255 255 255   255 255 255   255 255 255   255 255 255   255 255 255   255 255 255   255 255 255   255 255 255   255 255 255   255 255 255   255 255 255   255 255 255   255 255 255   255 255 255   255 255 255   255 255 255   255 255 255   255 255 255   255 255 255   255 255 255   255 255 255   255 255 255   255 255 255   255 255 255   255 255 255   255 255 255   255 255 255   255 255 255   255 255 255   255 255 255   255 255 255   255 255 255   255 255 255   255 255 255   255 255 255   255 255 255   255 255 255   255 255 255   255 255 255   255 255 255   255 255 255   255 255 255   255 255 255   255 255 255   255 255 255   255 255 255   255 255 255   255 255 255   255 255 255   255 255 255   255 255 255   255 255 255   255 255 255   255 255 255   255 255 255   255 255 255   255 255 255   255 255 255   255 255 255   255 255 255   255 255 255   255 255 255   255 255 255   255 255 255   255 255 255   255 255 255   255 255 255   255 255 255   255 255 255   255 255 255   255 255 255   255 255 255   255 255 255   255 255 255   255 255 255   255 255 255   255 255 255   255 255 255   255 255 255   255 255 255   255 255 255   255 255 255   255 255 255   255 255 255   255 255 255   255 255 255   255 255 255   255 255 255   255 255 255   255 255 255   255 255 255   255 255 255   255 255 255   255 255 255   255 255 255   255 255 255   255 255 255   255 255 255   255 255 255   255 255 255   255 255 255   255 255 255   255 255 255   255 255 255   255 255 255   255 255 255   255 255 255   255 255 255   255 255 255   255 255 255   255 255 255   255 255 255   255 255 255   255 255 255   255 255 255   255 255 255   255 255 255   255 255 255   255 255 255   255 255 255   255 255 255   255 255 255   255 255 255   255 255 255   255 255 255   255 255 255   255 255 255   255 255 255   255 255 255   255 255 255   255 255 255   255 255 255   255 255 255   255 255 255   255 255 255   255 255 255   255 255 255   255 255 255   255 255 255   255 255 255   255 255 255   255 255 255   255 255 255   255 255 255   255 255 255   255 255 255
255 255 255   255 255 255   255 255 255   255 255 255   255 255 255   255 255 255   255 255 255   255 255 255   255 255 255   255 255 255   255 255 255   255 255 255   255 255 255   255 255 255   255 255 255   255 255 255   255 255 255   255 255 255   255 255 255   255 255 255   255 255 255   255 255 255   255 255 255   255 255 255   255 255 255   255 255 255   255 255 255   255 255 255   255 255 255   255 255 255   255 255 255   255 255 255   255 255 255   255 255 255   255 255 255   255 255 255   255 255 255   255 255 255   255 255 255   255 255 255   255 255 255   255 255 255   255 255 255   255 255 255   255 255 255   255 255 255   255 255 255   255 255 255   255 255 255   255 255 255   255 255 255   255 255 255   255 255 255   255 255 255   255 255 255   255 255 255   255 255 255   255 255 255   255 255 255   255 255 255   255 255 255   255 255 255   255 255 255   255 255 255   255 255 255   255 255 255   255 255 255   255 255 255   255 255 255   255 255 255   255 255 255   255 255 255   255 255 255   255 255 255   255 255 255   255 255 255   255 255 255   255 255 255   255 255 255   255 255 255   255 255 255   255 255 255   255 255 255   255 255 255   255 255 255   255 255 255   255 255 255   255 255 255   255 255 255   255 255 255   255 255 255   255 255 255   255 255 255   255 255 255   255 255 255   255 255 255   255 255 255   255 255 255   255 255 255   255 255 255   255 255 255   255 255 255   255 255 255   255 255 255   255 255 255   255 255 255   255 255 255   255 255 255   255 255 255   255 255 255   255 255 255   255 255 255   255 255 255   255 255 255   255 255 255   255 255 255   255 255 255   255 255 255   255 255 255   255 255 255   255 255 255   255 255 255   255 255 255   255 255 255   255 255 255   255 255 255   255 255 255   255 255 255   255 255 255   255 255 255   255 255 255   255 255 255   255 255 255   255 255 255   255 255 255   255 255 255   255 255 255   255 255 255   255 255 255   255 255 255   255 255 255   255 255 255   255 255 255   255 255 255   255 255 255   255 255 255   255 255 255   255 255 255   255 255 255   255 255 255   255 255 255   255 255 255   255 255 255   255 255 255   255 255 255   255 255 255   255 255 255   255 255 255   255 255 255   255 255 255   255 255 255   255 255 255   255 255 255   255 255 255   255 255 255   255 255 255   255 255 255   255 255 255   255 255 255   255 255 255   255 255 255   255 255 255   255 255 255   255 255 255   255 255 255   255 255 255   255 255 255   255 255 255   255 255 255   255 255 255   255 255 255   255 255 255   255 255 255   255 255 255   255 255 255   255 255 255   255 255 255   255 255 255   255 255 255   255 255 255   255 255 255   255 255 255   255 255 255   255 255 255   255 255 255   255 255 255   255 255 255   255 255 255   255 255 255   255 255 255   255 255 255   255 255 255   255 255 255   255 255 255   255 255 255   255 255 255   255 255 255   255 255 255   255 255 255   255 255 255   255 255 255   255 255 255   255 255 255   255 255 255   255 255 255   255 255 255   255 255 255   255 255 255   255 255 255   255 255 255   255 255 255   255 255 255   255 255 255   255 255 255   255 255 255   255 255 255   255 255 255   255 255 255   255 255 255   255 255 255   255 255 255   255 255 255   255 255 255   255 255 255   255 255 255   255 255 255   255 255 255   255 255 255   255 255 255   255 255 255   255 255 255   255 255 255   255 255 255   255 255 255   255 255 255   255 255 255   255 255 255   255 255 255   255 255 255   255 255 255   255 255 255   255 255 255   255 255 255   255 255 255   255 255 255   255 255 255
255 255 255   255 255 255   255 255 255   255 255 255   255 255 255   255 255 255   255 255 255   255 255 255   255 255 255   255 255 255   255 255 255   255 255 255   255 255 255   255 255 255   255 255 255   255 255 255   255 255 255   255 255 255   255 255 255   255 255 255   255 255 255   255 255 255   255 255 255   255 255 255   255 255 255   255 255 255   255 255 255   255 255 255   255 255 255   255 255 255   255 255 255   255 255 255   255 255 255   255 255 255   255 255 255   255 255 255   255 255 255   255 255 255   255 255 255   255 255 255   255 255 255   255 255 255   255 255 255   255 255 255   255 255 255   255 255 255   255 255 255   255 255 255   255 255 255   255 255 255   255 255 255   255 255 255   255 255 255   255 255 255   255 255 255   255 255 255   255 255 255   255 255 255   255 255 255   255 255 255   255 255 255   255 255 255   255 255 255   255 255 255   255 255 255   255 255 255   255 255 255   255 255 255   255 255 255   255 255 255   255 255 255   255 255 255   255 255 255   255 255 255   255 255 255   255 255 255   255 255 255   255 255 255   255 255 255   255 255 255   255 255 255   255 255 255   255 255 255   255 255 255   255 255 255   255 255 255   255 255 255   255 255 255   255 255 255   255 255 255   255 255 255   255 255 255   255 255 255   255 255 255   255 255 255   255 255 255   255 255 255   255 255 255   255 255 255   255 255 255   255 255 255   255 255 255   255 255 255   255 255 255   255 255 255   255 255 255   255 255 255   255 255 255   255 255 255   255 255 255   255 255 255   255 255 255   255 255 255   255 255 255   255 255 255   255 255 255   255 255 255   255 255 255   255 255 255   255 255 255   255 255 255   255 255 255   255 255 255   255 255 255   255 255 255   255 255 255   255 255 255   255 255 255   255 255 255   255 255 255   255 255 255   255 255 255   255 255 255   255 255 255   255 255 255   255 255 255   255 255 255   255 255 255   255 255 255   255 255 255   255 255 255   255 255 255   255 255 255   255 255 255   255 255 255   255 255 255   255 255 255   255 255 255   255 255 255   255 255 255   255 255 255   255 255 255   255 255 255   255 255 255   255 255 255   255 255 255   255 255 255   255 255 255   255 255 255   255 255 255   255 255 255   255 255 255   255 255 255   255 255 255   255 255 255   255 255 255   255 255 255   255 255 255   255 255 255   255 255 255   255 255 255   255 255 255   255 255 255   255 255 255   255 255 255   255 255 255   255 255 255   255 255 255   255 255 255   255 255 255   255 255 255   255 255 255   255 255 255   255 255 255   255 255 255   255 255 255   255 255 255   255 255 255   255 255 255   255 255 255   255 255 255   255 255 255   255 255 255   255 255 255   255 255 255   255 255 255   255 255 255   255 255 255   255 255 255   255 255 255   255 255 255   255 255 255   255 255 255   255 255 255   255 255 255   255 255 255   255 255 255   255 255 255   255 255 255   255 255 255   255 255 255   255 255 255   255 255 255   255 255 255   255 255 255   255 255 255   255 255 255   255 255 255   255 255 255   255 255 255   255 255 255   255 255 255   255 255 255   255 255 255   255 255 255   255 255 255   255 255 255   255 255 255   255 255 255   255 255 255   255 255 255   255 255 255   255 255 255   255 255 255   255 255 255   255 255 255   255 255 255   255 255 255   255 255 255   255 255 255   255 255 255   255 255 255   255 255 255   255 255 255   255 255 255   255 255 255   255 255 255   255 255 255   255 255 255   255 255 255   255 255 255   255 255 255   255 255 255   255 255 255   255 255 255   255 255 255
255 255 255   255 255 255   255 255 255   255 255 255   255 255 255   255 255 255   255 255 255   255 255 255   255 255 255   255 255 255   255 255 255   255 255 255   255 255 255   255 255 255   255 255 255   255 255 255   255 255 255   255 255 255   255 255 255   255 255 255   255 255 255   255 255 255   255 255 255   255 255 255   255 255 255   255 255 255   255 255 255   255 255 255   255 255 255   255 255 255   255 255 255   255 255 255   255 255 255   255 255 255   255 255 255   255 255 255   255 255 255   255 255 255   255 255 255   255 255 255   255 255 255   255 255 255   255 255 255   255 255 255   255 255 255   255 255 255   255 255 255   255 255 255   255 255 255   255 255 255   255 255 255   255 255 255   255 255 255   255 255 255   255 255 255   255 255 255   255 255 255   255 255 255   255 255 255   255 255 255   255 255 255   255 255 255   255 255 255   255 255 255   255 255 255   255 255 255   255 255 255   255 255 255   255 255 255   255 255 255   255 255 255   255 255 255   255 255 255   255 255 255   255 255 255   255 255 255   255 255 255   255 255 255   255 255 255   255 255 255   255 255 255   255 255 255   255 255 255   255 255 255   255 255 255   255 255 255   255 255 255   255 255 255   255 255 255   255 255 255   255 255 255   255 255 255   255 255 255   255 255 255   255 255 255   255 255 255   255 255 255   255 255 255   255 255 255   255 255 255   255 255 255   255 255 255   255 255 255   255 255 255   255 255 255   255 255 255   255 255 255   255 255 255   255 255 255   255 255 255   255 255 255   255 255 255   255 255 255   255 255 255   255 255 255   255 255 255   255 255 255   255 255 255   255 255 255   255 255 255   255 255 255   255 255 255   255 255 255   255 255 255   255 255 255   255 255 255   255 255 255   255 255 255   255 255 255   255 255 255   255 255 255   255 255 255   255 255 255   255 255 255   255 255 255   255 255 255   255 255 255   255 255 255   255 255 255   255 255 255   255 255 255   255 255 255   255 255 255   255 255 255   255 255 255   255 255 255   255 255 255   255 255 255   255 255 255   255 255 255   255 255 255   255 255 255   255 255 255   255 255 255   255 255 255   255 255 255   255 255 255   255 255 255   255 255 255   255 255 255   255 255 255   255 255 255   255 255 255   255 255 255   255 255 255   255 255 255   255 255 255   255 255 255   255 255 255   255 255 255   255 255 255   255 255 255   255 255 255   255 255 255   255 255 255   255 255 255   255 255 255   255 255 255   255 255 255   255 255 255   255 255 255   255 255 255   255 255 255   255 255 255   255 255 255   255 255 255   255 255 255   255 255 255   255 255 255   255 255 255   255 255 255   255 255 255   255 255 255   255 255 255   255 255 255   255 255 255   255 255 255   255 255 255   255 255 255   255 255 255   255 255 255   255 255 255   255 255 255   255 255 255   255 255 255   255 255 255   255 255 255   255 255 255   255 255 255   255 255 255   255 255 255   255 255 255   255 255 255   255 255 255   255 255 255   255 255 255   255 255 255   255 255 255   255 255 255   255 255 255   255 255 255   255 255 255   255 255 255   255 255 255   255 255 255   255 255 255   255 255 255   255 255 255   255 255 255   255 255 255   255 255 255   255 255 255   255 255 255   255 255 255   255 255 255   255 255 255   255 255 255   255 255 255   255 255 255   255 255 255   255 255 255   255 255 255   255 255 255   255 255 255   255 255 255   255 255 255   255 255 255   255 255 255   255 255 255   255 255 255   255 255 255   255 255 255   255 255 255   255 255 255   255 255 255   255 255 255
255 255 255   255 255 255   255 255 255   255 255 255   255 255 255   255 255 255   255 255 255   255 255 255   255 255 255   255 255 255   255 255 255   255 255 255   255 255 255   255 255 255   255 255 255   255 255 255   255 255 255   255 255 255   255 255 255   255 255 255   255 255 255   255 255 255   255 255 255   255 255 255   255 255 255   255 255 255   255 255 255   255 255 255   255 255 255   255 255 255   255 255 255   255 255 255   255 255 255   255 255 255   255 255 255   255 255 255   255 255 255   255 255 255   255 255 255   255 255 255   255 255 255   255 255 255   255 255 255   255 255 255   255 255 255   255 255 255   255 255 255   255 255 255   255 255 255   255 255 255   255 255 255   255 255 255   255 255 255   255 255 255   255 255 255   255 255 255   255 255 255   255 255 255   255 255 255   255 255 255   255 255 255   255 255 255   255 255 255   255 255 255   255 255 255   255 255 255   255 255 255   255 255 255   255 255 255   255 255 255   255 255 255   255 255 255   255 255 255   255 255 255   255 255 255   255 255 255   255 255 255   255 255 255   255 255 255   255 255 255   255 255 255   255 255 255   255 255 255   255 255 255   255 255 255   255 255 255   255 255 255   255 255 255   255 255 255   255 255 255   255 255 255   255 255 255   255 255 255   255 255 255   255 255 255   255 255 255   255 255 255   255 255 255   255 255 255   255 255 255   255 255 255   255 255 255   255 255 255   255 255 255   255 255 255   255 255 255   255 255 255   255 255 255   255 255 255   255 255 255   255 255 255   255 255 255   255 255 255   255 255 255   255 255 255   255 255 255   255 255 255   255 255 255   255 255 255   255 255 255   255 255 255   255 255 255   255 255 255   255 255 255   255 255 255   255 255 255   255 255 255   255 255 255   255 255 255   255 255 255   255 255 255   255 255 255   255 255 255   255 255 255   255 255 255   255 255 255   255 255 255   255 255 255   255 255 255   255 255 255   255 255 255   255 255 255   255 255 255   255 255 255   255 255 255   255 255 255   255 255 255   255 255 255   255 255 255   255 255 255   255 255 255   255 255 255   255 255 255   255 255 255   255 255 255   255 255 255   255 255 255   255 255 255   255 255 255   255 255 255   255 255 255   255 255 255   255 255 255   255 255 255   255 255 255   255 255 255   255 255 255   255 255 255   255 255 255   255 255 255   255 255 255   255 255 255   255 255 255   255 255 255   255 255 255   255 255 255   255 255 255   255 255 255   255 255 255   255 255 255   255 255 255   255 255 255   255 255 255   255 255 255   255 255 255   255 255 255   255 255 255   255 255 255   255 255 255   255 255 255   255 255 255   255 255 255   255 255 255   255 255 255   255 255 255   255 255 255   255 255 255   255 255 255   255 255 255   255 255 255   255 255 255   255 255 255   255 255 255   255 255 255   255 255 255   255 255 255   255 255 255   255 255 255   255 255 255   255 255 255   255 255 255   255 255 255   255 255 255   255 255 255   255 255 255   255 255 255   255 255 255   255 255 255   255 255 255   255 255 255   255 255 255   255 255 255   255 255 255   255 255 255   255 255 255   255 255 255   255 255 255   255 255 255   255 255 255   255 255 255   255 255 255   255 255 255   255 255 255   255 255 255   255 255 255   255 255 255   255 255 255   255 255 255   255 255 255   255 255 255   255 255 255   255 255 255   255 255 255   255 255 255   255 255 255   255 255 255   255 255 255   255 255 255   255 255 255   255 255 255   255 255 255   255 255 255   255 255 255   255 255 255   255 255 255   255 255 255
255 255 255   255 255 255   255 255 255   255 255 255   255 255 255   255 255 255   255 255 255   255 255 255   255 255 255   255 255 255   255 255 255   255 255 255   255 255 255   255 255 255   255 255 255   255 255 255   255 255 255   255 255 255   255 255 255   255 255 255   255 255 255   255 255 255   255 255 255   255 255 255   255 255 255   255 255 255   255 255 255   255 255 255   255 255 255   255 255 255   255 255 255   255 255 255   255 255 255   255 255 255   255 255 255   255 255 255   255 255 255   255 255 255   255 255 255   255 255 255   255 255 255   255 255 255   255 255 255   255 255 255   255 255 255   255 255 255   255 255 255   255 255 255   255 255 255   255 255 255   255 255 255   255 255 255   255 255 255   255 255 255   255 255 255   255 255 255   255 255 255   255 255 255   255 255 255   255 255 255   255 255 255   255 255 255   255 255 255   255 255 255   255 255 255   255 255 255   255 255 255   255 255 255   255 255 255   255 255 255   255 255 255   255 255 255   255 255 255   255 255 255   255 255 255   255 255 255   255 255 255   255 255 255   255 255 255   255 255 255   255 255 255   255 255 255   255 255 255   255 255 255   255 255 255   255 255 255   255 255 255   255 255 255   255 255 255   255 255 255   255 255 255   255 255 255   255 255 255   255 255 255   255 255 255   255 255 255   255 255 255   255 255 255   255 255 255   255 255 255   255 255 255   255 255 255   255 255 255   255 255 255   255 255 255   255 255 255   255 255 255   255 255 255   255 255 255   255 255 255   255 255 255   255 255 255   255 255 255   255 255 255   255 255 255   255 255 255   255 255 255   255 255 255   255 255 255   255 255 255   255 255 255   255 255 255   255 255 255   255 255 255   255 255 255   255 255 255   255 255 255   255 255 255   255 255 255   255 255 255   255 255 255   255 255 255   255 255 255   255 255 255   255 255 255   255 255 255   255 255 255   255 255 255   255 255 255   255 255 255   255 255 255   255 255 255   255 255 255   255 255 255   255 255 255   255 255 255   255 255 255   255 255 255   255 255 255   255 255 255   255 255 255   255 255 255   255 255 255   255 255 255   255 255 255   255 255 255   255 255 255   255 255 255   255 255 255   255 255 255   255 255 255   255 255 255   255 255 255   255 255 255   255 255 255   255 255 255   255 255 255   255 255 255   255 255 255   255 255 255   255 255 255   255 255 255   255 255 255   255 255 255   255 255 255   255 255 255   255 255 255   255 255 255   255 255 255   255 255 255   255 255 255   255 255 255   255 255 255   255 255 255   255 255 255   255 255 255   255 255 255   255 255 255   255 255 255   255 255 255   255 255 255   255 255 255   255 255 255   255 255 255   255 255 255   255 255 255   255 255 255   255 255 255   255 255 255   255 255 255   255 255 255   255 255 255   255 255 255   255 255 255   255 255 255   255 255 255   255 255 255   255 255 255   255 255 255   255 255 255   255 255 255   255 255 255   255 255 255   255 255 255   255 255 255   255 255 255   255 255 255   255 255 255   255 255 255   255 255 255   255 255 255   255 255 255   255 255 255   255 255 255   255 255 255   255 255 255   255 255 255   255 255 255   255 255 255   255 255 255   255 255 255   255 255 255   255 255 255   255 255 255   255 255 255   255 255 255   255 255 255   255 255 255   255 255 255   255 255 255   255 255 255   255 255 255   255 255 255   255 255 255   255 255 255   255 255 255   255 255 255   255 255 255   255 255 255   255 255 255   255 255 255   255 255 255   255 255 255   255 255 255   255 255 255   255 255 255
255 255 255   255 255 255   255 255 255   255 255 255   255 255 255   255 255 255   255 255 255   255 255 255   255 255 255   255 255 255   255 255 255   255 255 255   255 255 255   255 255 255   255 255 255   255 255 255   255 255 255   255 255 255   255 255 255   255 255 255   255 255 255   255 255 255   255 255 255   255 255 255   255 255 255   255 255 255   255 255 255   255 255 255   255 255 255   255 255 255   255 255 255   255 255 255   255 255 255   255 255 255   255 255 255   255 255 255   255 255 255   255 255 255   255 255 255   255 255 255   255 255 255   255 255 255   255 255 255   255 255 255   255 255 255   255 255 255   255 255 255   255 255 255   255 255 255   255 255 255   255 255 255   255 255 255   255 255 255   255 255 255   255 255 255   255 255 255   255 255 255   255 255 255   255 255 255   255 255 255   255 255 255   255 255 255   255 255 255   255 255 255   255 255 255   255 255 255   255 255 255   255 255 255   255 255 255   255 255 255   255 255 255   255 255 255   255 255 255   255 255 255   255 255 255   255 255 255   255 255 255   255 255 255   255 255 255   255 255 255   255 255 255   255 255 255   255 255 255   255 255 255   255 255 255   255 255 255   255 255 255   255 255 255   255 255 255   255 255 255   255 255 255   255 255 255   255 255 255   255 255 255   255 255 255   255 255 255   255 255 255   255 255 255   255 255 255   255 255 255   255 255 255   255 255 255   255 255 255   255 255 255   255 255 255   255 255 255   255 255 255   255 255 255   255 255 255   255 255 255   255 255 255   255 255 255   255 255 255   255 255 255   255 255 255   255 255 255   255 255 255   255 255 255   255 255 255   255 255 255   255 255 255   255 255 255   255 255 255   255 255 255   255 255 255   255 255 255   255 255 255   255 255 255   255 255 255   255 255 255   255 255 255   255 255 255   255 255 255   255 255 255   255 255 255   255 255 255   255 255 255   255 255 255   255 255 255   255 255 255   255 255 255   255 255 255   255 255 255   255 255 255   255 255 255   255 255 255   255 255 255   255 255 255   255 255 255   255 255 255   255 255 255   255 255 255   255 255 255   255 255 255   255 255 255   255 255 255   255 255 255   255 255 255   255 255 255   255 255 255   255 255 255   255 255 255   255 255 255   255 255 255   255 255 255   255 255 255   255 255 255   255 255 255   255 255 255   255 255 255   255 255 255   255 255 255   255 255 255   255 255 255   255 255 255   255 255 255   255 255 255   255 255 255   255 255 255   255 255 255   255 255 255   255 255 255   255 255 255   255 255 255   255 255 255   255 255 255   255 255 255   255 255 255   255 255 255   255 255 255   255 255 255   255 255 255   255 255 255   255 255 255   255 255 255   255 255 255   255 255 255   255 255 255   255 255 255   255 255 255   255 255 255   255 255 255   255 255 255   255 255 255   255 255 255   255 255 255   255 255 255   255 255 255   255 255 255   255 255 255   255 255 255   255 255 255   255 255 255   255 255 255   255 255 255   255 255 255   255 255 255   255 255 255   255 255 255   255 255 255   255 255 255   255 255 255   255 255 255   255 255 255   255 255 255   255 255 255   255 255 255   255 255 255   255 255 255   255 255 255   255 255 255   255 255 255   255 255 255   255 255 255   255 255 255   255 255 255   255 255 255   255 255 255   255 255 255   255 255 255   255 255 255   255 255 255   255 255 255   255 255 255   255 255 255   255 255 255   255 255 255   255 255 255   255 255 255   255 255 255   255 255 255   255 255 255   255 255 255   255 255 255   255 255 255   255 255 255
255 255 255   255 255 255   255 255 255   255 255 255   255 255 255   255 255 255   255 255 255   255 255 255   255 255 255   255 255 255   255 255 255   255 255 255   255 255 255   255 255 255   255 255 255   255 255 255   255 255 255   255 255 255   255 255 255   255 255 255   255 255 255   255 255 255   255 255 255   255 255 255   255 255 255   255 255 255   255 255 255   255 255 255   255 255 255   255 255 255   255 255 255   255 255 255   255 255 255   255 255 255   255 255 255   255 255 255   255 255 255   255 255 255   255 255 255   255 255 255   255 255 255   255 255 255   255 255 255   255 255 255   255 255 255   255 255 255   255 255 255   255 255 255   255 255 255   255 255 255   255 255 255   255 255 255   255 255 255   255 255 255   255 255 255   255 255 255   255 255 255   255 255 255   255 255 255   255 255 255   255 255 255   255 255 255   255 255 255   255 255 255   255 255 255   255 255 255   255 255 255   255 255 255   255 255 255   255 255 255   255 255 255   255 255 255   255 255 255   255 255 255   255 255 255   255 255 255   255 255 255   255 255 255   255 255 255   255 255 255   255 255 255   255 255 255   255 255 255   255 255 255   255 255 255   255 255 255   255 255 255   255 255 255   255 255 255   255 255 255   255 255 255   255 255 255   255 255 255   255 255 255   255 255 255   255 255 255   255 255 255   255 255 255   255 255 255   255 255 255   255 255 255   255 255 255   255 255 255   255 255 255   255 255 255   255 255 255   255 255 255   255 255 255   255 255 255   255 255 255   255 255 255   255 255 255   255 255 255   255 255 255   255 255 255   255 255 255   255 255 255   255 255 255   255 255 255   255 255 255   255 255 255   255 255 255   255 255 255   255 255 255   255 255 255   255 255 255   255 255 255   255 255 255   255 255 255   255 255 255   255 255 255   255 255 255   255 255 255   255 255 255   255 255 255   255 255 255   255 255 255   255 255 255   255 255 255   255 255 255   255 255 255   255 255 255   255 255 255   255 255 255   255 255 255   255 255 255   255 255 255   255 255 255   255 255 255   255 255 255   255 255 255   255 255 255   255 255 255   255 255 255   255 255 255   255 255 255   255 255 255   255 255 255   255 255 255   255 255 255   255 255 255   255 255 255   255 255 255   255 255 255   255 255 255   255 255 255   255 255 255   255 255 255   255 255 255   255 255 255   255 255 255   255 255 255   255 255 255   255 255 255   255 255 255   255 255 255   255 255 255   255 255 255   255 255 255   255 255 255   255 255 255   255 255 255   255 255 255   255 255 255   255 255 255   255 255 255   255 255 255   255 255 255   255 255 255   255 255 255   255 255 255   255 255 255   255 255 255   255 255 255   255 255 255   255 255 255   255 255 255   255 255 255   255 255 255   255 255 255   255 255 255   255 255 255   255 255 255   255 255 255   255 255 255   255 255 255   255 255 255   255 255 255   255 255 255   255 255 255   255 255 255   255 255 255   255 255 255   255 255 255   255 255 255   255 255 255   255 255 255   255 255 255   255 255 255   255 255 255   255 255 255   255 255 255   255 255 255   255 255 255   255 255 255   255 255 255   255 255 255   255 255 255   255 255 255   255 255 255   255 255 255   255 255 255   255 255 255   255 255 255   255 255 255   255 255 255   255 255 255   255 255 255   255 255 255   255 255 255   255 255 255   255 255 255   255 255 255   255 255 255   255 255 255   255 255 255   255 255 255   255 255 255   255 255 255   255 255 255   255 255 255   255 255 255   255 255 255   255 255 255   255 255 255   255 255 255
255 255 255   255 255 255   255 255 255   255 255 255   255 255 255   255 255 255   255 255 255   255 255 255   255 255 255   255 255 255   255 255 255   255 255 255   255 255 255   255 255 255   255 255 255   255 255 255   255 255 255   255 255 255   255 255 255   255 255 255   255 255 255   255 255 255   255 255 255   255 255 255   255 255 255   255 255 255   255 255 255   255 255 255   255 255 255   255 255 255   255 255 255   255 255 255   255 255 255   255 255 255   255 255 255   255 255 255   255 255 255   255 255 255   255 255 255   255 255 255   255 255 255   255 255 255   255 255 255   255 255 255   255 255 255   255 255 255   255 255 255   255 255 255   255 255 255   255 255 255   255 255 255   255 255 255   255 255 255   255 255 255   255 255 255   255 255 255   255 255 255   255 255 255   255 255 255   255 255 255   255 255 255   255 255 255   255 255 255   255 255 255   255 255 255   255 255 255   255 255 255   255 255 255   255 255 255   255 255 255   255 255 255   255 255 255   255 255 255   255 255 255   255 255 255   255 255 255   255 255 255   255 255 255   255 255 255   255 255 255   255 255 255   255 255 255   255 255 255   255 255 255   255 255 255   255 255 255   255 255 255   255 255 255   255 255 255   255 255 255   255 255 255   255 255 255   255 255 255   255 255 255   255 255 255   255 255 255   255 255 255   255 255 255   255 255 255   255 255 255   255 255 255   255 255 255   255 255 255   255 255 255   255 255 255   255 255 255   255 255 255   255 255 255   255 255 255   255 255 255   255 255 255   255 255 255   255 255 255   255 255 255   255 255 255   255 255 255   255 255 255   255 255 255   255 255 255   255 255 255   255 255 255   255 255 255   255 255 255   255 255 255   255 255 255   255 255 255   255 255 255   255 255 255   255 255 255   255 255 255   255 255 255   255 255 255   255 255 255   255 255 255   255 255 255   255 255 255   255 255 255   255 255 255   255 255 255   255 255 255   255 255 255   255 255 255   255 255 255   255 255 255   255 255 255   255 255 255   255 255 255   255 255 255   255 255 255   255 255 255   255 255 255   255 255 255   255 255 255   255 255 255   255 255 255   255 255 255   255 255 255   255 255 255   255 255 255   255 255 255   255 255 255   255 255 255   255 255 255   255 255 255   255 255 255   255 255 255   255 255 255   255 255 255   255 255 255   255 255 255   255 255 255   255 255 255   255 255 255   255 255 255   255 255 255   255 255 255   255 255 255   255 255 255   255 255 255   255 255 255   255 255 255   255 255 255   255 255 255   255 255 255   255 255 255   255 255 255   255 255 255   255 255 255   255 255 255   255 255 255   255 255 255   255 255 255   255 255 255   255 255 255   255 255 255   255 255 255   255 255 255   255 255 255   255 255 255   255 255 255   255 255 255   255 255 255   255 255 255   255 255 255   255 255 255   255 255 255   255 255 255   255 255 255   255 255 255   255 255 255   255 255 255   255 255 255   255 255 255   255 255 255   255 255 255   255 255 255   255 255 255   255 255 255   255 255 255   255 255 255   255 255 255   255 255 255   255 255 255   255 255 255   255 255 255   255 255 255   255 255 255   255 255 255   255 255 255   255 255 255   255 255 255   255 255 255   255 255 255   255 255 255   255 255 255   255 255 255   255 255 255   255 255 255   255 255 255   255 255 255   255 255 255   255 255 255   255 255 255   255 255 255   255 255 255   255 255 255   255 255 255   255 255 255   255 255 255   255 255 255   255 255 255   255 255 255   255 255 255   255 255 255   255 255 255   255 255 255
255 255 255   255 255 255   255 255 255   255 255 255   255 255 255   255 255 255   255 255 255   255 255 255   255 255 255   255 255 255   255 255 255   255 255 255   255 255 255   255 255 255   255 255 255   255 255 255   255 255 255   255 255 255   255 255 255   255 255 255   255 255 255   255 255 255   255 255 255   255 255 255   255 255 255   255 255 255   255 255 255   255 255 255   255 255 255   255 255 255   255 255 255   255 255 255   255 255 255   255 255 255   255 255 255   255 255 255   255 255 255   255 255 255   255 255 255   255 255 255   255 255 255   255 255 255   255 255 255   255 255 255   255 255 255   255 255 255   255 255 255   255 255 255   255 255 255   255 255 255   255 255 255   255 255 255   255 255 255   255 255 255   255 255 255   255 255 255   255 255 255   255 255 255   255 255 255   255 255 255   255 255 255   255 255 255   255 255 255   255 255 255   255 255 255   255 255 255   255 255 255   255 255 255   255 255 255   255 255 255   255 255 255   255 255 255   255 255 255   255 255 255   255 255 255   255 255 255   255 255 255   255 255 255   255 255 255   255 255 255   255 255 255   255 255 255   255 255 255   255 255 255   255 255 255   255 255 255   255 255 255   255 255 255   255 255 255   255 255 255   255 255 255   255 255 255   255 255 255   255 255 255   255 255 255   255 255 255   255 255 255   255 255 255   255 255 255   255 255 255   255 255 255   255 255 255   255 255 255   255 255 255   255 255 255   255 255 255   255 255 255   255 255 255   255 255 255   255 255 255   255 255 255   255 255 255   255 255 255   255 255 255   255 255 255   255 255 255   255 255 255   255 255 255   255 255 255   255 255 255   255 255 255   255 255 255   255 255 255   255 255 255   255 255 255   255 255 255   255 255 255   255 255 255   255 255 255   255 255 255   255 255 255   255 255 255   255 255 255   255 255 255   255 255 255   255 255 255   255 255 255   255 255 255   255 255 255   255 255 255   255 255 255   255 255 255   255 255 255   255 255 255   255 255 255   255 255 255   255 255 255   255 255 255   255 255 255   255 255 255   255 255 255   255 255 255   255 255 255   255 255 255   255 255 255   255 255 255   255 255 255   255 255 255   255 255 255   255 255 255   255 255 255   255 255 255   255 255 255   255 255 255   255 255 255   255 255 255   255 255 255   255 255 255   255 255 255   255 255 255   255 255 255   255 255 255   255 255 255   255 255 255   255 255 255   255 255 255   255 255 255   255 255 255   255 255 255   255 255 255   255 255 255   255 255 255   255 255 255   255 255 255   255 255 255   255 255 255   255 255 255   255 255 255   255 255 255   255 255 255   255 255 255   255 255 255   255 255 255   255 255 255   255 255 255   255 255 255   255 255 255   255 255 255   255 255 255   255 255 255   255 255 255   255 255 255   255 255 255   255 255 255   255 255 255   255 255 255   255 255 255   255 255 255   255 255 255   255 255 255   255 255 255   255 255 255   255 255 255   255 255 255   255 255 255   255 255 255   255 255 255   255 255 255   255 255 255   255 255 255   255 255 255   255 255 255   255 255 255   255 255 255   255 255 255   255 255 255   255 255 255   255 255 255   255 255 255   255 255 255   255 255 255   255 255 255   255 255 255   255 255 255   255 255 255   255 255 255   255 255 255   255 255 255   255 255 255   255 255 255   255 255 255   255 255 255   255 255 255   255 255 255   255 255 255   255 255 255   255 255 255   255 255 255   255 255 255   255 255 255   255 255 255   255 255 255   255 255 255   255 255 255   255 255 255   255 255 255
255 255 255   255 255 255   255 255 255   255 255 255   255 255 255   255 255 255   255 255 255   255 255 255   255 255 255   255 255 255   255 255 255   255 255 255   255 255 255   255 255 255   255 255 255   255 255 255   255 255 255   255 255 255   255 255 255   255 255 255   255 255 255   255 255 255   255 255 255   255 255 255   255 255 255   255 255 255   255 255 255   255 255 255   255 255 255   255 255 255   255 255 255   255 255 255   255 255 255   255 255 255   255 255 255   255 255 255   255 255 255   255 255 255   255 255 255   255 255 255   255 255 255   255 255 255   255 255 255   255 255 255   255 255 255   255 255 255   255 255 255   255 255 255   255 255 255   255 255 255   255 255 255   255 255 255   255 255 255   255 255 255   255 255 255   255 255 255   255 255 255   255 255 255   255 255 255   255 255 255   255 255 255   255 255 255   255 255 255   255 255 255   255 255 255   255 255 255   255 255 255   255 255 255   255 255 255   255 255 255   255 255 255   255 255 255   255 255 255   255 255 255   255 255 255   255 255 255   255 255 255   255 255 255   255 255 255   255 255 255   255 255 255   255 255 255   255 255 255   255 255 255   255 255 255   255 255 255   255 255 255   255 255 255   255 255 255   255 255 255   255 255 255   255 255 255   255 255 255   255 255 255   255 255 255   255 255 255   255 255 255   255 255 255   255 255 255   255 255 255   255 255 255   255 255 255   255 255 255   255 255 255   255 255 255   255 255 255   255 255 255   255 255 255   255 255 255   255 255 255   255 255 255   255 255 255   255 255 255   255 255 255   255 255 255   255 255 255   255 255 255   255 255 255   255 255 255   255 255 255   255 255 255   255 255 255   255 255 255   255 255 255   255 255 255   255 255 255   255 255 255   255 255 255   255 255 255   255 255 255   255 255 255   255 255 255   255 255 255   255 255 255   255 255 255   255 255 255   255 255 255   255 255 255   255 255 255   255 255 255   255 255 255   255 255 255   255 255 255   255 255 255   255 255 255   255 255 255   255 255 255   255 255 255   255 255 255   255 255 255   255 255 255   255 255 255   255 255 255   255 255 255   255 255 255   255 255 255   255 255 255   255 255 255   255 255 255   255 255 255   255 255 255   255 255 255   255 255 255   255 255 255   255 255 255   255 255 255   255 255 255   255 255 255   255 255 255   255 255 255   255 255 255   255 255 255   255 255 255   255 255 255   255 255 255   255 255 255   255 255 255   255 255 255   255 255 255   255 255 255   255 255 255   255 255 255   255 255 255   255 255 255   255 255 255   255 255 255   255 255 255   255 255 255   255 255 255   255 255 255   255 255 255   255 255 255   255 255 255   255 255 255   255 255 255   255 255 255   255 255 255   255 255 255   255 255 255   255 255 255   255 255 255   255 255 255   255 255 255   255 255 255   255 255 255   255 255 255   255 255 255   255 255 255   255 255 255   255 255 255   255 255 255   255 255 255   255 255 255   255 255 255   255 255 255   255 255 255   255 255 255   255 255 255   255 255 255   255 255 255   255 255 255   255 255 255   255 255 255   255 255 255   255 255 255   255 255 255   255 255 255   255 255 255   255 255 255   255 255 255   255 255 255   255 255 255   255 255 255   255 255 255   255 255 255   255 255 255   255 255 255   255 255 255   255 255 255   255 255 255   255 255 255   255 255 255   255 255 255   255 255 255   255 255 255   255 255 255   255 255 255   255 255 255   255 255 255   255 255 255   255 255 255   255 255 255   255 255 255   255 255 255   255 255 255   255 255 255
255 255 255   255 255 255   255 255 255   255 255 255   255 255 255   255 255 255   255 255 255   255 255 255   255 255 255   255 255 255   255 255 255   255 255 255   255 255 255   255 255 255   255 255 255   255 255 255   255 255 255   255 255 255   255 255 255   255 255 255   255 255 255   255 255 255   255 255 255   255 255 255   255 255 255   255 255 255   255 255 255   255 255 255   255 255 255   255 255 255   255 255 255   255 255 255   255 255 255   255 255 255   255 255 255   255 255 255   255 255 255   255 255 255   255 255 255   255 255 255   255 255 255   255 255 255   255 255 255   255 255 255   255 255 255   255 255 255   255 255 255   255 255 255   255 255 255   255 255 255   255 255 255   255 255 255   255 255 255   255 255 255   255 255 255   255 255 255   255 255 255   255 255 255   255 255 255   255 255 255   255 255 255   255 255 255   255 255 255   255 255 255   255 255 255   255 255 255   255 255 255   255 255 255   255 255 255   255 255 255   255 255 255   255 255 255   255 255 255   255 255 255   255 255 255   255 255 255   255 255 255   255 255 255   255 255 255   255 255 255   255 255 255   255 255 255   255 255 255   255 255 255   255 255 255   255 255 255   255 255 255   255 255 255   255 255 255   255 255 255   255 255 255   255 255 255   255 255 255   255 255 255   255 255 255   255 255 255   255 255 255   255 255 255   255 255 255   255 255 255   255 255 255   255 255 255   255 255 255   255 255 255   255 255 255   255 255 255   255 255 255   255 255 255   255 255 255   255 255 255   255 255 255   255 255 255   255 255 255   255 255 255   255 255 255   255 255 255   255 255 255   255 255 255   255 255 255   255 255 255   255 255 255   255 255 255   255 255 255   255 255 255   255 255 255   255 255 255   255 255 255   255 255 255   255 255 255   255 255 255   255 255 255   255 255 255   255 255 255   255 255 255   255 255 255   255 255 255   255 255 255   255 255 255   255 255 255   255 255 255   255 255 255   255 255 255   255 255 255   255 255 255   255 255 255   255 255 255   255 255 255   255 255 255   255 255 255   255 255 255   255 255 255   255 255 255   255 255 255   255 255 255   255 255 255   255 255 255   255 255 255   255 255 255   255 255 255   255 255 255   255 255 255   255 255 255   255 255 255   255 255 255   255 255 255   255 255 255   255 255 255   255 255 255   255 255 255   255 255 255   255 255 255   255 255 255   255 255 255   255 255 255   255 255 255   255 255 255   255 255 255   255 255 255   255 255 255   255 255 255   255 255 255   255 255 255   255 255 255   255 255 255   255 255 255   255 255 255   255 255 255   255 255 255   255 255 255   255 255 255   255 255 255   255 255 255   255 255 255   255 255 255   255 255 255   255 255 255   255 255 255   255 255 255   255 255 255   255 255 255   255 255 255   255 255 255   255 255 255   255 255 255   255 255 255   255 255 255   255 255 255   255 255 255   255 255 255   255 255 255   255 255 255   255 255 255   255 255 255   255 255 255   255 255 255   255 255 255   255 255 255   255 255 255   255 255 255   255 255 255   255 255 255   255 255 255   255 255 255   255 255 255   255 255 255   255 255 255   255 255 255   255 255 255   255 255 255   255 255 255   255 255 255   255 255 255   255 255 255   255 255 255   255 255 255   255 255 255   255 255 255   255 255 255   255 255 255   255 255 255   255 255 255   255 255 255   255 255 255   255 255 255   255 255 255   255 255 255   255 255 255   255 255 255   255 255 255   255 255 255   255 255 255   255 255 255   255 255 255   255 255 255   255 255 255   255 255 255
255 255 255   255 255 255   255 255 255   255 255 255   255 255 255   255 255 255   255 255 255   255 255 255   255 255 255   255 255 255   255 255 255   255 255 255   255 255 255   255 255 255   255 255 255   255 255 255   255 255 255   255 255 255   255 255 255   255 255 255   255 255 255   255 255 255   255 255 255   255 255 255   255 255 255   255 255 255   255 255 255   255 255 255   255 255 255   255 255 255   255 255 255   255 255 255   255 255 255   255 255 255   255 255 255   255 255 255   255 255 255   255 255 255   255 255 255   255 255 255   255 255 255   255 255 255   255 255 255   255 255 255   255 255 255   255 255 255   255 255 255   255 255 255   255 255 255   255 255 255   255 255 255   255 255 255   255 255 255   255 255 255   255 255 255   255 255 255   255 255 255   255 255 255   255 255 255   255 255 255   255 255 255   255 255 255   255 255 255   255 255 255   255 255 255   255 255 255   255 255 255   255 255 255   255 255 255   255 255 255   255 255 255   255 255 255   255 255 255   255 255 255   255 255 255   255 255 255   255 255 255   255 255 255   255 255 255   255 255 255   255 255 255   255 255 255   255 255 255   255 255 255   255 255 255   255 255 255   255 255 255   255 255 255   255 255 255   255 255 255   255 255 255   255 255 255   255 255 255   255 255 255   255 255 255   255 255 255   255 255 255   255 255 255   255 255 255   255 255 255   255 255 255   255 255 255   255 255 255   255 255 255   255 255 255   255 255 255   255 255 255   255 255 255   255 255 255   255 255 255   255 255 255   255 255 255   255 255 255   255 255 255   255 255 255   255 255 255   255 255 255   255 255 255   255 255 255   255 255 255   255 255 255   255 255 255   255 255 255   255 255 255   255 255 255   255 255 255   255 255 255   255 255 255   255 255 255   255 255 255   255 255 255   255 255 255   255 255 255   255 255 255   255 255 255   255 255 255   255 255 255   255 255 255   255 255 255   255 255 255   255 255 255   255 255 255   255 255 255   255 255 255   255 255 255   255 255 255   255 255 255   255 255 255   255 255 255   255 255 255   255 255 255   255 255 255   255 255 255   255 255 255   255 255 255   255 255 255   255 255 255   255 255 255   255 255 255   255 255 255   255 255 255   255 255 255   255 255 255   255 255 255   255 255 255   255 255 255   255 255 255   255 255 255   255 255 255   255 255 255   255 255 255   255 255 255   255 255 255   255 255 255   255 255 255   255 255 255   255 255 255   255 255 255   255 255 255   255 255 255   255 255 255   255 255 255   255 255 255   255 255 255   255 255 255   255 255 255   255 255 255   255 255 255   255 255 255   255 255 255   255 255 255   255 255 255   255 255 255   255 255 255   255 255 255   255 255 255   255 255 255   255 255 255   255 255 255   255 255 255   255 255 255   255 255 255   255 255 255   255 255 255   255 255 255   255 255 255   255 255 255   255 255 255   255 255 255   255 255 255   255 255 255   255 255 255   255 255 255   255 255 255   255 255 255   255 255 255   255 255 255   255 255 255   255 255 255   255 255 255   255 255 255   255 255 255   255 255 255   255 255 255   255 255 255   255 255 255   255 255 255   255 255 255   255 255 255   255 255 255   255 255 255   255 255 255   255 255 255   255 255 255   255 255 255   255 255 255   255 255 255   255 255 255   255 255 255   255 255 255   255 255 255   255 255 255   255 255 255   255 255 255   255 255 255   255 255 255   255 255 255   255 255 255   255 255 255   255 255 255   255 255 255   255 255 255   255 255 255   255 255 255   255 255 255   255 255 255
255 255 255   255 255 255   255 255 255   255 255 255   255 255 255   255 255 255   255 255 255   255 255 255   255 255 255   255 255 255   255 255 255   255 255 255   255 255 255   255 255 255   255 255 255   255 255 255   255 255 255   255 255 255   255 255 255   255 255 255   255 255 255   255 255 255   255 255 255   255 255 255   255 255 255   255 255 255   255 255 255   255 255 255   255 255 255   255 255 255   255 255 255   255 255 255   255 255 255   255 255 255   255 255 255   255 255 255   255 255 255   255 255 255   255 255 255   255 255 255   255 255 255   255 255 255   255 255 255   255 255 255   255 255 255   255 255 255   255 255 255   255 255 255   255 255 255   255 255 255   255 255 255   255 255 255   255 255 255   255 255 255   255 255 255   255 255 255   255 255 255   255 255 255   255 255 255   255 255 255   255 255 255   255 255 255   255 255 255   255 255 255   255 255 255   255 255 255   255 255 255   255 255 255   255 255 255   255 255 255   255 255 255   255 255 255   255 255 255   255 255 255   255 255 255   255 255 255   255 255 255   255 255 255   255 255 255   255 255 255   255 255 255   255 255 255   255 255 255   255 255 255   255 255 255   255 255 255   255 255 255   255 255 255   255 255 255   255 255 255   255 255 255   255 255 255   255 255 255   255 255 255   255 255 255   255 255 255   255 255 255   255 255 255   255 255 255   255 255 255   255 255 255   255 255 255   255 255 255   255 255 255   255 255 255   255 255 255   255 255 255   255 255 255   255 255 255   255 255 255   255 255 255   255 255 255   255 255 255   255 255 255   255 255 255   255 255 255   255 255 255   255 255 255   255 255 255   255 255 255   255 255 255   255 255 255   255 255 255   255 255 255   255 255 255   255 255 255   255 255 255   255 255 255   255 255 255   255 255 255   255 255 255   255 255 255   255 255 255   255 255 255   255 255 255   255 255 255   255 255 255   255 255 255   255 255 255   255 255 255   255 255 255   255 255 255   255 255 255   255 255 255   255 255 255   255 255 255   255 255 255   255 255 255   255 255 255   255 255 255   255 255 255   255 255 255   255 255 255   255 255 255   255 255 255   255 255 255   255 255 255   255 255 255   255 255 255   255 255 255   255 255 255   255 255 255   255 255 255   255 255 255   255 255 255   255 255 255   255 255 255   255 255 255   255 255 255   255 255 255   255 255 255   255 255 255   255 255 255   255 255 255   255 255 255   255 255 255   255 255 255   255 255 255   255 255 255   255 255 255   255 255 255   255 255 255   255 255 255   255 255 255   255 255 255   255 255 255   255 255 255   255 255 255   255 255 255   255 255 255   255 255 255   255 255 255   255 255 255   255 255 255   255 255 255   255 255 255   255 255 255   255 255 255   255 255 255   255 255 255   255 255 255   255 255 255   255 255 255   255 255 255   255 255 255   255 255 255   255 255 255   255 255 255   255 255 255   255 255 255   255 255 255   255 255 255   255 255 255   255 255 255   255 255 255   255 255 255   255 255 255   255 255 255   255 255 255   255 255 255   255 255 255   255 255 255   255 255 255   255 255 255   255 255 255   255 255 255   255 255 255   255 255 255   255 255 255   255 255 255   255 255 255   255 255 255   255 255 255   255 255 255   255 255 255   255 255 255   255 255 255   255 255 255   255 255 255   255 255 255   255 255 255   255 255 255   255 255 255   255 255 255   255 255 255   255 255 255   255 255 255   255 255 255   255 255 255   255 255 255   255 255 255   255 255 255   255 255 255   255 255 255   255 255 255   255 255 255
255 255 255   255 255 255   255 255 255   255 255 255   255 255 255   255 255 255   255 255 255   255 255 255   255 255 255   255 255 255   255 255 255   255 255 255   255 255 255   255 255 255   255 255 255   255 255 255   255 255 255   255 255 255   255 255 255   255 255 255   255 255 255   255 255 255   255 255 255   255 255 255   255 255 255   255 255 255   255 255 255   255 255 255   255 255 255   255 255 255   255 255 255   255 255 255   255 255 255   255 255 255   255 255 255   255 255 255   255 255 255   255 255 255   255 255 255   255 255 255   255 255 255   255 255 255   255 255 255   255 255 255   255 255 255   255 255 255   255 255 255   255 255 255   255 255 255   255 255 255   255 255 255   255 255 255   255 255 255   255 255 255   255 255 255   255 255 255   255 255 255   255 255 255   255 255 255   255 255 255   255 255 255   255 255 255   255 255 255   255 255 255   255 255 255   255 255 255   255 255 255   255 255 255   255 255 255   255 255 255   255 255 255   255 255 255   255 255 255   255 255 255   255 255 255   255 255 255   255 255 255   255 255 255   255 255 255   255 255 255   255 255 255   255 255 255   255 255 255   255 255 255   255 255 255   255 255 255   255 255 255   255 255 255   255 255 255   255 255 255   255 255 255   255 255 255   255 255 255   255 255 255   255 255 255   255 255 255   255 255 255   255 255 255   255 255 255   255 255 255   255 255 255   255 255 255   255 255 255   255 255 255   255 255 255   255 255 255   255 255 255   255 255 255   255 255 255   255 255 255   255 255 255   255 255 255   255 255 255   255 255 255   255 255 255   255 255 255   255 255 255   255 255 255   255 255 255   255 255 255   255 255 255   255 255 255   255 255 255   255 255 255   255 255 255   255 255 255   255 255 255   255 255 255   255 255 255   255 255 255   255 255 255   255 255 255   255 255 255   255 255 255   255 255 255   255 255 255   255 255 255   255 255 255   255 255 255   255 255 255   255 255 255   255 255 255   255 255 255   255 255 255   255 255 255   255 255 255   255 255 255   255 255 255   255 255 255   255 255 255   255 255 255   255 255 255   255 255 255   255 255 255   255 255 255   255 255 255   255 255 255   255 255 255   255 255 255   255 255 255   255 255 255   255 255 255   255 255 255   255 255 255   255 255 255   255 255 255   255 255 255   255 255 255   255 255 255   255 255 255   255 255 255   255 255 255   255 255 255   255 255 255   255 255 255   255 255 255   255 255 255   255 255 255   255 255 255   255 255 255   255 255 255   255 255 255   255 255 255   255 255 255   255 255 255   255 255 255   255 255 255   255 255 255   255 255 255   255 255 255   255 255 255   255 255 255   255 255 255   255 255 255   255 255 255   255 255 255   255 255 255   255 255 255   255 255 255   255 255 255   255 255 255   255 255 255   255 255 255   255 255 255   255 255 255   255 255 255   255 255 255   255 255 255   255 255 255   255 255 255   255 255 255   255 255 255   255 255 255   255 255 255   255 255 255   255 255 255   255 255 255   255 255 255   255 255 255   255 255 255   255 255 255   255 255 255   255 255 255   255 255 255   255 255 255   255 255 255   255 255 255   255 255 255   255 255 255   255 255 255   255 255 255   255 255 255   255 255 255   255 255 255   255 255 255   255 255 255   255 255 255   255 255 255   255 255 255   255 255 255   255 255 255   255 255 255   255 255 255   255 255 255   255 255 255   255 255 255   255 255 255   255 255 255   255 255 255   255 255 255   255 255 255   255 255 255   255 255 255   255 255 255   255 255 255   255 255 255
255 255 255   255 255 255   255 255 255   255 255 255   255 255 255   255 255 255   255 255 255   255 255 255   255 255 255   255 255 255   255 255 255   255 255 255   255 255 255   255 255 255   255 255 255   255 255 255   255 255 255   255 255 255   255 255 255   255 255 255   255 255 255   255 255 255   255 255 255   255 255 255   255 255 255   255 255 255   255 255 255   255 255 255   255 255 255   255 255 255   255 255 255   255 255 255   255 255 255   255 255 255   255 255 255   255 255 255   255 255 255   255 255 255   255 255 255   255 255 255   255 255 255   255 255 255   255 255 255   255 255 255   255 255 255   255 255 255   255 255 255   255 255 255   255 255 255   255 255 255   255 255 255   255 255 255   255 255 255   255 255 255   255 255 255   255 255 255   255 255 255   255 255 255   255 255 255   255 255 255   255 255 255   255 255 255   255 255 255   255 255 255   255 255 255   255 255 255   255 255 255   255 255 255   255 255 255   255 255 255   255 255 255   255 255 255   255 255 255   255 255 255   255 255 255   255 255 255   255 255 255   255 255 255   255 255 255   255 255 255   255 255 255   255 255 255   255 255 255   255 255 255   255 255 255   255 255 255   255 255 255   255 255 255   255 255 255   255 255 255   255 255 255   255 255 255   255 255 255   255 255 255   255 255 255   255 255 255   255 255 255   255 255 255   255 255 255   255 255 255   255 255 255   255 255 255   255 255 255   255 255 255   255 255 255   255 255 255   255 255 255   255 255 255   255 255 255   255 255 255   255 255 255   255 255 255   255 255 255   255 255 255   255 255 255   255 255 255   255 255 255   255 255 255   255 255 255   255 255 255   255 255 255   255 255 255   255 255 255   255 255 255   255 255 255   255 255 255   255 255 255   255 255 255   255 255 255   255 255 255   255 255 255   255 255 255   255 255 255   255 255 255   255 255 255   255 255 255   255 255 255   255 255 255   255 255 255   255 255 255   255 255 255   255 255 255   255 255 255   255 255 255   255 255 255   255 255 255   255 255 255   255 255 255   255 255 255   255 255 255   255 255 255   255 255 255   255 255 255   255 255 255   255 255 255   255 255 255   255 255 255   255 255 255   255 255 255   255 255 255   255 255 255   255 255 255   255 255 255   255 255 255   255 255 255   255 255 255   255 255 255   255 255 255   255 255 255   255 255 255   255 255 255   255 255 255   255 255 255   255 255 255   255 255 255   255 255 255   255 255 255   255 255 255   255 255 255   255 255 255   255 255 255   255 255 255   255 255 255   255 255 255   255 255 255   255 255 255   255 255 255   255 255 255   255 255 255   255 255 255   255 255 255   255 255 255   255 255 255   255 255 255   255 255 255   255 255 255   255 255 255   255 255 255   255 255 255   255 255 255   255 255 255   255 255 255   255 255 255   255 255 255   255 255 255   255 255 255   255 255 255   255 255 255   255 255 255   255 255 255   255 255 255   255 255 255   255 255 255   255 255 255   255 255 255   255 255 255   255 255 255   255 255 255   255 255 255   255 255 255   255 255 255   255 255 255   255 255 255   255 255 255   255 255 255   255 255 255   255 255 255   255 255 255   255 255 255   255 255 255   255 255 255   255 255 255   255 255 255   255 255 255   255 255 255   255 255 255   255 255 255   255 255 255   255 255 255   255 255 255   255 255 255   255 255 255   255 255 255   255 255 255   255 255 255   255 255 255   255 255 255   255 255 255   255 255 255   255 255 255   255 255 255   255 255 255   255 255 255   255 255 255   255 255 255   255 255 255
255 255 255   255 255 255   255 255 255   255 255 255   255 255 255   255 255 255   255 255 255   255 255 255   255 255 255   255 255 255   255 255 255   255 255 255   255 255 255   255 255 255   255 255 255   255 255 255   255 255 255   255 255 255   255 255 255   255 255 255   255 255 255   255 255 255   255 255 255   255 255 255   255 255 255   255 255 255   255 255 255   255 255 255   255 255 255   255 255 255   255 255 255   255 255 255   255 255 255   255 255 255   255 255 255   255 255 255   255 255 255   255 255 255   255 255 255   255 255 255   255 255 255   255 255 255   255 255 255   255 255 255   255 255 255   255 255 255   255 255 255   255 255 255   255 255 255   255 255 255   255 255 255   255 255 255   255 255 255   255 255 255   255 255 255   255 255 255   255 255 255   255 255 255   255 255 255   255 255 255   255 255 255   255 255 255   255 255 255   255 255 255   255 255 255   255 255 255   255 255 255   255 255 255   255 255 255   255 255 255   255 255 255   255 255 255   255 255 255   255 255 255   255 255 255   255 255 255   255 255 255   255 255 255   255 255 255   255 255 255   255 255 255   255 255 255   255 255 255   255 255 255   255 255 255   255 255 255   255 255 255   255 255 255   255 255 255   255 255 255   255 255 255   255 255 255   255 255 255   255 255 255   255 255 255   255 255 255   255 255 255   255 255 255   255 255 255   255 255 255   255 255 255   255 255 255   255 255 255   255 255 255   255 255 255   255 255 255   255 255 255   255 255 255   255 255 255   255 255 255   255 255 255   255 255 255   255 255 255   255 255 255   255 255 255   255 255 255   255 255 255   255 255 255   255 255 255   255 255 255   255 255 255   255 255 255   255 255 255   255 255 255   255 255 255   255 255 255   255 255 255   255 255 255   255 255 255   255 255 255   255 255 255   255 255 255   255 255 255   255 255 255   255 255 255   255 255 255   255 255 255   255 255 255   255 255 255   255 255 255   255 255 255   255 255 255   255 255 255   255 255 255   255 255 255   255 255 255   255 255 255   255 255 255   255 255 255   255 255 255   255 255 255   255 255 255   255 255 255   255 255 255   255 255 255   255 255 255   255 255 255   255 255 255   255 255 255   255 255 255   255 255 255   255 255 255   255 255 255   255 255 255   255 255 255   255 255 255   255 255 255   255 255 255   255 255 255   255 255 255   255 255 255   255 255 255   255 255 255   255 255 255   255 255 255   255 255 255   255 255 255   255 255 255   255 255 255   255 255 255   255 255 255   255 255 255   255 255 255   255 255 255   255 255 255   255 255 255   255 255 255   255 255 255   255 255 255   255 255 255   255 255 255   255 255 255   255 255 255   255 255 255   255 255 255   255 255 255   255 255 255   255 255 255   255 255 255   255 255 255   255 255 255   255 255 255   255 255 255   255 255 255   255 255 255   255 255 255   255 255 255   255 255 255   255 255 255   255 255 255   255 255 255   255 255 255   255 255 255   255 255 255   255 255 255   255 255 255   255 255 255   255 255 255   255 255 255   255 255 255   255 255 255   255 255 255   255 255 255   255 255 255   255 255 255   255 255 255   255 255 255   255 255 255   255 255 255   255 255 255   255 255 255   255 255 255   255 255 255   255 255 255   255 255 255   255 255 255   255 255 255   255 255 255   255 255 255   255 255 255   255 255 255   255 255 255   255 255 255   255 255 255   255 255 255   255 255 255   255 255 255   255 255 255   255 255 255   255 255 255   255 255 255   255 255 255   255 255 255   255 255 255   255 255 255   255 255 255
255 255 255   255 255 255   255 255 255   255 255 255   255 255 255   255 255 255   255 255 255   255 255 255   255 255 255   255 255 255   255 255 255   255 255 255   255 255 255   255 255 255   255 255 255   255 255 255   255 255 255   255 255 255   255 255 255   255 255 255   255 255 255   255 255 255   255 255 255   255 255 255   255 255 255   255 255 255   255 255 255   255 255 255   255 255 255   255 255 255   255 255 255   255 255 255   255 255 255   255 255 255   255 255 255   255 255 255   255 255 255   255 255 255   255 255 255   255 255 255   255 255 255   255 255 255   255 255 255   255 255 255   255 255 255   255 255 255   255 255 255   255 255 255   255 255 255   255 255 255   255 255 255   255 255 255   255 255 255   255 255 255   255 255 255   255 255 255   255 255 255   255 255 255   255 255 255   255 255 255   255 255 255   255 255 255   255 255 255   255 255 255   255 255 255   255 255 255   255 255 255   255 255 255   255 255 255   255 255 255   255 255 255   255 255 255   255 255 255   255 255 255   255 255 255   255 255 255   255 255 255   255 255 255   255 255 255   255 255 255   255 255 255   255 255 255   255 255 255   255 255 255   255 255 255   255 255 255   255 255 255   255 255 255   255 255 255   255 255 255   255 255 255   255 255 255   255 255 255   255 255 255   255 255 255   255 255 255   255 255 255   255 255 255   255 255 255   255 255 255   255 255 255   255 255 255   255 255 255   255 255 255   255 255 255   255 255 255   255 255 255   255 255 255   255 255 255   255 255 255   255 255 255   255 255 255   255 255 255   255 255 255   255 255 255   255 255 255   255 255 255   255 255 255   255 255 255   255 255 255   255 255 255   255 255 255   255 255 255   255 255 255   255 255 255   255 255 255   255 255 255   255 255 255   255 255 255   255 255 255   255 255 255   255 255 255   255 255 255   255 255 255   255 255 255   255 255 255   255 255 255   255 255 255   255 255 255   255 255 255   255 255 255   255 255 255   255 255 255   255 255 255   255 255 255   255 255 255   255 255 255   255 255 255   255 255 255   255 255 255   255 255 255   255 255 255   255 255 255   255 255 255   255 255 255   255 255 255   255 255 255   255 255 255   255 255 255   255 255 255   255 255 255   255 255 255   255 255 255   255 255 255   255 255 255   255 255 255   255 255 255   255 255 255   255 255 255   255 255 255   255 255 255   255 255 255   255 255 255   255 255 255   255 255 255   255 255 255   255 255 255   255 255 255   255 255 255   255 255 255   255 255 255   255 255 255   255 255 255   255 255 255   255 255 255   255 255 255   255 255 255   255 255 255   255 255 255   255 255 255   255 255 255   255 255 255   255 255 255   255 255 255   255 255 255   255 255 255   255 255 255   255 255 255   255 255 255   255 255 255   255 255 255   255 255 255   255 255 255   255 255 255   255 255 255   255 255 255   255 255 255   255 255 255   255 255 255   255 255 255   255 255 255   255 255 255   255 255 255   255 255 255   255 255 255   255 255 255   255 255 255   255 255 255   255 255 255   255 255 255   255 255 255   255 255 255   255 255 255   255 255 255   255 255 255   255 255 255   255 255 255   255 255 255   255 255 255   255 255 255   255 255 255   255 255 255   255 255 255   255 255 255   255 255 255   255 255 255   255 255 255   255 255 255   255 255 255   255 255 255   255 255 255   255 255 255   255 255 255   255 255 255   255 255 255   255 255 255   255 255 255   255 255 255   255 255 255   255 255 255   255 255 255   255 255 255   255 255 255   255 255 255   255 255 255   255 255 255
255 255 255   255 255 255   255 255 255   255 255 255   255 255 255   255 255 255   255 255 255   255 255 255   255 255 255   255 255 255   255 255 255   255 255 255   255 255 255   255 255 255   255 255 255   255 255 255   255 255 255   255 255 255   255 255 255   255 255 255   255 255 255   255 255 255   255 255 255   255 255 255   255 255 255   255 255 255   255 255 255   255 255 255   255 255 255   255 255 255   255 255 255   255 255 255   255 255 255   255 255 255   255 255 255   255 255 255   255 255 255   255 255 255   255 255 255   255 255 255   255 255 255   255 255 255   255 255 255   255 255 255   255 255 255   255 255 255   255 255 255   255 255 255   255 255 255   255 255 255   255 255 255   255 255 255   255 255 255   255 255 255   255 255 255   255 255 255   255 255 255   255 255 255   255 255 255   255 255 255   255 255 255   255 255 255   255 255 255   255 255 255   255 255 255   255 255 255   255 255 255   255 255 255   255 255 255   255 255 255   255 255 255   255 255 255   255 255 255   255 255 255   255 255 255   255 255 255   255 255 255   255 255 255   255 255 255   255 255 255   255 255 255   255 255 255   255 255 255   255 255 255   255 255 255   255 255 255   255 255 255   255 255 255   255 255 255   255 255 255   255 255 255   255 255 255   255 255 255   255 255 255   255 255 255   255 255 255   255 255 255   255 255 255   255 255 255   255 255 255   255 255 255   255 255 255   255 255 255   255 255 255   255 255 255   255 255 255   255 255 255   255 255 255   255 255 255   255 255 255   255 255 255   255 255 255   255 255 255   255 255 255   255 255 255   255 255 255   255 255 255   255 255 255   255 255 255   255 255 255   255 255 255   255 255 255   255 255 255   255 255 255   255 255 255   255 255 255   255 255 255   255 255 255   255 255 255   255 255 255   255 255 255   255 255 255   255 255 255   255 255 255   255 255 255   255 255 255   255 255 255   255 255 255   255 255 255   255 255 255   255 255 255   255 255 255   255 255 255   255 255 255   255 255 255   255 255 255   255 255 255   255 255 255   255 255 255   255 255 255   255 255 255   255 255 255   255 255 255   255 255 255   255 255 255   255 255 255   255 255 255   255 255 255   255 255 255   255 255 255   255 255 255   255 255 255   255 255 255   255 255 255   255 255 255   255 255 255   255 255 255   255 255 255   255 255 255   255 255 255   255 255 255   255 255 255   255 255 255   255 255 255   255 255 255   255 255 255   255 255 255   255 255 255   255 255 255   255 255 255   255 255 255   255 255 255   255 255 255   255 255 255   255 255 255   255 255 255   255 255 255   255 255 255   255 255 255   255 255 255   255 255 255   255 255 255   255 255 255   255 255 255   255 255 255   255 255 255   255 255 255   255 255 255   255 255 255   255 255 255   255 255 255   255 255 255   255 255 255   255 255 255   255 255 255   255 255 255   255 255 255   255 255 255   255 255 255   255 255 255   255 255 255   255 255 255   255 255 255   255 255 255   255 255 255   255 255 255   255 255 255   255 255 255   255 255 255   255 255 255   255 255 255   255 255 255   255 255 255   255 255 255   255 255 255   255 255 255   255 255 255   255 255 255   255 255 255   255 255 255   255 255 255   255 255 255   255 255 255   255 255 255   255 255 255   255 255 255   255 255 255   255 255 255   255 255 255   255 255 255   255 255 255   255 255 255   255 255 255   255 255 255   255 255 255   255 255 255   255 255 255   255 255 255   255 255 255   255 255 255   255 255 255   255 255 255   255 255 255   255 255 255   255 255 255   255 255 255
255 255 255   255 255 255   255 255 255   255 255 255   255 255 255   255 255 255   255 255 255   255 255 255   255 255 255   255 255 255   255 255 255   255 255 255   255 255 255   255 255 255   255 255 255   255 255 255   255 255 255   255 255 255   255 255 255   255 255 255   255 255 255   255 255 255   255 255 255   255 255 255   255 255 255   255 255 255   255 255 255   255 255 255   255 255 255   255 255 255   255 255 255   255 255 255   255 255 255   255 255 255   255 255 255   255 255 255   255 255 255   255 255 255   255 255 255   255 255 255   255 255 255   255 255 255   255 255 255   255 255 255   255 255 255   255 255 255   255 255 255   255 255 255   255 255 255   255 255 255   255 255 255   255 255 255   255 255 255   255 255 255   255 255 255   255 255 255   255 255 255   255 255 255   255 255 255   255 255 255   255 255 255   255 255 255   255 255 255   255 255 255   255 255 255   255 255 255   255 255 255   255 255 255   255 255 255   255 255 255   255 255 255   255 255 255   255 255 255   255 255 255   255 255 255   255 255 255   255 255 255   255 255 255   255 255 255   255 255 255   255 255 255   255 255 255   255 255 255   255 255 255   255 255 255   255 255 255   255 255 255   255 255 255   255 255 255   255 255 255   255 255 255   255 255 255   255 255 255   255 255 255   255 255 255   255 255 255   255 255 255   255 255 255   255 255 255   255 255 255   255 255 255   255 255 255   255 255 255   255 255 255   255 255 255   255 255 255   255 255 255   255 255 255   255 255 255   255 255 255   255 255 255   255 255 255   255 255 255   255 255 255   255 255 255   255 255 255   255 255 255   255 255 255   255 255 255   255 255 255   255 255 255   255 255 255   255 255 255   255 255 255   255 255 255   255 255 255   255 255 255   255 255 255   255 255 255   255 255 255   255 255 255   255 255 255   255 255 255   255 255 255   255 255 255   255 255 255   255 255 255   255 255 255   255 255 255   255 255 255   255 255 255   255 255 255   255 255 255   255 255 255   255 255 255   255 255 255   255 255 255   255 255 255   255 255 255   255 255 255   255 255 255   255 255 255   255 255 255   255 255 255   255 255 255   255 255 255   255 255 255   255 255 255   255 255 255   255 255 255   255 255 255   255 255 255   255 255 255   255 255 255   255 255 255   255 255 255   255 255 255   255 255 255   255 255 255   255 255 255   255 255 255   255 255 255   255 255 255   255 255 255   255 255 255   255 255 255   255 255 255   255 255 255   255 255 255   255 255 255   255 255 255   255 255 255   255 255 255   255 255 255   255 255 255   255 255 255   255 255 255   255 255 255   255 255 255   255 255 255   255 255 255   255 255 255   255 255 255   255 255 255   255 255 255   255 255 255   255 255 255   255 255 255   255 255 255   255 255 255   255 255 255   255 255 255   255 255 255   255 255 255   255 255 255   255 255 255   255 255 255   255 255 255   255 255 255   255 255 255   255 255 255   255 255 255   255 255 255   255 255 255   255 255 255   255 255 255   255 255 255   255 255 255   255 255 255   255 255 255   255 255 255   255 255 255   255 255 255   255 255 255   255 255 255   255 255 255   255 255 255   255 255 255   255 255 255   255 255 255   255 255 255   255 255 255   255 255 255   255 255 255   255 255 255   255 255 255   255 255 255   255 255 255   255 255 255   255 255 255   255 255 255   255 255 255   255 255 255   255 255 255   255 255 255   255 255 255   255 255 255   255 255 255   255 255 255   255 255 255   255 255 255   255 255 255   255 255 255   255 255 255   255 255 255   255 255 255
255 255 255   255 255 255   255 255 255   255 255 255   255 255 255   255 255 255   255 255 255   255 255 255   255 255 255   255 255 255   255 255 255   255 255 255   255 255 255   255 255 255   255 255 255   255 255 255   255 255 255   255 255 255   255 255 255   255 255 255   255 255 255   255 255 255   255 255 255   255 255 255   255 255 255   255 255 255   255 255 255   255 255 255   255 255 255   255 255 255   255 255 255   255 255 255   255 255 255   255 255 255   255 255 255   255 255 255   255 255 255   255 255 255   255 255 255   255 255 255   255 255 255   255 255 255   255 255 255   255 255 255   255 255 255   255 255 255   255 255 255   255 255 255   255 255 255   255 255 255   255 255 255   255 255 255   255 255 255   255 255 255   255 255 255   255 255 255   255 255 255   255 255 255   255 255 255   255 255 255   255 255 255   255 255 255   255 255 255   255 255 255   255 255 255   255 255 255   255 255 255   255 255 255   255 255 255   255 255 255   255 255 255   255 255 255   255 255 255   255 255 255   255 255 255   255 255 255   255 255 255   255 255 255   255 255 255   255 255 255   255 255 255   255 255 255   255 255 255   255 255 255   255 255 255   255 255 255   255 255 255   255 255 255   255 255 255   255 255 255   255 255 255   255 255 255   255 255 255   255 255 255   255 255 255   255 255 255   255 255 255   255 255 255   255 255 255   255 255 255   255 255 255   255 255 255   255 255 255   255 255 255   255 255 255   255 255 255   255 255 255   255 255 255   255 255 255   255 255 255   255 255 255   255 255 255   255 255 255   255 255 255   255 255 255   255 255 255   255 255 255   255 255 255   255 255 255   255 255 255   255 255 255   255 255 255   255 255 255   255 255 255   255 255 255   255 255 255   255 255 255   255 255 255   255 255 255   255 255 255   255 255 255   255 255 255   255 255 255   255 255 255   255 255 255   255 255 255   255 255 255   255 255 255   255 255 255   255 255 255   255 255 255   255 255 255   255 255 255   255 255 255   255 255 255   255 255 255   255 255 255   255 255 255   255 255 255   255 255 255   255 255 255   255 255 255   255 255 255   255 255 255   255 255 255   255 255 255   255 255 255   255 255 255   255 255 255   255 255 255   255 255 255   255 255 255   255 255 255   255 255 255   255 255 255   255 255 255   255 255 255   255 255 255   255 255 255   255 255 255   255 255 255   255 255 255   255 255 255   255 255 255   255 255 255   255 255 255   255 255 255   255 255 255   255 255 255   255 255 255   255 255 255   255 255 255   255 255 255   255 255 255   255 255 255   255 255 255   255 255 255   255 255 255   255 255 255   255 255 255   255 255 255   255 255 255   255 255 255   255 255 255   255 255 255   255 255 255   255 255 255   255 255 255   255 255 255   255 255 255   255 255 255   255 255 255   255 255 255   255 255 255   255 255 255   255 255 255   255 255 255   255 255 255   255 255 255   255 255 255   255 255 255   255 255 255   255 255 255   255 255 255   255 255 255   255 255 255   255 255 255   255 255 255   255 255 255   255 255 255   255 255 255   255 255 255   255 255 255   255 255 255   255 255 255   255 255 255   255 255 255   255 255 255   255 255 255   255 255 255   255 255 255   255 255 255   255 255 255   255 255 255   255 255 255   255 255 255   255 255 255   255 255 255   255 255 255   255 255 255   255 255 255   255 255 255   255 255 255   255 255 255   255 255 255   255 255 255   255 255 255   255 255 255   255 255 255   255 255 255   255 255 255   255 255 255   255 255 255   255 255 255   255 255 255   255 255 255
255 255 255   255 255 255   255 255 255   255 255 255   255 255 255   255 255 255   255 255 255   255 255 255   255 255 255   255 255 255   255 255 255   255 255 255   255 255 255   255 255 255   255 255 255   255 255 255   255 255 255   255 255 255   255 255 255   255 255 255   255 255 255   255 255 255   255 255 255   255 255 255   255 255 255   255 255 255   255 255 255   255 255 255   255 255 255   255 255 255   255 255 255   255 255 255   255 255 255   255 255 255   255 255 255   255 255 255   255 255 255   255 255 255   255 255 255   255 255 255   255 255 255   255 255 255   255 255 255   255 255 255   255 255 255   255 255 255   255 255 255   255 255 255   255 255 255   255 255 255   255 255 255   255 255 255   255 255 255   255 255 255   255 255 255   255 255 255   255 255 255   255 255 255   255 255 255   255 255 255   255 255 255   255 255 255   255 255 255   255 255 255   255 255 255   255 255 255   255 255 255   255 255 255   255 255 255   255 255 255   255 255 255   255 255 255   255 255 255   255 255 255   255 255 255   255 255 255   255 255 255   255 255 255   255 255 255   255 255 255   255 255 255   255 255 255   255 255 255   255 255 255   255 255 255   255 255 255   255 255 255   255 255 255   255 255 255   255 255 255   255 255 255   255 255 255   255 255 255   255 255 255   255 255 255   255 255 255   255 255 255   255 255 255   255 255 255   255 255 255   255 255 255   255 255 255   255 255 255   255 255 255   255 255 255   255 255 255   255 255 255   255 255 255   255 255 255   255 255 255   255 255 255   255 255 255   255 255 255   255 255 255   255 255 255   255 255 255   255 255 255   255 255 255   255 255 255   255 255 255   255 255 255   255 255 255   255 255 255   255 255 255   255 255 255   255 255 255   255 255 255   255 255 255   255 255 255   255 255 255   255 255 255   255 255 255   255 255 255   255 255 255   255 255 255   255 255 255   255 255 255   255 255 255   255 255 255   255 255 255   255 255 255   255 255 255   255 255 255   255 255 255   255 255 255   255 255 255   255 255 255   255 255 255   255 255 255   255 255 255   255 255 255   255 255 255   255 255 255   255 255 255   255 255 255   255 255 255   255 255 255   255 255 255   255 255 255   255 255 255   255 255 255   255 255 255   255 255 255   255 255 255   255 255 255   255 255 255   255 255 255   255 255 255   255 255 255   255 255 255   255 255 255   255 255 255   255 255 255   255 255 255   255 255 255   255 255 255   255 255 255   255 255 255   255 255 255   255 255 255   255 255 255   255 255 255   255 255 255   255 255 255   255 255 255   255 255 255   255 255 255   255 255 255   255 255 255   255 255 255   255 255 255   255 255 255   255 255 255   255 255 255   255 255 255   255 255 255   255 255 255   255 255 255   255 255 255   255 255 255   255 255 255   255 255 255   255 255 255   255 255 255   255 255 255   255 255 255   255 255 255   255 255 255   255 255 255   255 255 255   255 255 255   255 255 255   255 255 255   255 255 255   255 255 255   255 255 255   255 255 255   255 255 255   255 255 255   255 255 255   255 255 255   255 255 255   255 255 255   255 255 255   255 255 255   255 255 255   255 255 255   255 255 255   255 255 255   255 255 255   255 255 255   255 255 255   255 255 255   255 255 255   255 255 255   255 255 255   255 255 255   255 255 255   255 255 255   255 255 255   255 255 255   255 255 255   255 255 255   255 255 255   255 255 255   255 255 255   255 255 255   255 255 255   255 255 255   255 255 255   255 255 255   255 255 255   255 255 255   255 255 255   255 255 255   255 255 255
255 255 255   255 255 255   255 255 255   255 255 255   255 255 255   255 255 255   255 255 255   255 255 255   255 255 255   255 255 255   255 255 255   255 255 255   255 255 255   255 255 255   255 255 255   255 255 255   255 255 255   255 255 255   255 255 255   255 255 255   255 255 255   255 255 255   255 255 255   255 255 255   255 255 255   255 255 255   255 255 255   255 255 255   255 255 255   255 255 255   255 255 255   255 255 255   255 255 255   255 255 255   255 255 255   255 255 255   255 255 255   255 255 255   255 255 255   255 255 255   255 255 255   255 255 255   255 255 255   255 255 255   255 255 255   255 255 255   255 255 255   255 255 255   255 255 255   255 255 255   255 255 255   255 255 255   255 255 255   255 255 255   255 255 255   255 255 255   255 255 255   255 255 255   255 255 255   255 255 255   255 255 255   255 255 255   255 255 255   255 255 255   255 255 255   255 255 255   255 255 255   255 255 255   255 255 255   255 255 255   255 255 255   255 255 255   255 255 255   255 255 255   255 255 255   255 255 255   255 255 255   255 255 255   255 255 255   255 255 255   255 255 255   255 255 255   255 255 255   255 255 255   255 255 255   255 255 255   255 255 255   255 255 255   255 255 255   255 255 255   255 255 255   255 255 255   255 255 255   255 255 255   255 255 255   255 255 255   255 255 255   255 255 255   255 255 255   255 255 255   255 255 255   255 255 255   255 255 255   255 255 255   255 255 255   255 255 255   255 255 255   255 255 255   255 255 255   255 255 255   255 255 255   255 255 255   255 255 255   255 255 255   255 255 255   255 255 255   255 255 255   255 255 255   255 255 255   255 255 255   255 255 255   255 255 255   255 255 255   255 255 255   255 255 255   255 255 255   255 255 255   255 255 255   255 255 255   255 255 255   255 255 255   255 255 255   255 255 255   255 255 255   255 255 255   255 255 255   255 255 255   255 255 255   255 255 255   255 255 255   255 255 255   255 255 255   255 255 255   255 255 255   255 255 255   255 255 255   255 255 255   255 255 255   255 255 255   255 255 255   255 255 255   255 255 255   255 255 255   255 255 255   255 255 255   255 255 255   255 255 255   255 255 255   255 255 255   255 255 255   255 255 255   255 255 255   255 255 255   255 255 255   255 255 255   255 255 255   255 255 255   255 255 255   255 255 255   255 255 255   255 255 255   255 255 255   255 255 255   255 255 255   255 255 255   255 255 255   255 255 255   255 255 255   255 255 255   255 255 255   255 255 255   255 255 255   255 255 255   255 255 255   255 255 255   255 255 255   255 255 255   255 255 255   255 255 255   255 255 255   255 255 255   255 255 255   255 255 255   255 255 255   255 255 255   255 255 255   255 255 255   255 255 255   255 255 255   255 255 255   255 255 255   255 255 255   255 255 255   255 255 255   255 255 255   255 255 255   255 255 255   255 255 255   255 255 255   255 255 255   255 255 255   255 255 255   255 255 255   255 255 255   255 255 255   255 255 255   255 255 255   255 255 255   255 255 255   255 255 255   255 255 255   255 255 255   255 255 255   255 255 255   255 255 255   255 255 255   255 255 255   255 255 255   255 255 255   255 255 255   255 255 255   255 255 255   255 255 255   255 255 255   255 255 255   255 255 255   255 255 255   255 255 255   255 255 255   255 255 255   255 255 255   255 255 255   255 255 255   255 255 255   255 255 255   255 255 255   255 255 255   255 255 255   255 255 255   255 255 255   255 255 255   255 255 255   255 255 255   255 255 255   255 255 255   255 255 255
255 255 255   255 255 255   255 255 255   255 255 255   255 255 255   255 255 255   255 255 255   255 255 255   255 255 255   255 255 255   255 255 255   255 255 255   255 255 255   255 255 255   255 255 255   255 255 255   255 255 255   255 255 255   255 255 255   255 255 255   255 255 255   255 255 255   255 255 255   255 255 255   255 255 255   255 255 255   255 255 255   255 255 255   255 255 255   255 255 255   255 255 255   255 255 255   255 255 255   255 255 255   255 255 255   255 255 255   255 255 255   255 255 255   255 255 255   255 255 255   255 255 255   255 255 255   255 255 255   255 255 255   255 255 255   255 255 255   255 255 255   255 255 255   255 255 255   255 255 255   255 255 255   255 255 255   255 255 255   255 255 255   255 255 255   255 255 255   255 255 255   255 255 255   255 255 255   255 255 255   255 255 255   255 255 255   255 255 255   255 255 255   255 255 255   255 255 255   255 255 255   255 255 255   255 255 255   255 255 255   255 255 255   255 255 255   255 255 255   255 255 255   255 255 255   255 255 255   255 255 255   255 255 255   255 255 255   255 255 255   255 255 255   255 255 255   255 255 255   255 255 255   255 255 255   255 255 255   255 255 255   255 255 255   255 255 255   255 255 255   255 255 255   255 255 255   255 255 255   255 255 255   255 255 255   255 255 255   255 255 255   255 255 255   255 255 255   255 255 255   255 255 255   255 255 255   255 255 255   255 255 255   255 255 255   255 255 255   255 255 255   255 255 255   255 255 255   255 255 255   255 255 255   255 255 255   255 255 255   255 255 255   255 255 255   255 255 255   255 255 255   255 255 255   255 255 255   255 255 255   255 255 255   255 255 255   255 255 255   255 255 255   255 255 255   255 255 255   255 255 255   255 255 255   255 255 255   255 255 255   255 255 255   255 255 255   255 255 255   255 255 255   255 255 255   255 255 255   255 255 255   255 255 255   255 255 255   255 255 255   255 255 255   255 255 255   255 255 255   255 255 255   255 255 255   255 255 255   255 255 255   255 255 255   255 255 255   255 255 255   255 255 255   255 255 255   255 255 255   255 255 255   255 255 255   255 255 255   255 255 255   255 255 255   255 255 255   255 255 255   255 255 255   255 255 255   255 255 255   255 255 255   255 255 255   255 255 255   255 255 255   255 255 255   255 255 255   255 255 255   255 255 255   255 255 255   255 255 255   255 255 255   255 255 255   255 255 255   255 255 255   255 255 255   255 255 255   255 255 255   255 255 255   255 255 255   255 255 255   255 255 255   255 255 255   255 255 255   255 255 255   255 255 255   255 255 255   255 255 255   255 255 255   255 255 255   255 255 255   255 255 255   255 255 255   255 255 255   255 255 255   255 255 255   255 255 255   255 255 255   255 255 255   255 255 255   255 255 255   255 255 255   255 255 255   255 255 255   255 255 255   255 255 255   255 255 255   255 255 255   255 255 255   255 255 255   255 255 255   255 255 255   255 255 255   255 255 255   255 255 255   255 255 255   255 255 255   255 255 255   255 255 255   255 255 255   255 255 255   255 255 255   255 255 255   255 255 255   255 255 255   255 255 255   255 255 255   255 255 255   255 255 255   255 255 255   255 255 255   255 255 255   255 255 255   255 255 255   255 255 255   255 255 255   255 255 255   255 255 255   255 255 255   255 255 255   255 255 255   255 255 255   255 255 255   255 255 255   255 255 255   255 255 255   255 255 255   255 255 255   255 255 255   255 255 255   255 255 255   255 255 255   255 255 255   255 255 255
255 255 255   255 255 255   255 255 255   255 255 255   255 255 255   255 255 255   255 255 255   255 255 255   255 255 255   255 255 255   255 255 255   255 255 255   255 255 255   255 255 255   255 255 255   255 255 255   255 255 255   255 255 255   255 255 255   255 255 255   255 255 255   255 255 255   255 255 255   255 255 255   255 255 255   255 255 255   255 255 255   255 255 255   255 255 255   255 255 255   255 255 255   255 255 255   255 255 255   255 255 255   255 255 255   255 255 255   255 255 255   255 255 255   255 255 255   255 255 255   255 255 255   255 255 255   255 255 255   255 255 255   255 255 255   255 255 255   255 255 255   255 255 255   255 255 255   255 255 255   255 255 255   255 255 255   255 255 255   255 255 255   255 255 255   255 255 255   255 255 255   255 255 255   255 255 255   255 255 255   255 255 255   255 255 255   255 255 255   255 255 255   255 255 255   255 255 255   255 255 255   255 255 255   255 255 255   255 255 255   255 255 255   255 255 255   255 255 255   255 255 255   255 255 255   255 255 255   255 255 255   255 255 255   255 255 255   255 255 255   255 255 255   255 255 255   255 255 255   255 255 255   255 255 255   255 255 255   255 255 255   255 255 255   255 255 255   255 255 255   255 255 255   255 255 255   255 255 255   255 255 255   255 255 255   255 255 255   255 255 255   255 255 255   255 255 255   255 255 255   255 255 255   255 255 255   255 255 255   255 255 255   255 255 255   255 255 255   255 255 255   255 255 255   255 255 255   255 255 255   255 255 255   255 255 255   255 255 255   255 255 255   255 255 255   255 255 255   255 255 255   255 255 255   255 255 255   255 255 255   255 255 255   255 255 255   255 255 255   255 255 255   255 255 255   255 255 255   255 255 255   255 255 255   255 255 255   255 255 255   255 255 255   255 255 255   255 255 255   255 255 255   255 255 255   255 255 255   255 255 255   255 255 255   255 255 255   255 255 255   255 255 255   255 255 255   255 255 255   255 255 255   255 255 255   255 255 255   255 255 255   255 255 255   255 255 255   255 255 255   255 255 255   255 255 255   255 255 255   255 255 255   255 255 255   255 255 255   255 255 255   255 255 255   255 255 255   255 255 255   255 255 255   255 255 255   255 255 255   255 255 255   255 255 255   255 255 255   255 255 255   255 255 255   255 255 255   255 255 255   255 255 255   255 255 255   255 255 255   255 255 255   255 255 255   255 255 255   255 255 255   255 255 255   255 255 255   255 255 255   255 255 255   255 255 255   255 255 255   255 255 255   255 255 255   255 255 255   255 255 255   255 255 255   255 255 255   255 255 255   255 255 255   255 255 255   255 255 255   255 255 255   255 255 255   255 255 255   255 255 255   255 255 255   255 255 255   255 255 255   255 255 255   255 255 255   255 255 255   255 255 255   255 255 255   255 255 255   255 255 255   255 255 255   255 255 255   255 255 255   255 255 255   255 255 255   255 255 255   255 255 255   255 255 255   255 255 255   255 255 255   255 255 255   255 255 255   255 255 255   255 255 255   255 255 255   255 255 255   255 255 255   255 255 255   255 255 255   255 255 255   255 255 255   255 255 255   255 255 255   255 255 255   255 255 255   255 255 255   255 255 255   255 255 255   255 255 255   255 255 255   255 255 255   255 255 255   255 255 255   255 255 255   255 255 255   255 255 255   255 255 255   255 255 255   255 255 255   255 255 255   255 255 255   255 255 255   255 255 255   255 255 255   255 255 255   255 255 255   255 255 255   255 255 255   255 255 255
255 255 255   255 255 255   255 255 255   255 255 255   255 255 255   255 255 255   255 255 255   255 255 255   255 255 255   255 255 255   255 255 255   255 255 255   255 255 255   255 255 255   255 255 255   255 255 255   255 255 255   255 255 255   255 255 255   255 255 255   255 255 255   255 255 255   255 255 255   255 255 255   255 255 255   255 255 255   255 255 255   255 255 255   255 255 255   255 255 255   255 255 255   255 255 255   255 255 255   255 255 255   255 255 255   255 255 255   255 255 255   255 255 255   255 255 255   255 255 255   255 255 255   255 255 255   255 255 255   255 255 255   255 255 255   255 255 255   255 255 255   255 255 255   255 255 255   255 255 255   255 255 255   255 255 255   255 255 255   255 255 255   255 255 255   255 255 255   255 255 255   255 255 255   255 255 255   255 255 255   255 255 255   255 255 255   255 255 255   255 255 255   255 255 255   255 255 255   255 255 255   255 255 255   255 255 255   255 255 255   255 255 255   255 255 255   255 255 255   255 255 255   255 255 255   255 255 255   255 255 255   255 255 255   255 255 255   255 255 255   255 255 255   255 255 255   255 255 255   255 255 255   255 255 255   255 255 255   255 255 255   255 255 255   255 255 255   255 255 255   255 255 255   255 255 255   255 255 255   255 255 255   255 255 255   255 255 255   255 255 255   255 255 255   255 255 255   255 255 255   255 255 255   255 255 255   255 255 255   255 255 255   255 255 255   255 255 255   255 255 255   255 255 255   255 255 255   255 255 255   255 255 255   255 255 255   255 255 255   255 255 255   255 255 255   255 255 255   255 255 255   255 255 255   255 255 255   255 255 255   255 255 255   255 255 255   255 255 255   255 255 255   255 255 255   255 255 255   255 255 255   255 255 255   255 255 255   255 255 255   255 255 255   255 255 255   255 255 255   255 255 255   255 255 255   255 255 255   255 255 255   255 255 255   255 255 255   255 255 255   255 255 255   255 255 255   255 255 255   255 255 255   255 255 255   255 255 255   255 255 255   255 255 255   255 255 255   255 255 255   255 255 255   255 255 255   255 255 255   255 255 255   255 255 255   255 255 255   255 255 255   255 255 255   255 255 255   255 255 255   255 255 255   255 255 255   255 255 255   255 255 255   255 255 255   255 255 255   255 255 255   255 255 255   255 255 255   255 255 255   255 255 255   255 255 255   255 255 255   255 255 255   255 255 255   255 255 255   255 255 255   255 255 255   255 255 255   255 255 255   255 255 255   255 255 255   255 255 255   255 255 255   255 255 255   255 255 255   255 255 255   255 255 255   255 255 255   255 255 255   255 255 255   255 255 255   255 255 255   255 255 255   255 255 255   255 255 255   255 255 255   255 255 255   255 255 255   255 255 255   255 255 255   255 255 255   255 255 255   255 255 255   255 255 255   255 255 255   255 255 255   255 255 255   255 255 255   255 255 255   255 255 255   255 255 255   255 255 255   255 255 255   255 255 255   255 255 255   255 255 255   255 255 255   255 255 255   255 255 255   255 255 255   255 255 255   255 255 255   255 255 255   255 255 255   255 255 255   255 255 255   255 255 255   255 255 255   255 255 255   255 255 255   255 255 255   255 255 255   255 255 255   255 255 255   255 255 255   255 255 255   255 255 255   255 255 255   255 255 255   255 255 255   255 255 255   255 255 255   255 255 255   255 255 255   255 255 255   255 255 255   255 255 255   255 255 255   255 255 255   255 255 255   255 255 255   255 255 255   255 255 255   255 255 255   255 255 255
255 255 255   255 255 255   255 255 255   255 255 255   255 255 255   255 255 255   255 255 255   255 255 255   255 255 255   255 255 255   255 255 255   255 255 255   255 255 255   255 255 255   255 255 255   255 255 255   255 255 255   255 255 255   255 255 255   255 255 255   255 255 255   255 255 255   255 255 255   255 255 255   255 255 255   255 255 255   255 255 255   255 255 255   255 255 255   255 255 255   255 255 255   255 255 255   255 255 255   255 255 255   255 255 255   255 255 255   255 255 255   255 255 255   255 255 255   255 255 255   255 255 255   255 255 255   255 255 255   255 255 255   255 255 255   255 255 255   255 255 255   255 255 255   255 255 255   255 255 255   255 255 255   255 255 255   255 255 255   255 255 255   255 255 255   255 255 255   255 255 255   255 255 255   255 255 255   255 255 255   255 255 255   255 255 255   255 255 255   255 255 255   255 255 255   255 255 255   255 255 255   255 255 255   255 255 255   255 255 255   255 255 255   255 255 255   255 255 255   255 255 255   255 255 255   255 255 255   255 255 255   255 255 255   255 255 255   255 255 255   255 255 255   255 255 255   255 255 255   255 255 255   255 255 255   255 255 255   255 255 255   255 255 255   255 255 255   255 255 255   255 255 255   255 255 255   255 255 255   255 255 255   255 255 255   255 255 255   255 255 255   255 255 255   255 255 255   255 255 255   255 255 255   255 255 255   255 255 255   255 255 255   255 255 255   255 255 255   255 255 255   255 255 255   255 255 255   255 255 255   255 255 255   255 255 255   255 255 255   255 255 255   255 255 255   255 255 255   255 255 255   255 255 255   255 255 255   255 255 255   255 255 255   255 255 255   255 255 255   255 255 255   255 255 255   255 255 255   255 255 255   255 255 255   255 255 255   255 255 255   255 255 255   255 255 255   255 255 255   255 255 255   255 255 255   255 255 255   255 255 255   255 255 255   255 255 255   255 255 255   255 255 255   255 255 255   255 255 255   255 255 255   255 255 255   255 255 255   255 255 255   255 255 255   255 255 255   255 255 255   255 255 255   255 255 255   255 255 255   255 255 255   255 255 255   255 255 255   255 255 255   255 255 255   255 255 255   255 255 255   255 255 255   255 255 255   255 255 255   255 255 255   255 255 255   255 255 255   255 255 255   255 255 255   255 255 255   255 255 255   255 255 255   255 255 255   255 255 255   255 255 255   255 255 255   255 255 255   255 255 255   255 255 255   255 255 255   255 255 255   255 255 255   255 255 255   255 255 255   255 255 255   255 255 255   255 255 255   255 255 255   255 255 255   255 255 255   255 255 255   255 255 255   255 255 255   255 255 255   255 255 255   255 255 255   255 255 255   255 255 255   255 255 255   255 255 255   255 255 255   255 255 255   255 255 255   255 255 255   255 255 255   255 255 255   255 255 255   255 255 255   255 255 255   255 255 255   255 255 255   255 255 255   255 255 255   255 255 255   255 255 255   255 255 255   255 255 255   255 255 255   255 255 255   255 255 255   255 255 255   255 255 255   255 255 255   255 255 255   255 255 255   255 255 255   255 255 255   255 255 255   255 255 255   255 255 255   255 255 255   255 255 255   255 255 255   255 255 255   255 255 255   255 255 255   255 255 255   255 255 255   255 255 255   255 255 255   255 255 255   255 255 255   255 255 255   255 255 255   255 255 255   255 255 255   255 255 255   255 255 255   255 255 255   255 255 255   255 255 255   255 255 255   255 255 255   255 255 255   255 255 255   255 255 255   255 255 255
255 255 255   255 255 255   255 255 255   255 255 255   255 255 255   255 255 255   255 255 255   255 255 255   255 255 255   255 255 255   255 255 255   255 255 255   255 255 255   255 255 255   255 255 255   255 255 255   255 255 255   255 255 255   255 255 255   255 255 255   255 255 255   255 255 255   255 255 255   255 255 255   255 255 255   255 255 255   255 255 255   255 255 255   255 255 255   255 255 255   255 255 255   255 255 255   255 255 255   255 255 255   255 255 255   255 255 255   255 255 255   255 255 255   255 255 255   255 255 255   255 255 255   255 255 255   255 255 255   255 255 255   255 255 255   255 255 255   255 255 255   255 255 255   255 255 255   255 255 255   255 255 255   255 255 255   255 255 255   255 255 255   255 255 255   255 255 255   255 255 255   255 255 255   255 255 255   255 255 255   255 255 255   255 255 255   255 255 255   255 255 255   255 255 255   255 255 255   255 255 255   255 255 255   255 255 255   255 255 255   255 255 255   255 255 255   255 255 255   255 255 255   255 255 255   255 255 255   255 255 255   255 255 255   255 255 255   255 255 255   255 255 255   255 255 255   255 255 255   255 255 255   255 255 255   255 255 255   255 255 255   255 255 255   255 255 255   255 255 255   255 255 255   255 255 255   255 255 255   255 255 255   255 255 255   255 255 255   255 255 255   255 255 255   255 255 255   255 255 255   255 255 255   255 255 255   255 255 255   255 255 255   255 255 255   255 255 255   255 255 255   255 255 255   255 255 255   255 255 255   255 255 255   255 255 255   255 255 255   255 255 255   255 255 255   255 255 255   255 255 255   255 255 255   255 255 255   255 255 255   255 255 255   255 255 255   255 255 255   255 255 255   255 255 255   255 255 255   255 255 255   255 255 255   255 255 255   255 255 255   255 255 255   255 255 255   255 255 255   255 255 255   255 255 255   255 255 255   255 255 255   255 255 255   255 255 255   255 255 255   255 255 255   255 255 255   255 255 255   255 255 255   255 255 255   255 255 255   255 255 255   255 255 255   255 255 255   255 255 255   255 255 255   255 255 255   255 255 255   255 255 255   255 255 255   255 255 255   255 255 255   255 255 255   255 255 255   255 255 255   255 255 255   255 255 255   255 255 255   255 255 255   255 255 255   255 255 255   255 255 255   255 255 255   255 255 255   255 255 255   255 255 255   255 255 255   255 255 255   255 255 255   255 255 255   255 255 255   255 255 255   255 255 255   255 255 255   255 255 255   255 255 255   255 255 255   255 255 255   255 255 255   255 255 255   255 255 255   255 255 255   255 255 255   255 255 255   255 255 255   255 255 255   255 255 255   255 255 255   255 255 255   255 255 255   255 255 255   255 255 255   255 255 255   255 255 255   255 255 255   255 255 255   255 255 255   255 255 255   255 255 255   255 255 255   255 255 255   255 255 255   255 255 255   255 255 255   255 255 255   255 255 255   255 255 255   255 255 255   255 255 255   255 255 255   255 255 255   255 255 255   255 255 255   255 255 255   255 255 255   255 255 255   255 255 255   255 255 255   255 255 255   255 255 255   255 255 255   255 255 255   255 255 255   255 255 255   255 255 255   255 255 255   255 255 255   255 255 255   255 255 255   255 255 255   255 255 255   255 255 255   255 255 255   255 255 255   255 255 255   255 255 255   255 255 255   255 255 255   255 255 255   255 255 255   255 255 255   255 255 255   255 255 255   255 255 255   255 255 255   255 255 255   255 255 255   255 255 255   255 255 255   255 255 255   255 255 255
255 255 255   255 255 255   255 255 255   255 255 255   255 255 255   255 255 255   255 255 255   255 255 255   255 255 255   255 255 255   255 255 255   255 255 255   255 255 255   255 255 255   255 255 255   255 255 255   255 255 255   255 255 255   255 255 255   255 255 255   255 255 255   255 255 255   255 255 255   255 255 255   255 255 255   255 255 255   255 255 255   255 255 255   255 255 255   255 255 255   255 255 255   255 255 255   255 255 255   255 255 255   255 255 255   255 255 255   255 255 255   255 255 255   255 255 255   255 255 255   255 255 255   255 255 255   255 255 255   255 255 255   255 255 255   255 255 255   255 255 255   255 255 255   255 255 255   255 255 255   255 255 255   255 255 255   255 255 255   255 255 255   255 255 255   255 255 255   255 255 255   255 255 255   255 255 255   255 255 255   255 255 255   255 255 255   255 255 255   255 255 255   255 255 255   255 255 255   255 255 255   255 255 255   255 255 255   255 255 255   255 255 255   255 255 255   255 255 255   255 255 255   255 255 255   255 255 255   255 255 255   255 255 255   255 255 255   255 255 255   255 255 255   255 255 255   255 255 255   255 255 255   255 255 255   255 255 255   255 255 255   255 255 255   255 255 255   255 255 255   255 255 255   255 255 255   255 255 255   255 255 255   255 255 255   255 255 255   255 255 255   255 255 255   255 255 255   255 255 255   255 255 255   255 255 255   255 255 255   255 255 255   255 255 255   255 255 255   255 255 255   255 255 255   255 255 255   255 255 255   255 255 255   255 255 255   255 255 255   255 255 255   255 255 255   255 255 255   255 255 255   255 255 255   255 255 255   255 255 255   255 255 255   255 255 255   255 255 255   255 255 255   255 255 255   255 255 255   255 255 255   255 255 255   255 255 255   255 255 255   255 255 255   255 255 255   255 255 255   255 255 255   255 255 255   255 255 255   255 255 255   255 255 255   255 255 255   255 255 255   255 255 255   255 255 255   255 255 255   255 255 255   255 255 255   255 255 255   255 255 255   255 255 255   255 255 255   255 255 255   255 255 255   255 255 255   255 255 255   255 255 255   255 255 255   255 255 255   255 255 255   255 255 255   255 255 255   255 255 255   255 255 255   255 255 255   255 255 255   255 255 255   255 255 255   255 255 255   255 255 255   255 255 255   255 255 255   255 255 255   255 255 255   255 255 255   255 255 255   255 255 255   255 255 255   255 255 255   255 255 255   255 255 255   255 255 255   255 255 255   255 255 255   255 255 255   255 255 255   255 255 255   255 255 255   255 255 255   255 255 255   255 255 255   255 255 255   255 255 255   255 255 255   255 255 255   255 255 255   255 255 255   255 255 255   255 255 255   255 255 255   255 255 255   255 255 255   255 255 255   255 255 255   255 255 255   255 255 255   255 255 255   255 255 255   255 255 255   255 255 255   255 255 255   255 255 255   255 255 255   255 255 255   255 255 255   255 255 255   255 255 255   255 255 255   255 255 255   255 255 255   255 255 255   255 255 255   255 255 255   255 255 255   255 255 255   255 255 255   255 255 255   255 255 255   255 255 255   255 255 255   255 255 255   255 255 255   255 255 255   255 255 255   255 255 255   255 255 255   255 255 255   255 255 255   255 255 255   255 255 255   255 255 255   255 255 255   255 255 255   255 255 255   255 255 255   255 255 255   255 255 255   255 255 255   255 255 255   255 255 255   255 255 255   255 255 255   255 255 255   255 255 255   255 255 255   255 255 255   255 255 255   255 255 255   255 255 255
255 255 255   255 255 255   255 255 255   255 255 255   255 255 255   255 255 255   255 255 255   255 255 255   255 255 255   255 255 255   255 255 255   255 255 255   255 255 255   255 255 255   255 255 255   255 255 255   255 255 255   255 255 255   255 255 255   255 255 255   255 255 255   255 255 255   255 255 255   255 255 255   255 255 255   255 255 255   255 255 255   255 255 255   255 255 255   255 255 255   255 255 255   255 255 255   255 255 255   255 255 255   255 255 255   255 255 255   255 255 255   255 255 255   255 255 255   255 255 255   255 255 255   255 255 255   255 255 255   255 255 255   255 255 255   255 255 255   255 255 255   255 255 255   255 255 255   255 255 255   255 255 255   255 255 255   255 255 255   255 255 255   255 255 255   255 255 255   255 255 255   255 255 255   255 255 255   255 255 255   255 255 255   255 255 255   255 255 255   255 255 255   255 255 255   255 255 255   255 255 255   255 255 255   255 255 255   255 255 255   255 255 255   255 255 255   255 255 255   255 255 255   255 255 255   255 255 255   255 255 255   255 255 255   255 255 255   255 255 255   255 255 255   255 255 255   255 255 255   255 255 255   255 255 255   255 255 255   255 255 255   255 255 255   255 255 255   255 255 255   255 255 255   255 255 255   255 255 255   255 255 255   255 255 255   255 255 255   255 255 255   255 255 255   255 255 255   255 255 255   255 255 255   255 255 255   255 255 255   255 255 255   255 255 255   255 255 255   255 255 255   255 255 255   255 255 255   255 255 255   255 255 255   255 255 255   255 255 255   255 255 255   255 255 255   255 255 255   255 255 255   255 255 255   255 255 255   255 255 255   255 255 255   255 255 255   255 255 255   255 255 255   255 255 255   255 255 255   255 255 255   255 255 255   255 255 255   255 255 255   255 255 255   255 255 255   255 255 255   255 255 255   255 255 255   255 255 255   255 255 255   255 255 255   255 255 255   255 255 255   255 255 255   255 255 255   255 255 255   255 255 255   255 255 255   255 255 255   255 255 255   255 255 255   255 255 255   255 255 255   255 255 255   255 255 255   255 255 255   255 255 255   255 255 255   255 255 255   255 255 255   255 255 255   255 255 255   255 255 255   255 255 255   255 255 255   255 255 255   255 255 255   255 255 255   255 255 255   255 255 255   255 255 255   255 255 255   255 255 255   255 255 255   255 255 255   255 255 255   255 255 255   255 255 255   255 255 255   255 255 255   255 255 255   255 255 255   255 255 255   255 255 255   255 255 255   255 255 255   255 255 255   255 255 255   255 255 255   255 255 255   255 255 255   255 255 255   255 255 255   255 255 255   255 255 255   255 255 255   255 255 255   255 255 255   255 255 255   255 255 255   255 255 255   255 255 255   255 255 255   255 255 255   255 255 255   255 255 255   255 255 255   255 255 255   255 255 255   255 255 255   255 255 255   255 255 255   255 255 255   255 255 255   255 255 255   255 255 255   255 255 255   255 255 255   255 255 255   255 255 255   255 255 255   255 255 255   255 255 255   255 255 255   255 255 255   255 255 255   255 255 255   255 255 255   255 255 255   255 255 255   255 255 255   255 255 255   255 255 255   255 255 255   255 255 255   255 255 255   255 255 255   255 255 255   255 255 255   255 255 255   255 255 255   255 255 255   255 255 255   255 255 255   255 255 255   255 255 255   255 255 255   255 255 255   255 255 255   255 255 255   255 255 255   255 255 255   255 255 255   255 255 255   255 255 255   255 255 255   255 255 255   255 255 255   255 255 255
255 255 255   255 255 255   255 255 255   255 255 255   255 255 255   255 255 255   255 255 255   255 255 255   255 255 255   255 255 255   255 255 255   255 255 255   255 255 255   255 255 255   255 255 255   255 255 255   255 255 255   255 255 255   255 255 255   255 255 255   255 255 255   255 255 255   255 255 255   255 255 255   255 255 255   255 255 255   255 255 255   255 255 255   255 255 255   255 255 255   255 255 255   255 255 255   255 255 255   255 255 255   255 255 255   255 255 255   255 255 255   255 255 255   255 255 255   255 255 255   255 255 255   255 255 255   255 255 255   255 255 255   255 255 255   255 255 255   255 255 255   255 255 255   255 255 255   255 255 255   255 255 255   255 255 255   255 255 255   255 255 255   255 255 255   255 255 255   255 255 255   255 255 255   255 255 255   255 255 255   255 255 255   255 255 255   255 255 255   255 255 255   255 255 255   255 255 255   255 255 255   255 255 255   255 255 255   255 255 255   255 255 255   255 255 255   255 255 255   255 255 255   255 255 255   255 255 255   255 255 255   255 255 255   255 255 255   255 255 255   255 255 255   255 255 255   255 255 255   255 255 255   255 255 255   255 255 255   255 255 255   255 255 255   255 255 255   255 255 255   255 255 255   255 255 255   255 255 255   255 255 255   255 255 255   255 255 255   255 255 255   255 255 255   255 255 255   255 255 255   255 255 255   255 255 255   255 255 255   255 255 255   255 255 255   255 255 255   255 255 255   255 255 255   255 255 255   255 255 255   255 255 255   255 255 255   255 255 255   255 255 255   255 255 255   255 255 255   255 255 255   255 255 255   255 255 255   255 255 255   255 255 255   255 255 255   255 255 255   255 255 255   255 255 255   255 255 255   255 255 255   255 255 255   255 255 255   255 255 255   255 255 255   255 255 255   255 255 255   255 255 255   255 255 255   255 255 255   255 255 255   255 255 255   255 255 255   255 255 255   255 255 255   255 255 255   255 255 255   255 255 255   255 255 255   255 255 255   255 255 255   255 255 255   255 255 255   255 255 255   255 255 255   255 255 255   255 255 255   255 255 255   255 255 255   255 255 255   255 255 255   255 255 255   255 255 255   255 255 255   255 255 255   255 255 255   255 255 255   255 255 255   255 255 255   255 255 255   255 255 255   255 255 255   255 255 255   255 255 255   255 255 255   255 255 255   255 255 255   255 255 255   255 255 255   255 255 255   255 255 255   255 255 255   255 255 255   255 255 255   255 255 255   255 255 255   255 255 255   255 255 255   255 255 255   255 255 255   255 255 255   255 255 255   255 255 255   255 255 255   255 255 255   255 255 255   255 255 255   255 255 255   255 255 255   255 255 255   255 255 255   255 255 255   255 255 255   255 255 255   255 255 255   255 255 255   255 255 255   255 255 255   255 255 255   255 255 255   255 255 255   255 255 255   255 255 255   255 255 255   255 255 255   255 255 255   255 255 255   255 255 255   255 255 255   255 255 255   255 255 255   255 255 255   255 255 255   255 255 255   255 255 255   255 255 255   255 255 255   255 255 255   255 255 255   255 255 255   255 255 255   255 255 255   255 255 255   255 255 255   255 255 255   255 255 255   255 255 255   255 255 255   255 255 255   255 255 255   255 255 255   255 255 255   255 255 255   255 255 255   255 255 255   255 255 255   255 255 255   255 255 255   255 255 255   255 255 255   255 255 255   255 255 255   255 255 255   255 255 255   255 255 255   255 255 255   255 255 255   255 255 255   255 255 255   255 255 255
255 255 255   255 255 255   255 255 255   255 255 255   255 255 255   255 255 255   255 255 255   255 255 255   255 255 255   255 255 255   255 255 255   255 255 255   255 255 255   255 255 255   255 255 255   255 255 255   255 255 255   255 255 255   255 255 255   255 255 255   255 255 255   255 255 255   255 255 255   255 255 255   255 255 255   255 255 255   255 255 255   255 255 255   255 255 255   255 255 255   255 255 255   255 255 255   255 255 255   255 255 255   255 255 255   255 255 255   255 255 255   255 255 255   255 255 255   255 255 255   255 255 255   255 255 255   255 255 255   255 255 255   255 255 255   255 255 255   255 255 255   255 255 255   255 255 255   255 255 255   255 255 255   255 255 255   255 255 255   255 255 255   255 255 255   255 255 255   255 255 255   255 255 255   255 255 255   255 255 255   255 255 255   255 255 255   255 255 255   255 255 255   255 255 255   255 255 255   255 255 255   255 255 255   255 255 255   255 255 255   255 255 255   255 255 255   255 255 255   255 255 255   255 255 255   255 255 255   255 255 255   255 255 255   255 255 255   255 255 255   255 255 255   255 255 255   255 255 255   255 255 255   255 255 255   255 255 255   255 255 255   255 255 255   255 255 255   255 255 255   255 255 255   255 255 255   255 255 255   255 255 255   255 255 255   255 255 255   255 255 255   255 255 255   255 255 255   255 255 255   255 255 255   255 255 255   255 255 255   255 255 255   255 255 255   255 255 255   255 255 255   255 255 255   255 255 255   255 255 255   255 255 255   255 255 255   255 255 255   255 255 255   255 255 255   255 255 255   255 255 255   255 255 255   255 255 255   255 255 255   255 255 255   255 255 255   255 255 255   255 255 255   255 255 255   255 255 255   255 255 255   255 255 255   255 255 255   255 255 255   255 255 255   255 255 255   255 255 255   255 255 255   255 255 255   255 255 255   255 255 255   255 255 255   255 255 255   255 255 255   255 255 255   255 255 255   255 255 255   255 255 255   255 255 255   255 255 255   255 255 255   255 255 255   255 255 255   255 255 255   255 255 255   255 255 255   255 255 255   255 255 255   255 255 255   255 255 255   255 255 255   255 255 255   255 255 255   255 255 255   255 255 255   255 255 255   255 255 255   255 255 255   255 255 255   255 255 255   255 255 255   255 255 255   255 255 255   255 255 255   255 255 255   255 255 255   255 255 255   255 255 255   255 255 255   255 255 255   255 255 255   255 255 255   255 255 255   255 255 255   255 255 255   255 255 255   255 255 255   255 255 255   255 255 255   255 255 255   255 255 255   255 255 255   255 255 255   255 255 255   255 255 255   255 255 255   255 255 255   255 255 255   255 255 255   255 255 255   255 255 255   255 255 255   255 255 255   255 255 255   255 255 255   255 255 255   255 255 255   255 255 255   255 255 255   255 255 255   255 255 255   255 255 255   255 255 255   255 255 255   255 255 255   255 255 255   255 255 255   255 255 255   255 255 255   255 255 255   255 255 255   255 255 255   255 255 255   255 255 255   255 255 255   255 255 255   255 255 255   255 255 255   255 255 255   255 255 255   255 255 255   255 255 255   255 255 255   255 255 255   255 255 255   255 255 255   255 255 255   255 255 255   255 255 255   255 255 255   255 255 255   255 255 255   255 255 255   255 255 255   255 255 255   255 255 255   255 255 255   255 255 255   255 255 255   255 255 255   255 255 255   255 255 255   255 255 255   255 255 255   255 255 255   255 255 255   255 255 255   255 255 255   255 255 255   255 255 255
255 255 255   255 255 255   255 255 255   255 255 255   255 255 255   255 255 255   255 255 255   255 255 255   255 255 255   255 255 255   255 255 255   255 255 255   255 255 255   255 255 255   255 255 255   255 255 255   255 255 255   255 255 255   255 255 255   255 255 255   255 255 255   255 255 255   255 255 255   255 255 255   255 255 255   255 255 255   255 255 255   255 255 255   255 255 255   255 255 255   255 255 255   255 255 255   255 255 255   255 255 255   255 255 255   255 255 255   255 255 255   255 255 255   255 255 255   255 255 255   255 255 255   255 255 255   255 255 255   255 255 255   255 255 255   255 255 255   255 255 255   255 255 255   255 255 255   255 255 255   255 255 255   255 255 255   255 255 255   255 255 255   255 255 255   255 255 255   255 255 255   255 255 255   255 255 255   255 255 255   255 255 255   255 255 255   255 255 255   255 255 255   255 255 255   255 255 255   255 255 255   255 255 255   255 255 255   255 255 255   255 255 255   255 255 255   255 255 255   255 255 255   255 255 255   255 255 255   255 255 255   255 255 255   255 255 255   255 255 255   255 255 255   255 255 255   255 255 255   255 255 255   255 255 255   255 255 255   255 255 255   255 255 255   255 255 255   255 255 255   255 255 255   255 255 255   255 255 255   255 255 255   255 255 255   255 255 255   255 255 255   255 255 255   255 255 255   255 255 255   255 255 255   255 255 255   255 255 255   255 255 255   255 255 255   255 255 255   255 255 255   255 255 255   255 255 255   255 255 255   255 255 255   255 255 255   255 255 255   255 255 255   255 255 255   255 255 255   255 255 255   255 255 255   255 255 255   255 255 255   255 255 255   255 255 255   255 255 255   255 255 255   255 255 255   255 255 255   255 255 255   255 255 255   255 255 255   255 255 255   255 255 255   255 255 255   255 255 255   255 255 255   255 255 255   255 255 255   255 255 255   255 255 255   255 255 255   255 255 255   255 255 255   255 255 255   255 255 255   255 255 255   255 255 255   255 255 255   255 255 255   255 255 255   255 255 255   255 255 255   255 255 255   255 255 255   255 255 255   255 255 255   255 255 255   255 255 255   255 255 255   255 255 255   255 255 255   255 255 255   255 255 255   255 255 255   255 255 255   255 255 255   255 255 255   255 255 255   255 255 255   255 255 255   255 255 255   255 255 255   255 255 255   255 255 255   255 255 255   255 255 255   255 255 255   255 255 255   255 255 255   255 255 255   255 255 255   255 255 255   255 255 255   255 255 255   255 255 255   255 255 255   255 255 255   255 255 255   255 255 255   255 255 255   255 255 255   255 255 255   255 255 255   255 255 255   255 255 255   255 255 255   255 255 255   255 255 255   255 255 255   255 255 255   255 255 255   255 255 255   255 255 255   255 255 255   255 255 255   255 255 255   255 255 255   255 255 255   255 255 255   255 255 255   255 255 255   255 255 255   255 255 255   255 255 255   255 255 255   255 255 255   255 255 255   255 255 255   255 255 255   255 255 255   255 255 255   255 255 255   255 255 255   255 255 255   255 255 255   255 255 255   255 255 255   255 255 255   255 255 255   255 255 255   255 255 255   255 255 255   255 255 255   255 255 255   255 255 255   255 255 255   255 255 255   255 255 255   255 255 255   255 255 255   255 255 255   255 255 255   255 255 255   255 255 255   255 255 255   255 255 255   255 255 255   255 255 255   255 255 255   255 255 255   255 255 255   255 255 255   255 255 255   255 255 255   255 255 255   255 255 255   255 255 255   255 255 255
255 255 255   255 255 255   255 255 255   255 255 255   255 255 255   255 255 255   255 255 255   255 255 255   255 255 255   255 255 255   255 255 255   255 255 255   255 255 255   255 255 255   255 255 255   255 255 255   255 255 255   255 255 255   255 255 255   255 255 255   255 255 255   255 255 255   255 255 255   255 255 255   255 255 255   255 255 255   255 255 255   255 255 255   255 255 255   255 255 255   255 255 255   255 255 255   255 255 255   255 255 255   255 255 255   255 255 255   255 255 255   255 255 255   255 255 255   255 255 255   255 255 255   255 255 255   255 255 255   255 255 255   255 255 255   255 255 255   255 255 255   255 255 255   255 255 255   255 255 255   255 255 255   255 255 255   255 255 255   255 255 255   255 255 255   255 255 255   255 255 255   255 255 255   255 255 255   255 255 255   255 255 255   255 255 255   255 255 255   255 255 255   255 255 255   255 255 255   255 255 255   255 255 255   255 255 255   255 255 255   255 255 255   255 255 255   255 255 255   255 255 255   255 255 255   255 255 255   255 255 255   255 255 255   255 255 255   255 255 255   255 255 255   255 255 255   255 255 255   255 255 255   255 255 255   255 255 255   255 255 255   255 255 255   255 255 255   255 255 255   255 255 255   255 255 255   255 255 255   255 255 255   255 255 255   255 255 255   255 255 255   255 255 255   255 255 255   255 255 255   255 255 255   255 255 255   255 255 255   255 255 255   255 255 255   255 255 255   255 255 255   255 255 255   255 255 255   255 255 255   255 255 255   255 255 255   255 255 255   255 255 255   255 255 255   255 255 255   255 255 255   255 255 255   255 255 255   255 255 255   255 255 255   255 255 255   255 255 255   255 255 255   255 255 255   255 255 255   255 255 255   255 255 255   255 255 255   255 255 255   255 255 255   255 255 255   255 255 255   255 255 255   255 255 255   255 255 255   255 255 255   255 255 255   255 255 255   255 255 255   255 255 255   255 255 255   255 255 255   255 255 255   255 255 255   255 255 255   255 255 255   255 255 255   255 255 255   255 255 255   255 255 255   255 255 255   255 255 255   255 255 255   255 255 255   255 255 255   255 255 255   255 255 255   255 255 255   255 255 255   255 255 255   255 255 255   255 255 255   255 255 255   255 255 255   255 255 255   255 255 255   255 255 255   255 255 255   255 255 255   255 255 255   255 255 255   255 255 255   255 255 255   255 255 255   255 255 255   255 255 255   255 255 255   255 255 255   255 255 255   255 255 255   255 255 255   255 255 255   255 255 255   255 255 255   255 255 255   255 255 255   255 255 255   255 255 255   255 255 255   255 255 255   255 255 255   255 255 255   255 255 255   255 255 255   255 255 255   255 255 255   255 255 255   255 255 255   255 255 255   255 255 255   255 255 255   255 255 255   255 255 255   255 255 255   255 255 255   255 255 255   255 255 255   255 255 255   255 255 255   255 255 255   255 255 255   255 255 255   255 255 255   255 255 255   255 255 255   255 255 255   255 255 255   255 255 255   255 255 255   255 255 255   255 255 255   255 255 255   255 255 255   255 255 255   255 255 255   255 255 255   255 255 255   255 255 255   255 255 255   255 255 255   255 255 255   255 255 255   255 255 255   255 255 255   255 255 255   255 255 255   255 255 255   255 255 255   255 255 255   255 255 255   255 255 255   255 255 255   255 255 255   255 255 255   255 255 255   255 255 255   255 255 255   255 255 255   255 255 255   255 255 255   255 255 255   255 255 255   255 255 255   255 255 255   255 255 255
255 255 255   255 255 255   255 255 255   255 255 255   255 255 255   255 255 255   255 255 255   255 255 255   255 255 255   255 255 255   255 255 255   255 255 255   255 255 255   255 255 255   255 255 255   255 255 255   255 255 255   255 255 255   255 255 255   255 255 255   255 255 255   255 255 255   255 255 255   255 255 255   255 255 255   255 255 255   255 255 255   255 255 255   255 255 255   255 255 255   255 255 255   255 255 255   255 255 255   255 255 255   255 255 255   255 255 255   255 255 255   255 255 255   255 255 255   255 255 255   255 255 255   255 255 255   255 255 255   255 255 255   255 255 255   255 255 255   255 255 255   255 255 255   255 255 255   255 255 255   255 255 255   255 255 255   255 255 255   255 255 255   255 255 255   255 255 255   255 255 255   255 255 255   255 255 255   255 255 255   255 255 255   255 255 255   255 255 255   255 255 255   255 255 255   255 255 255   255 255 255   255 255 255   255 255 255   255 255 255   255 255 255   255 255 255   255 255 255   255 255 255   255 255 255   255 255 255   255 255 255   255 255 255   255 255 255   255 255 255   255 255 255   255 255 255   255 255 255   255 255 255   255 255 255   255 255 255   255 255 255   255 255 255   255 255 255   255 255 255   255 255 255   255 255 255   255 255 255   255 255 255   255 255 255   255 255 255   255 255 255   255 255 255   255 255 255   255 255 255   255 255 255   255 255 255   255 255 255   255 255 255   255 255 255   255 255 255   255 255 255   255 255 255   255 255 255   255 255 255   255 255 255   255 255 255   255 255 255   255 255 255   255 255 255   255 255 255   255 255 255   255 255 255   255 255 255   255 255 255   255 255 255   255 255 255   255 255 255   255 255 255   255 255 255   255 255 255   255 255 255   255 255 255   255 255 255   255 255 255   255 255 255   255 255 255   255 255 255   255 255 255   255 255 255   255 255 255   255 255 255   255 255 255   255 255 255   255 255 255   255 255 255   255 255 255   255 255 255   255 255 255   255 255 255   255 255 255   255 255 255   255 255 255   255 255 255   255 255 255   255 255 255   255 255 255   255 255 255   255 255 255   255 255 255   255 255 255   255 255 255   255 255 255   255 255 255   255 255 255   255 255 255   255 255 255   255 255 255   255 255 255   255 255 255   255 255 255   255 255 255   255 255 255   255 255 255   255 255 255   255 255 255   255 255 255   255 255 255   255 255 255   255 255 255   255 255 255   255 255 255   255 255 255   255 255 255   255 255 255   255 255 255   255 255 255   255 255 255   255 255 255   255 255 255   255 255 255   255 255 255   255 255 255   255 255 255   255 255 255   255 255 255   255 255 255   255 255 255   255 255 255   255 255 255   255 255 255   255 255 255   255 255 255   255 255 255   255 255 255   255 255 255   255 255 255   255 255 255   255 255 255   255 255 255   255 255 255   255 255 255   255 255 255   255 255 255   255 255 255   255 255 255   255 255 255   255 255 255   255 255 255   255 255 255   255 255 255   255 255 255   255 255 255   255 255 255   255 255 255   255 255 255   255 255 255   255 255 255   255 255 255   255 255 255   255 255 255   255 255 255   255 255 255   255 255 255   255 255 255   255 255 255   255 255 255   255 255 255   255 255 255   255 255 255   255 255 255   255 255 255   255 255 255   255 255 255   255 255 255   255 255 255   255 255 255   255 255 255   255 255 255   255 255 255   255 255 255   255 255 255   255 255 255   255 255 255   255 255 255   255 255 255   255 255 255   255 255 255   255 255 255   255 255 255   255 255 255
255 255 255   255 255 255   255 255 255   255 255 255   255 255 255   255 255 255   255 255 255   255 255 255   255 255 255   255 255 255   255 255 255   255 255 255   255 255 255   255 255 255   255 255 255   255 255 255   255 255 255   255 255 255   255 255 255   255 255 255   255 255 255   255 255 255   255 255 255   255 255 255   255 255 255   255 255 255   255 255 255   255 255 255   255 255 255   255 255 255   255 255 255   255 255 255   255 255 255    67  67  67     0   0   0     0   0   0     0   0   0     0   0   0     0   0   0     0   0   0    31  31  31   255 255 255   143 143 143     0   0   0     0   0   0     0   0   0     0   0   0     0   0   0   115 115 115   255 255 255    95  95  95    78  78  78   255 255 255   255 255 255   255 255 255   255 255 255    81  81  81   101 101 101   255 255 255     3   3   3     0   0   0     0   0   0     0   0   0     0   0   0     0   0   0     0   0   0    95  95  95   255 255 255   255 255 255   255 255 255   255 255 255   143 143 143    75  75  75   255 255 255   255 255 255   198 198 198    63  63  63    11  11  11    15  15  15    53  53  53   158 158 158   255 255 255   255 255 255   255 255 255   255 255 255   255 255 255    79  79  79   139 139 139   255 255 255   255 255 255   255 255 255   255 255 255   199 199 199    19  19  19   255 255 255   255 255 255   143 143 143     0   0   0     0   0   0     0   0   0     0   0   0     0   0   0   115 115 115   255 255 255   220 220 220    44  44  44    14  14  14     6   6   6    30  30  30    80  80  80   196 196 196   255 255 255   255 255 255   207 207 207     0   0   0     0   0   0     0   0   0     0   0   0     0   0   0    51  51  51   255 255 255   255 255 255   255 255 255   255 255 255   131 131 131     0   0   0     0   0   0     0   0   0     0   0   0     0   0   0     0   0   0     0   0   0   223 223 223   255 255 255   245 245 245   125 125 125    38  38  38     6   6   6    23  23  23    89  89  89   212 212 212   255 255 255   255 255 255   255 255 255   255 255 255   255 255 255   195 195 195    74  74  74    16  16  16    10  10  10    48  48  48   144 144 144   252 252 252   255 255 255   255 255 255   255 255 255   255 255 255   255 255 255   255 255 255   255 255 255   255 255 255   255 255 255   255 255 255   255 255 255   255 255 255   255 255 255   255 255 255   255 255 255   255 255 255   255 255 255   255 255 255   255 255 255   255 255 255   255 255 255   255 255 255   255 255 255   255 255 255   255 255 255   255 255 255   255 255 255   255 255 255   255 255 255   255 255 255   255 255 255   255 255 255   255 255 255   255 255 255   255 255 255   255 255 255   255 255 255   255 255 255   255 255 255   255 255 255   255 255 255   255 255 255   255 255 255   255 255 255   255 255 255   255 255 255   255 255 255   255 255 255   255 255 255   255 255 255   255 255 255   255 255 255   255 255 255   255 255 255   255 255 255   255 255 255   255 255 255   255 255 255   255 255 255   255 255 255   255 255 255   255 255 255   255 255 255   255 255 255   255 255 255   255 255 255   255 255 255   255 255 255   255 255 255   255 255 255   255 255 255   255 255 255   255 255 255   255 255 255   255 255 255   255 255 255   255 255 255   255 255 255   255 255 255   255 255 255   255 255 255   255 255 255   255 255 255   255 255 255   255 255 255   255 255 255   255 255 255   255 255 255   255 255 255   255 255 255   255 255 255   255 255 255   255 255 255   255 255 255   255 255 255   255 255 255   255 255 255   255 255 255   255 255 255   255 255 255   255 255 255   255 255 255   255 255 255
255 255 255   255 255 255   255 255 255   255 255 255   255 255 255   255 255 255   255 255 255   255 255 255   255 255 255   255 255 255   255 255 255   255 255 255   255 255 255   255 255 255   255 255 255   255 255 255   255 255 255   255 255 255   255 255 255   255 255 255   255 255 255   255 255 255   255 255 255   255 255 255   255 255 255   255 255 255   255 255 255   255 255 255   255 255 255   255 255 255   255 255 255   255 255 255   255 255 255   253 253 253   251 251 251   251 251 251   125 125 125    86  86  86   251 251 251   251 251 251   252 252 252   255 255 255   143 143 143    74  74  74   251 251 251   251 251 251   251 251 251   251 251 251   253 253 253   255 255 255   241 241 241    31  31  31   160 160 160   255 255 255   255 255 255   164 164 164    36  36  36   244 244 244   255 255 255   252 252 252   251 251 251   251 251 251    62  62  62   149 149 149   251 251 251   251 251 251   253 253 253   255 255 255   255 255 255   255 255 255   255 255 255   143 143 143    75  75  75   255 255 255   243 243 243    15  15  15   135 135 135   238 238 238   242 242 242   196 196 196   183 183 183   255 255 255   255 255 255   255 255 255   255 255 255   255 255 255    79  79  79   139 139 139   255 255 255   255 255 255   255 255 255   255 255 255   199 199 199    19  19  19   255 255 255   255 255 255   143 143 143    74  74  74   251 251 251   251 251 251   251 251 251   251 251 251   253 253 253   255 255 255   207 207 207    10  10  10   240 240 240   247 247 247   221 221 221   147 147 147    10  10  10   191 191 191   255 255 255   207 207 207    11  11  11   251 251 251   251 251 251   251 251 251   251 251 251   252 252 252   255 255 255   255 255 255   255 255 255   255 255 255   254 254 254   251 251 251   251 251 251   188 188 188    23  23  23   251 251 251   251 251 251   251 251 251   255 255 255   242 242 242    50  50  50    63  63  63   191 191 191   235 235 235   216 216 216   121 121 121    11  11  11   189 189 189   255 255 255   255 255 255   255 255 255   161 161 161    12  12  12   138 138 138   221 221 221   233 233 233   180 180 180    46  46  46    73  73  73   252 252 252   255 255 255   255 255 255   255 255 255   255 255 255   255 255 255   255 255 255   255 255 255   255 255 255   255 255 255   255 255 255   255 255 255   255 255 255   255 255 255   255 255 255   255 255 255   255 255 255   255 255 255   255 255 255   255 255 255   255 255 255   255 255 255   255 255 255   255 255 255   255 255 255   255 255 255   255 255 255   255 255 255   255 255 255   255 255 255   255 255 255   255 255 255   255 255 255   255 255 255   255 255 255   255 255 255   255 255 255   255 255 255   255 255 255   255 255 255   255 255 255   255 255 255   255 255 255   255 255 255   255 255 255   255 255 255   255 255 255   255 255 255   255 255 255   255 255 255   255 255 255   255 255 255   255 255 255   255 255 255   255 255 255   255 255 255   255 255 255   255 255 255   255 255 255   255 255 255   255 255 255   255 255 255   255 255 255   255 255 255   255 255 255   255 255 255   255 255 255   255 255 255   255 255 255   255 255 255   255 255 255   255 255 255   255 255 255   255 255 255   255 255 255   255 255 255   255 255 255   255 255 255   255 255 255   255 255 255   255 255 255   255 255 255   255 255 255   255 255 255   255 255 255   255 255 255   255 255 255   255 255 255   255 255 255   255 255 255   255 255 255   255 255 255   255 255 255   255 255 255   255 255 255   255 255 255   255 255 255   255 255 255   255 255 255   255 255 255   255 255 255   255 255 255   255 255 255
255 255 255   255 255 255   255 255 255   255 255 255   255 255 255   255 255 255   255 255 255   255 255 255   255 255 255   255 255 255   255 255 255   255 255 255   255 255 255   255 255 255   255 255 255   255 255 255   255 255 255   255 255 255   255 255 255   255 255 255   255 255 255   255 255 255   255 255 255   255 255 255   255 255 255   255 255 255   255 255 255   255 255 255   255 255 255   255 255 255   255 255 255   255 255 255   255 255 255   255 255 255   255 255 255   255 255 255   127 127 127    87  87  87   255 255 255   255 255 255   255 255 255   255 255 255   143 143 143    75  75  75   255 255 255   255 255 255   255 255 255   255 255 255   255 255 255   255 255 255   255 255 255   191 191 191    17  17  17   227 227 227   230 230 230    21  21  21   199 199 199   255 255 255   255 255 255   255 255 255   255 255 255   255 255 255    63  63  63   151 151 151   255 255 255   255 255 255   255 255 255   255 255 255   255 255 255   255 255 255   255 255 255   143 143 143    75  75  75   255 255 255   207 207 207     5   5   5   254 254 254   255 255 255   255 255 255   255 255 255   255 255 255   255 255 255   255 255 255   255 255 255   255 255 255   255 255 255    79  79  79   139 139 139   255 255 255   255 255 255   255 255 255   255 255 255   199 199 199    19  19  19   255 255 255   255 255 255   143 143 143    75  75  75   255 255 255   255 255 255   255 255 255   255 255 255   255 255 255   255 255 255   207 207 207    11  11  11   255 255 255   255 255 255   255 255 255   255 255 255   101 101 101    98  98  98   255 255 255   207 207 207    11  11  11   255 255 255   255 255 255   255 255 255   255 255 255   255 255 255   255 255 255   255 255 255   255 255 255   255 255 255   255 255 255   255 255 255   255 255 255   191 191 191    23  23  23   255 255 255   255 255 255   255 255 255   255 255 255   113 113 113    54  54  54   251 251 251   255 255 255   255 255 255   255 255 255   255 255 255   146 146 146    25  25  25   250 250 250   255 255 255   231 231 231    10  10  10   178 178 178   255 255 255   255 255 255   255 255 255   255 255 255   242 242 242    32  32  32   148 148 148   255 255 255   255 255 255   255 255 255   255 255 255   255 255 255   255 255 255   255 255 255   255 255 255   255 255 255   255 255 255   255 255 255   255 255 255   255 255 255   255 255 255   255 255 255   255 255 255   255 255 255   255 255 255   255 255 255   255 255 255   255 255 255   255 255 255   255 255 255   255 255 255   255 255 255   255 255 255   255 255 255   255 255 255   255 255 255   255 255 255   255 255 255   255 255 255   255 255 255   255 255 255   255 255 255   255 255 255   255 255 255   255 255 255   255 255 255   255 255 255   255 255 255   255 255 255   255 255 255   255 255 255   255 255 255   255 255 255   255 255 255   255 255 255   255 255 255   255 255 255   255 255 255   255 255 255   255 255 255   255 255 255   255 255 255   255 255 255   255 255 255   255 255 255   255 255 255   255 255 255   255 255 255   255 255 255   255 255 255   255 255 255   255 255 255   255 255 255   255 255 255   255 255 255   255 255 255   255 255 255   255 255 255   255 255 255   255 255 255   255 255 255   255 255 255   255 255 255   255 255 255   255 255 255   255 255 255   255 255 255   255 255 255   255 255 255   255 255 255   255 255 255   255 255 255   255 255 255   255 255 255   255 255 255   255 255 255   255 255 255   255 255 255   255 255 255   255 255 255   255 255 255   255 255 255   255 255 255   255 255 255   255 255 255   255 255 255   255 255 255   255 255 255   255 255 255
255 255 255   255 255 255   255 255 255   255 255 255   255 255 255   255 255 255   255 255 255   255 255 255   255 255 255   255 255 255   255 255 255   255 255 255   255 255 255   255 255 255   255 255 255   255 255 255   255 255 255   255 255 255   255 255 255   255 255 255   255 255 255   255 255 255   255 255 255   255 255 255   255 255 255   255 255 255   255 255 255   255 255 255   255 255 255   255 255 255   255 255 255   255 255 255   255 255 255   255 255 255   255 255 255   255 255 255   127 127 127    87  87  87   255 255 255   255 255 255   255 255 255   255 255 255   143 143 143    75  75  75   255 255 255   255 255 255   255 255 255   255 255 255   255 255 255   255 255 255   255 255 255   255 255 255   113 113 113    70  70  70    76  76  76   125 125 125   255 255 255   255 255 255   255 255 255   255 255 255   255 255 255   255 255 255    63  63  63   151 151 151   255 255 255   255 255 255   255 255 255   255 255 255   255 255 255   255 255 255   255 255 255   143 143 143    75  75  75   255 255 255   243 243 243    17  17  17   150 150 150   255 255 255   255 255 255   255 255 255   255 255 255   255 255 255   255 255 255   255 255 255   255 255 255   255 255 255    79  79  79   139 139 139   255 255 255   255 255 255   255 255 255   255 255 255   199 199 199    19  19  19   255 255 255   255 255 255   143 143 143    75  75  75   255 255 255   255 255 255   255 255 255   255 255 255   255 255 255   255 255 255   207 207 207    11  11  11   255 255 255   255 255 255   255 255 255   255 255 255   108 108 108    97  97  97   255 255 255   207 207 207    11  11  11   255 255 255   255 255 255   255 255 255   255 255 255   255 255 255   255 255 255   255 255 255   255 255 255   255 255 255   255 255 255   255 255 255   255 255 255   191 191 191    23  23  23   255 255 255   255 255 255   255 255 255   254 254 254    21  21  21   172 172 172   255 255 255   255 255 255   255 255 255   255 255 255   255 255 255   250 250 250    17  17  17   182 182 182   255 255 255   148 148 148    44  44  44   255 255 255   255 255 255   255 255 255   255 255 255   255 255 255   255 255 255   140 140 140    54  54  54   255 255 255   255 255 255   255 255 255   255 255 255   255 255 255   255 255 255   255 255 255   255 255 255   255 255 255   255 255 255   255 255 255   255 255 255   255 255 255   255 255 255   255 255 255   255 255 255   255 255 255   255 255 255   255 255 255   255 255 255   255 255 255   255 255 255   255 255 255   255 255 255   255 255 255   255 255 255   255 255 255   255 255 255   255 255 255   255 255 255   255 255 255   255 255 255   255 255 255   255 255 255   255 255 255   255 255 255   255 255 255   255 255 255   255 255 255   255 255 255   255 255 255   255 255 255   255 255 255   255 255 255   255 255 255   255 255 255   255 255 255   255 255 255   255 255 255   255 255 255   255 255 255   255 255 255   255 255 255   255 255 255   255 255 255   255 255 255   255 255 255   255 255 255   255 255 255   255 255 255   255 255 255   255 255 255   255 255 255   255 255 255   255 255 255   255 255 255   255 255 255   255 255 255   255 255 255   255 255 255   255 255 255   255 255 255   255 255 255   255 255 255   255 255 255   255 255 255   255 255 255   255 255 255   255 255 255   255 255 255   255 255 255   255 255 255   255 255 255   255 255 255   255 255 255   255 255 255   255 255 255   255 255 255   255 255 255   255 255 255   255 255 255   255 255 255   255 255 255   255 255 255   255 255 255   255 255 255   255 255 255   255 255 255   255 255 255   255 255 255   255 255 255   255 255 255
255 255 255   255 255 255   255 255 255   255 255 255   255 255 255   255 255 255   255 255 255   255 255 255   255 255 255   255 255 255   255 255 255   255 255 255   255 255 255   255 255 255   255 255 255   255 255 255   255 255 255   255 255 255   255 255 255   255 255 255   255 255 255   255 255 255   255 255 255   255 255 255   255 255 255   255 255 255   255 255 255   255 255 255   255 255 255   255 255 255   255 255 255   255 255 255   255 255 255   255 255 255   255 255 255   255 255 255   127 127 127    87  87  87   255 255 255   255 255 255   255 255 255   255 255 255   143 143 143     2   2   2     7   7   7     7   7   7     7   7   7     7   7   7   252 252 252   255 255 255   255 255 255   255 255 255   247 247 247    30  30  30    36  36  36   251 251 251   255 255 255   255 255 255   255 255 255   255 255 255   255 255 255   255 255 255    63  63  63   151 151 151   255 255 255   255 255 255   255 255 255   255 255 255   255 255 255   255 255 255   255 255 255   143 143 143    75  75  75   255 255 255   255 255 255   204 204 204    57  57  57    48  48  48   153 153 153   246 246 246   255 255 255   255 255 255   255 255 255   255 255 255   255 255 255   255 255 255    79  79  79     0   0   0     0   0   0     0   0   0     0   0   0     0   0   0     0   0   0    19  19  19   255 255 255   255 255 255   143 143 143     2   2   2     7   7   7     7   7   7     7   7   7     7   7   7   252 252 252   255 255 255   207 207 207    11  11  11   255 255 255   253 253 253   235 235 235   170 170 170    16  16  16   188 188 188   255 255 255   207 207 207     0   0   0     7   7   7     7   7   7     7   7   7     7   7   7   190 190 190   255 255 255   255 255 255   255 255 255   255 255 255   255 255 255   255 255 255   255 255 255   191 191 191    23  23  23   255 255 255   255 255 255   255 255 255   237 237 237     0   0   0   219 219 219   255 255 255   255 255 255   255 255 255   255 255 255   255 255 255   255 255 255    59  59  59   145 145 145   255 255 255   109 109 109    91  91  91   255 255 255   255 255 255   255 255 255   255 255 255   255 255 255   255 255 255   187 187 187    17  17  17   255 255 255   255 255 255   255 255 255   255 255 255   255 255 255   255 255 255   255 255 255   255 255 255   255 255 255   255 255 255   255 255 255   255 255 255   255 255 255   255 255 255   255 255 255   255 255 255   255 255 255   255 255 255   255 255 255   255 255 255   255 255 255   255 255 255   255 255 255   255 255 255   255 255 255   255 255 255   255 255 255   255 255 255   255 255 255   255 255 255   255 255 255   255 255 255   255 255 255   255 255 255   255 255 255   255 255 255   255 255 255   255 255 255   255 255 255   255 255 255   255 255 255   255 255 255   255 255 255   255 255 255   255 255 255   255 255 255   255 255 255   255 255 255   255 255 255   255 255 255   255 255 255   255 255 255   255 255 255   255 255 255   255 255 255   255 255 255   255 255 255   255 255 255   255 255 255   255 255 255   255 255 255   255 255 255   255 255 255   255 255 255   255 255 255   255 255 255   255 255 255   255 255 255   255 255 255   255 255 255   255 255 255   255 255 255   255 255 255   255 255 255   255 255 255   255 255 255   255 255 255   255 255 255   255 255 255   255 255 255   255 255 255   255 255 255   255 255 255   255 255 255   255 255 255   255 255 255   255 255 255   255 255 255   255 255 255   255 255 255   255 255 255   255 255 255   255 255 255   255 255 255   255 255 255   255 255 255   255 255 255   255 255 255   255 255 255   255 255 255   255 255 255   255 255 255
255 255 255   255 255 255   255 255 255   255 255 255   255 255 255   255 255 255   255 255 255   255 255 255   255 255 255   255 255 255   255 255 255   255 255 255   255 255 255   255 255 255   255 255 255   255 255 255   255 255 255   255 255 255   255 255 255   255 255 255   255 255 255   255 255 255   255 255 255   255 255 255   255 255 255   255 255 255   255 255 255   255 255 255   255 255 255   255 255 255   255 255 255   255 255 255   255 255 255   255 255 255   255 255 255   255 255 255   127 127 127    87  87  87   255 255 255   255 255 255   255 255 255   255 255 255   143 143 143    75  75  75   255 255 255   255 255 255   255 255 255   255 255 255   255 255 255   255 255 255   255 255 255   255 255 255   191 191 191    24  24  24    17  17  17   190 190 190   255 255 255   255 255 255   255 255 255   255 255 255   255 255 255   255 255 255    63  63  63   151 151 151   255 255 255   255 255 255   255 255 255   255 255 255   255 255 255   255 255 255   255 255 255   143 143 143    75  75  75   255 255 255   255 255 255   255 255 255   255 255 255   203 203 203    95  95  95    23  23  23   179 179 179   255 255 255   255 255 255   255 255 255   255 255 255   255 255 255    79  79  79   139 139 139   255 255 255   255 255 255   255 255 255   255 255 255   199 199 199    19  19  19   255 255 255   255 255 255   143 143 143    75  75  75   255 255 255   255 255 255   255 255 255   255 255 255   255 255 255   255 255 255   207 207 207     0   0   0     7   7   7     5   5   5     2   2   2    36  36  36   188 188 188   255 255 255   255 255 255   207 207 207    11  11  11   255 255 255   255 255 255   255 255 255   255 255 255   255 255 255   255 255 255   255 255 255   255 255 255   255 255 255   255 255 255   255 255 255   255 255 255   191 191 191    23  23  23   255 255 255   255 255 255   255 255 255   240 240 240     0   0   0   220 220 220   255 255 255   255 255 255   255 255 255   255 255 255   255 255 255   255 255 255    58  58  58   146 146 146   255 255 255   112 112 112    92  92  92   255 255 255   255 255 255   255 255 255   255 255 255   255 255 255   255 255 255   186 186 186    18  18  18   255 255 255   255 255 255   255 255 255   255 255 255   255 255 255   255 255 255   255 255 255   255 255 255   255 255 255   255 255 255   255 255 255   255 255 255   255 255 255   255 255 255   255 255 255   255 255 255   255 255 255   255 255 255   255 255 255   255 255 255   255 255 255   255 255 255   255 255 255   255 255 255   255 255 255   255 255 255   255 255 255   255 255 255   255 255 255   255 255 255   255 255 255   255 255 255   255 255 255   255 255 255   255 255 255   255 255 255   255 255 255   255 255 255   255 255 255   255 255 255   255 255 255   255 255 255   255 255 255   255 255 255   255 255 255   255 255 255   255 255 255   255 255 255   255 255 255   255 255 255   255 255 255   255 255 255   255 255 255   255 255 255   255 255 255   255 255 255   255 255 255   255 255 255   255 255 255   255 255 255   255 255 255   255 255 255   255 255 255   255 255 255   255 255 255   255 255 255   255 255 255   255 255 255   255 255 255   255 255 255   255 255 255   255 255 255   255 255 255   255 255 255   255 255 255   255 255 255   255 255 255   255 255 255   255 255 255   255 255 255   255 255 255   255 255 255   255 255 255   255 255 255   255 255 255   255 255 255   255 255 255   255 255 255   255 255 255   255 255 255   255 255 255   255 255 255   255 255 255   255 255 255   255 255 255   255 255 255   255 255 255   255 255 255   255 255 255   255 255 255   255 255 255   255 255 255
255 255 255   255 255 255   255 255 255   255 255 255   255 255 255   255 255 255   255 255 255   255 255 255   255 255 255   255 255 255   255 255 255   255 255 255   255 255 255   255 255 255   255 255 255   255 255 255   255 255 255   255 255 255   255 255 255   255 255 255   255 255 255   255 255 255   255 255 255   255 255 255   255 255 255   255 255 255   255 255 255   255 255 255   255 255 255   255 255 255   255 255 255   255 255 255   255 255 255   255 255 255   255 255 255   255 255 255   127 127 127    87  87  87   255 255 255   255 255 255   255 255 255   255 255 255   143 143 143    75  75  75   255 255 255   255 255 255   255 255 255   255 255 255   255 255 255   255 255 255   255 255 255   240 240 240    29  29  29   179 179 179   164 164 164    27  27  27   238 238 238   255 255 255   255 255 255   255 255 255   255 255 255   255 255 255    63  63  63   151 151 151   255 255 255   255 255 255   255 255 255   255 255 255   255 255 255   255 255 255   255 255 255   143 143 143    75  75  75   255 255 255   255 255 255   255 255 255   255 255 255   255 255 255   255 255 255   170 170 170    13  13  13   246 246 246   255 255 255   255 255 255   255 255 255   255 255 255    79  79  79   139 139 139   255 255 255   255 255 255   255 255 255   255 255 255   199 199 199    19  19  19   255 255 255   255 255 255   143 143 143    75  75  75   255 255 255   255 255 255   255 255 255   255 255 255   255 255 255   255 255 255   207 207 207    11  11  11   255 255 255   255 255 255   193 193 193    14  14  14   214 214 214   255 255 255   255 255 255   207 207 207    11  11  11   255 255 255   255 255 255   255 255 255   255 255 255   255 255 255   255 255 255   255 255 255   255 255 255   255 255 255   255 255 255   255 255 255   255 255 255   191 191 191    23  23  23   255 255 255   255 255 255   255 255 255   255 255 255    22  22  22   172 172 172   255 255 255   255 255 255   255 255 255   255 255 255   255 255 255   250 250 250    17  17  17   182 182 182   255 255 255   150 150 150    44  44  44   255 255 255   255 255 255   255 255 255   255 255 255   255 255 255   255 255 255   139 139 139    54  54  54   255 255 255   255 255 255   255 255 255   255 255 255   255 255 255   255 255 255   255 255 255   255 255 255   255 255 255   255 255 255   255 255 255   255 255 255   255 255 255   255 255 255   255 255 255   255 255 255   255 255 255   255 255 255   255 255 255   255 255 255   255 255 255   255 255 255   255 255 255   255 255 255   255 255 255   255 255 255   255 255 255   255 255 255   255 255 255   255 255 255   255 255 255   255 255 255   255 255 255   255 255 255   255 255 255   255 255 255   255 255 255   255 255 255   255 255 255   255 255 255   255 255 255   255 255 255   255 255 255   255 255 255   255 255 255   255 255 255   255 255 255   255 255 255   255 255 255   255 255 255   255 255 255   255 255 255   255 255 255   255 255 255   255 255 255   255 255 255   255 255 255   255 255 255   255 255 255   255 255 255   255 255 255   255 255 255   255 255 255   255 255 255   255 255 255   255 255 255   255 255 255   255 255 255   255 255 255   255 255 255   255 255 255   255 255 255   255 255 255   255 255 255   255 255 255   255 255 255   255 255 255   255 255 255   255 255 255   255 255 255   255 255 255   255 255 255   255 255 255   255 255 255   255 255 255   255 255 255   255 255 255   255 255 255   255 255 255   255 255 255   255 255 255   255 255 255   255 255 255   255 255 255   255 255 255   255 255 255   255 255 255   255 255 255   255 255 255   255 255 255   255 255 255   255 255 255
255 255 255   255 255 255   255 255 255   255 255 255   255 255 255   255 255 255   255 255 255   255 255 255   255 255 255   255 255 255   255 255 255   255 255 255   255 255 255   255 255 255   255 255 255   255 255 255   255 255 255   255 255 255   255 255 255   255 255 255   255 255 255   255 255 255   255 255 255   255 255 255   255 255 255   255 255 255   255 255 255   255 255 255   255 255 255   255 255 255   255 255 255   255 255 255   255 255 255   255 255 255   255 255 255   255 255 255   127 127 127    87  87  87   255 255 255   255 255 255   255 255 255   255 255 255   143 143 143    75  75  75   255 255 255   255 255 255   255 255 255   255 255 255   255 255 255   255 255 255   255 255 255    95  95  95    98  98  98   255 255 255   255 255 255    85  85  85    94  94  94   255 255 255   255 255 255   255 255 255   255 255 255   255 255 255    63  63  63   151 151 151   255 255 255   255 255 255   255 255 255   255 255 255   255 255 255   255 255 255   255 255 255   143 143 143    75  75  75   255 255 255   255 255 255   255 255 255   255 255 255   255 255 255   255 255 255   233 233 233     0   0   0   225 225 225   255 255 255   255 255 255   255 255 255   255 255 255    79  79  79   139 139 139   255 255 255   255 255 255   255 255 255   255 255 255   199 199 199    19  19  19   255 255 255   255 255 255   143 143 143    75  75  75   255 255 255   255 255 255   255 255 255   255 255 255   255 255 255   255 255 255   207 207 207    11  11  11   255 255 255   255 255 255   255 255 255   124 124 124    50  50  50   251 251 251   255 255 255   207 207 207    11  11  11   255 255 255   255 255 255   255 255 255   255 255 255   255 255 255   255 255 255   255 255 255   255 255 255   255 255 255   255 255 255   255 255 255   255 255 255   191 191 191    23  23  23   255 255 255   255 255 255   255 255 255   255 255 255   117 117 117    54  54  54   251 251 251   255 255 255   255 255 255   255 255 255   255 255 255   146 146 146    26  26  26   250 250 250   255 255 255   235 235 235     9   9   9   177 177 177   255 255 255   255 255 255   255 255 255   255 255 255   241 241 241    32  32  32   149 149 149   255 255 255   255 255 255   255 255 255   255 255 255   255 255 255   255 255 255   255 255 255   255 255 255   255 255 255   255 255 255   255 255 255   255 255 255   255 255 255   255 255 255   255 255 255   255 255 255   255 255 255   255 255 255   255 255 255   255 255 255   255 255 255   255 255 255   255 255 255   255 255 255   255 255 255   255 255 255   255 255 255   255 255 255   255 255 255   255 255 255   255 255 255   255 255 255   255 255 255   255 255 255   255 255 255   255 255 255   255 255 255   255 255 255   255 255 255   255 255 255   255 255 255   255 255 255   255 255 255   255 255 255   255 255 255   255 255 255   255 255 255   255 255 255   255 255 255   255 255 255   255 255 255   255 255 255   255 255 255   255 255 255   255 255 255   255 255 255   255 255 255   255 255 255   255 255 255   255 255 255   255 255 255   255 255 255   255 255 255   255 255 255   255 255 255   255 255 255   255 255 255   255 255 255   255 255 255   255 255 255   255 255 255   255 255 255   255 255 255   255 255 255   255 255 255   255 255 255   255 255 255   255 255 255   255 255 255   255 255 255   255 255 255   255 255 255   255 255 255   255 255 255   255 255 255   255 255 255   255 255 255   255 255 255   255 255 255   255 255 255   255 255 255   255 255 255   255 255 255   255 255 255   255 255 255   255 255 255   255 255 255   255 255 255   255 255 255   255 255 255   255 255 255   255 255 255
255 255 255   255 255 255   255 255 255   255 255 255   255 255 255   255 255 255   255 255 255   255 255 255   255 255 255   255 255 255   255 255 255   255 255 255   255 255 255   255 255 255   255 255 255   255 255 255   255 255 255   255 255 255   255 255 255   255 255 255   255 255 255   255 255 255   255 255 255   255 255 255   255 255 255   255 255 255   255 255 255   255 255 255   255 255 255   255 255 255   255 255 255   255 255 255   255 255 255   255 255 255   255 255 255   255 255 255   127 127 127    87  87  87   255 255 255   255 255 255   255 255 255   255 255 255   143 143 143    74  74  74   251 251 251   251 251 251   251 251 251   251 251 251   252 252 252   255 255 255   187 187 187    25  25  25   240 240 240   255 255 255   255 255 255   233 233 233    18  18  18   186 186 186   255 255 255   255 255 255   255 255 255   255 255 255    63  63  63   151 151 151   255 255 255   255 255 255   255 255 255   255 255 255   255 255 255   255 255 255   255 255 255   143 143 143    75  75  75   255 255 255   213 213 213   161 161 161   229 229 229   247 247 247   221 221 221    97  97  97    34  34  34   252 252 252   255 255 255   255 255 255   255 255 255   255 255 255    79  79  79   139 139 139   255 255 255   255 255 255   255 255 255   255 255 255   199 199 199    19  19  19   255 255 255   255 255 255   143 143 143    74  74  74   251 251 251   251 251 251   251 251 251   251 251 251   252 252 252   255 255 255   207 207 207    11  11  11   255 255 255   255 255 255   255 255 255   249 249 249    43  43  43   137 137 137   255 255 255   207 207 207    11  11  11   251 251 251   251 251 251   251 251 251   251 251 251   251 251 251   255 255 255   255 255 255   255 255 255   255 255 255   255 255 255   255 255 255   255 255 255   191 191 191    23  23  23   255 255 255   255 255 255   255 255 255   255 255 255   245 245 245    52  52  52    63  63  63   191 191 191   235 235 235   216 216 216   121 121 121    12  12  12   191 191 191   255 255 255   255 255 255   255 255 255   166 166 166    12  12  12   139 139 139   222 222 222   233 233 233   181 181 181    46  46  46    74  74  74   253 253 253   255 255 255   255 255 255   255 255 255   255 255 255   255 255 255   255 255 255   255 255 255   255 255 255   255 255 255   255 255 255   255 255 255   255 255 255   255 255 255   255 255 255   255 255 255   255 255 255   255 255 255   255 255 255   255 255 255   255 255 255   255 255 255   255 255 255   255 255 255   255 255 255   255 255 255   255 255 255   255 255 255   255 255 255   255 255 255   255 255 255   255 255 255   255 255 255   255 255 255   255 255 255   255 255 255   255 255 255   255 255 255   255 255 255   255 255 255   255 255 255   255 255 255   255 255 255   255 255 255   255 255 255   255 255 255   255 255 255   255 255 255   255 255 255   255 255 255   255 255 255   255 255 255   255 255 255   255 255 255   255 255 255   255 255 255   255 255 255   255 255 255   255 255 255   255 255 255   255 255 255   255 255 255   255 255 255   255 255 255   255 255 255   255 255 255   255 255 255   255 255 255   255 255 255   255 255 255   255 255 255   255 255 255   255 255 255   255 255 255   255 255 255   255 255 255   255 255 255   255 255 255   255 255 255   255 255 255   255 255 255   255 255 255   255 255 255   255 255 255   255 255 255   255 255 255   255 255 255   255 255 255   255 255 255   255 255 255   255 255 255   255 255 255   255 255 255   255 255 255   255 255 255   255 255 255   255 255 255   255 255 255   255 255 255   255 255 255   255 255 255   255 255 255   255 255 255
255 255 255   255 255 255   255 255 255   255 255 255   255 255 255   255 255 255   255 255 255   255 255 255   255 255 255   255 255 255   255 255 255   255 255 255   255 255 255   255 255 255   255 255 255   255 255 255   255 255 255   255 255 255   255 255 255   255 255 255   255 255 255   255 255 255   255 255 255   255 255 255   255 255 255   255 255 255   255 255 255   255 255 255   255 255 255   255 255 255   255 255 255   255 255 255   255 255 255   255 255 255   255 255 255   255 255 255   127 127 127    87  87  87   255 255 255   255 255 255   255 255 255   255 255 255   143 143 143     0   0   0     0   0   0     0   0   0     0   0   0     0   0   0    23  23  23   251 251 251    42  42  42   163 163 163   255 255 255   255 255 255   255 255 255   255 255 255   144 144 144    44  44  44   252 252 252   255 255 255   255 255 255   255 255 255    63  63  63   151 151 151   255 255 255   255 255 255   255 255 255   255 255 255   255 255 255   255 255 255   255 255 255   143 143 143    75  75  75   255 255 255   208 208 208    78  78  78    20  20  20     3   3   3    19  19  19    83  83  83   220 220 220   255 255 255   255 255 255   255 255 255   255 255 255   255 255 255    79  79  79   139 139 139   255 255 255   255 255 255   255 255 255   255 255 255   199 199 199    19  19  19   255 255 255   255 255 255   143 143 143     0   0   0     0   0   0     0   0   0     0   0   0     0   0   0    23  23  23   255 255 255   207 207 207    11  11  11   255 255 255   255 255 255   255 255 255   255 255 255   193 193 193    14  14  14   234 234 234   207 207 207     0   0   0     0   0   0     0   0   0     0   0   0     0   0   0     0   0   0   215 215 215   255 255 255   255 255 255   255 255 255   255 255 255   255 255 255   255 255 255   191 191 191    23  23  23   255 255 255   255 255 255   255 255 255   255 255 255   255 255 255   247 247 247   130 130 130    41  41  41     8   8   8    22  22  22    88  88  88   213 213 213   255 255 255   255 255 255   255 255 255   255 255 255   255 255 255   199 199 199    78  78  78    19  19  19     9   9   9    47  47  47   144 144 144   252 252 252   255 255 255   255 255 255   255 255 255   255 255 255   255 255 255   255 255 255   255 255 255   255 255 255   255 255 255   255 255 255   255 255 255   255 255 255   255 255 255   255 255 255   255 255 255   255 255 255   255 255 255   255 255 255   255 255 255   255 255 255   255 255 255   255 255 255   255 255 255   255 255 255   255 255 255   255 255 255   255 255 255   255 255 255   255 255 255   255 255 255   255 255 255   255 255 255   255 255 255   255 255 255   255 255 255   255 255 255   255 255 255   255 255 255   255 255 255   255 255 255   255 255 255   255 255 255   255 255 255   255 255 255   255 255 255   255 255 255   255 255 255   255 255 255   255 255 255   255 255 255   255 255 255   255 255 255   255 255 255   255 255 255   255 255 255   255 255 255   255 255 255   255 255 255   255 255 255   255 255 255   255 255 255   255 255 255   255 255 255   255 255 255   255 255 255   255 255 255   255 255 255   255 255 255   255 255 255   255 255 255   255 255 255   255 255 255   255 255 255   255 255 255   255 255 255   255 255 255   255 255 255   255 255 255   255 255 255   255 255 255   255 255 255   255 255 255   255 255 255   255 255 255   255 255 255   255 255 255   255 255 255   255 255 255   255 255 255   255 255 255   255 255 255   255 255 255   255 255 255   255 255 255   255 255 255   255 255 255   255 255 255   255 255 255   255 255 255   255 255 255   255 255 255   255 255 255   255 255 255
255 255 255   255 255 255   255 255 255   255 255 255   255 255 255   255 255 255   255 255 255   255 255 255   255 255 255   255 255 255   255 255 255   255 255 255   255 255 255   255 255 255   255 255 255   255 255 255   255 255 255   255 255 255   255 255 255   255 255 255   255 255 255   255 255 255   255 255 255   255 255 255   255 255 255   255 255 255   255 255 255   255 255 255   255 255 255   255 255 255   255 255 255   255 255 255   255 255 255   255 255 255   255 255 255   255 255 255   255 255 255   255 255 255   255 255 255   255 255 255   255 255 255   255 255 255   255 255 255   255 255 255   255 255 255   255 255 255   255 255 255   255 255 255   255 255 255   255 255 255   255 255 255   255 255 255   255 255 255   255 255 255   255 255 255   255 255 255   255 255 255   255 255 255   255 255 255   255 255 255   255 255 255   255 255 255   255 255 255   255 255 255   255 255 255   255 255 255   255 255 255   255 255 255   255 255 255   255 255 255   255 255 255   255 255 255   255 255 255   255 255 255   255 255 255   255 255 255   255 255 255   255 255 255   255 255 255   255 255 255   255 255 255   255 255 255   255 255 255   255 255 255   255 255 255   255 255 255   255 255 255   255 255 255   255 255 255   255 255 255   255 255 255   255 255 255   255 255 255   255 255 255   255 255 255   255 255 255   255 255 255   255 255 255   255 255 255   255 255 255   255 255 255   255 255 255   255 255 255   255 255 255   255 255 255   255 255 255   255 255 255   255 255 255   255 255 255   255 255 255   255 255 255   255 255 255   255 255 255   255 255 255   255 255 255   255 255 255   255 255 255   255 255 255   255 255 255   255 255 255   255 255 255   255 255 255   255 255 255   255 255 255   255 255 255   255 255 255   255 255 255   255 255 255   255 255 255   255 255 255   255 255 255   255 255 255   255 255 255   255 255 255   255 255 255   255 255 255   255 255 255   255 255 255   255 255 255   255 255 255   255 255 255   255 255 255   255 255 255   255 255 255   255 255 255   255 255 255   255 255 255   255 255 255   255 255 255   255 255 255   255 255 255   255 255 255   255 255 255   255 255 255   255 255 255   255 255 255   255 255 255   255 255 255   255 255 255   255 255 255   255 255 255   255 255 255   255 255 255   255 255 255   255 255 255   255 255 255   255 255 255   255 255 255   255 255 255   255 255 255   255 255 255   255 255 255   255 255 255   255 255 255   255 255 255   255 255 255   255 255 255   255 255 255   255 255 255   255 255 255   255 255 255   255 255 255   255 255 255   255 255 255   255 255 255   255 255 255   255 255 255   255 255 255   255 255 255   255 255 255   255 255 255   255 255 255   255 255 255   255 255 255   255 255 255   255 255 255   255 255 255   255 255 255   255 255 255   255 255 255   255 255 255   255 255 255   255 255 255   255 255 255   255 255 255   255 255 255   255 255 255   255 255 255   255 255 255   255 255 255   255 255 255   255 255 255   255 255 255   255 255 255   255 255 255   255 255 255   255 255 255   255 255 255   255 255 255   255 255 255   255 255 255   255 255 255   255 255 255   255 255 255   255 255 255   255 255 255   255 255 255   255 255 255   255 255 255   255 255 255   255 255 255   255 255 255   255 255 255   255 255 255   255 255 255   255 255 255   255 255 255   255 255 255   255 255 255   255 255 255   255 255 255   255 255 255   255 255 255   255 255 255   255 255 255   255 255 255   255 255 255   255 255 255   255 255 255   255 255 255   255 255 255   255 255 255   255 255 255   255 255 255   255 255 255   255 255 255
255 255 255   255 255 255   255 255 255   255 255 255   255 255 255   255 255 255   255 255 255   255 255 255   255 255 255   255 255 255   255 255 255   255 255 255   255 255 255   255 255 255   255 255 255   255 255 255   255 255 255   255 255 255   255 255 255   255 255 255   255 255 255   255 255 255   255 255 255   255 255 255   255 255 255   255 255 255   255 255 255   255 255 255   255 255 255   255 255 255   255 255 255   255 255 255   255 255 255   255 255 255   255 255 255   255 255 255   255 255 255   255 255 255   255 255 255   255 255 255   255 255 255   255 255 255   255 255 255   255 255 255   255 255 255   255 255 255   255 255 255   255 255 255   255 255 255   255 255 255   255 255 255   255 255 255   255 255 255   255 255 255   255 255 255   255 255 255   255 255 255   255 255 255   255 255 255   255 255 255   255 255 255   255 255 255   255 255 255   255 255 255   255 255 255   255 255 255   255 255 255   255 255 255   255 255 255   255 255 255   255 255 255   255 255 255   255 255 255   255 255 255   255 255 255   255 255 255   255 255 255   255 255 255   255 255 255   255 255 255   255 255 255   255 255 255   255 255 255   255 255 255   255 255 255   255 255 255   255 255 255   255 255 255   255 255 255   255 255 255   255 255 255   255 255 255   255 255 255   255 255 255   255 255 255   255 255 255   255 255 255   255 255 255   255 255 255   255 255 255   255 255 255   255 255 255   255 255 255   255 255 255   255 255 255   255 255 255   255 255 255   255 255 255   255 255 255   255 255 255   255 255 255   255 255 255   255 255 255   255 255 255   255 255 255   255 255 255   255 255 255   255 255 255   255 255 255   255 255 255   255 255 255   255 255 255   255 255 255   255 255 255   255 255 255   255 255 255   255 255 255   255 255 255   255 255 255   255 255 255   255 255 255   255 255 255   255 255 255   255 255 255   255 255 255   255 255 255   255 255 255   255 255 255   255 255 255   255 255 255   255 255 255   255 255 255   255 255 255   255 255 255   255 255 255   255 255 255   255 255 255   255 255 255   255 255 255   255 255 255   255 255 255   255 255 255   255 255 255   255 255 255   255 255 255   255 255 255   255 255 255   255 255 255   255 255 255   255 255 255   255 255 255   255 255 255   255 255 255   255 255 255   255 255 255   255 255 255   255 255 255   255 255 255   255 255 255   255 255 255   255 255 255   255 255 255   255 255 255   255 255 255   255 255 255   255 255 255   255 255 255   255 255 255   255 255 255   255 255 255   255 255 255   255 255 255   255 255 255   255 255 255   255 255 255   255 255 255   255 255 255   255 255 255   255 255 255   255 255 255   255 255 255   255 255 255   255 255 255   255 255 255   255 255 255   255 255 255   255 255 255   255 255 255   255 255 255   255 255 255   255 255 255   255 255 255   255 255 255   255 255 255   255 255 255   255 255 255   255 255 255   255 255 255   255 255 255   255 255 255   255 255 255   255 255 255   255 255 255   255 255 255   255 255 255   255 255 255   255 255 255   255 255 255   255 255 255   255 255 255   255 255 255   255 255 255   255 255 255   255 255 255   255 255 255   255 255 255   255 255 255   255 255 255   255 255 255   255 255 255   255 255 255   255 255 255   255 255 255   255 255 255   255 255 255   255 255 255   255 255 255   255 255 255   255 255 255   255 255 255   255 255 255   255 255 255   255 255 255   255 255 255   255 255 255   255 255 255   255 255 255   255 255 255   255 255 255   255 255 255   255 255 255   255 255 255   255 255 255   255 255 255   255 255 255   255 255 255
255 255 255   255 255 255   255 255 255   255 255 255   255 255 255   255 255 255   255 255 255   255 255 255   255 255 255   255 255 255   255 255 255   255 255 255   255 255 255   255 255 255   255 255 255   255 255 255   255 255 255   255 255 255   255 255 255   255 255 255   255 255 255   255 255 255   255 255 255   255 255 255   255 255 255   255 255 255   255 255 255   255 255 255   255 255 255   255 255 255   255 255 255   255 255 255   255 255 255   255 255 255   255 255 255   255 255 255   255 255 255   255 255 255   255 255 255   255 255 255   255 255 255   255 255 255   255 255 255   255 255 255   255 255 255   255 255 255   255 255 255   255 255 255   255 255 255   255 255 255   255 255 255   255 255 255   255 255 255   255 255 255   255 255 255   255 255 255   255 255 255   255 255 255   255 255 255   255 255 255   255 255 255   255 255 255   255 255 255   255 255 255   255 255 255   255 255 255   255 255 255   255 255 255   255 255 255   255 255 255   255 255 255   255 255 255   255 255 255   255 255 255   255 255 255   255 255 255   255 255 255   255 255 255   255 255 255   255 255 255   255 255 255   255 255 255   255 255 255   255 255 255   255 255 255   255 255 255   255 255 255   255 255 255   255 255 255   255 255 255   255 255 255   255 255 255   255 255 255   255 255 255   255 255 255   255 255 255   255 255 255   255 255 255   255 255 255   255 255 255   255 255 255   255 255 255   255 255 255   255 255 255   255 255 255   255 255 255   255 255 255   255 255 255   255 255 255   255 255 255   255 255 255   255 255 255   255 255 255   255 255 255   255 255 255   255 255 255   255 255 255   255 255 255   255 255 255   255 255 255   255 255 255   255 255 255   255 255 255   255 255 255   255 255 255   255 255 255   255 255 255   255 255 255   255 255 255   255 255 255   255 255 255   255 255 255   255 255 255   255 255 255   255 255 255   255 255 255   255 255 255   255 255 255   255 255 255   255 255 255   255 255 255   255 255 255   255 255 255   255 255 255   255 255 255   255 255 255   255 255 255   255 255 255   255 255 255   255 255 255   255 255 255   255 255 255   255 255 255   255 255 255   255 255 255   255 255 255   255 255 255   255 255 255   255 255 255   255 255 255   255 255 255   255 255 255   255 255 255   255 255 255   255 255 255   255 255 255   255 255 255   255 255 255   255 255 255   255 255 255   255 255 255   255 255 255   255 255 255   255 255 255   255 255 255   255 255 255   255 255 255   255 255 255   255 255 255   255 255 255   255 255 255   255 255 255   255 255 255   255 255 255   255 255 255   255 255 255   255 255 255   255 255 255   255 255 255   255 255 255   255 255 255   255 255 255   255 255 255   255 255 255   255 255 255   255 255 255   255 255 255   255 255 255   255 255 255   255 255 255   255 255 255   255 255 255   255 255 255   255 255 255   255 255 255   255 255 255   255 255 255   255 255 255   255 255 255   255 255 255   255 255 255   255 255 255   255 255 255   255 255 255   255 255 255   255 255 255   255 255 255   255 255 255   255 255 255   255 255 255   255 255 255   255 255 255   255 255 255   255 255 255   255 255 255   255 255 255   255 255 255   255 255 255   255 255 255   255 255 255   255 255 255   255 255 255   255 255 255   255 255 255   255 255 255   255 255 255   255 255 255   255 255 255   255 255 255   255 255 255   255 255 255   255 255 255   255 255 255   255 255 255   255 255 255   255 255 255   255 255 255   255 255 255   255 255 255   255 255 255   255 255 255   255 255 255   255 255 255   255 255 255   255 255 255   255 255 255
255 255 255   255 255 255   255 255 255   255 255 255   255 255 255   255 255 255   255 255 255   255 255 255   255 255 255   255 255 255   255 255 255   255 255 255   255 255 255   255 255 255   255 255 255   255 255 255   255 255 255   255 255 255   255 255 255   255 255 255   255 255 255   255 255 255   255 255 255   255 255 255   255 255 255   255 255 255   255 255 255   255 255 255   255 255 255   255 255 255   255 255 255   255 255 255   255 255 255   255 255 255   255 255 255   255 255 255   255 255 255   255 255 255   255 255 255   255 255 255   255 255 255   255 255 255   255 255 255   255 255 255   255 255 255   255 255 255   255 255 255   255 255 255   255 255 255   255 255 255   255 255 255   255 255 255   255 255 255   255 255 255   255 255 255   255 255 255   255 255 255   255 255 255   255 255 255   255 255 255   255 255 255   255 255 255   255 255 255   255 255 255   255 255 255   255 255 255   255 255 255   255 255 255   255 255 255   255 255 255   255 255 255   255 255 255   255 255 255   255 255 255   255 255 255   255 255 255   255 255 255   255 255 255   255 255 255   255 255 255   255 255 255   255 255 255   255 255 255   255 255 255   255 255 255   255 255 255   255 255 255   255 255 255   255 255 255   255 255 255   255 255 255   255 255 255   255 255 255   255 255 255   255 255 255   255 255 255   255 255 255   255 255 255   255 255 255   255 255 255   255 255 255   255 255 255   255 255 255   255 255 255   255 255 255   255 255 255   255 255 255   255 255 255   255 255 255   255 255 255   255 255 255   255 255 255   255 255 255   255 255 255   255 255 255   255 255 255   255 255 255   255 255 255   255 255 255   255 255 255   255 255 255   255 255 255   255 255 255   255 255 255   255 255 255   255 255 255   255 255 255   255 255 255   255 255 255   255 255 255   255 255 255   255 255 255   255 255 255   255 255 255   255 255 255   255 255 255   255 255 255   255 255 255   255 255 255   255 255 255   255 255 255   255 255 255   255 255 255   255 255 255   255 255 255   255 255 255   255 255 255   255 255 255   255 255 255   255 255 255   255 255 255   255 255 255   255 255 255   255 255 255   255 255 255   255 255 255   255 255 255   255 255 255   255 255 255   255 255 255   255 255 255   255 255 255   255 255 255   255 255 255   255 255 255   255 255 255   255 255 255   255 255 255   255 255 255   255 255 255   255 255 255   255 255 255   255 255 255   255 255 255   255 255 255   255 255 255   255 255 255   255 255 255   255 255 255   255 255 255   255 255 255   255 255 255   255 255 255   255 255 255   255 255 255   255 255 255   255 255 255   255 255 255   255 255 255   255 255 255   255 255 255   255 255 255   255 255 255   255 255 255   255 255 255   255 255 255   255 255 255   255 255 255   255 255 255   255 255 255   255 255 255   255 255 255   255 255 255   255 255 255   255 255 255   255 255 255   255 255 255   255 255 255   255 255 255   255 255 255   255 255 255   255 255 255   255 255 255   255 255 255   255 255 255   255 255 255   255 255 255   255 255 255   255 255 255   255 255 255   255 255 255   255 255 255   255 255 255   255 255 255   255 255 255   255 255 255   255 255 255   255 255 255   255 255 255   255 255 255   255 255 255   255 255 255   255 255 255   255 255 255   255 255 255   255 255 255   255 255 255   255 255 255   255 255 255   255 255 255   255 255 255   255 255 255   255 255 255   255 255 255   255 255 255   255 255 255   255 255 255   255 255 255   255 255 255   255 255 255   255 255 255   255 255 255   255 255 255   255 255 255   255 255 255   255 255 255
255 255 255   255 255 255   255 255 255   255 255 255   255 255 255   255 255 255   255 255 255   255 255 255   255 255 255   255 255 255   255 255 255   255 255 255   255 255 255   255 255 255   255 255 255   255 255 255   255 255 255   255 255 255   255 255 255   255 255 255   255 255 255   255 255 255   255 255 255   255 255 255   255 255 255   255 255 255   255 255 255   255 255 255   255 255 255   255 255 255   255 255 255   255 255 255   255 255 255   255 255 255   255 255 255   255 255 255   255 255 255   255 255 255   255 255 255   255 255 255   255 255 255   255 255 255   255 255 255   255 255 255   255 255 255   255 255 255   255 255 255   255 255 255   255 255 255   255 255 255   255 255 255   255 255 255   255 255 255   255 255 255   255 255 255   255 255 255   255 255 255   255 255 255   255 255 255   255 255 255   255 255 255   255 255 255   255 255 255   255 255 255   255 255 255   255 255 255   255 255 255   255 255 255   255 255 255   255 255 255   255 255 255   255 255 255   255 255 255   255 255 255   255 255 255   255 255 255   255 255 255   255 255 255   255 255 255   255 255 255   255 255 255   255 255 255   255 255 255   255 255 255   255 255 255   255 255 255   255 255 255   255 255 255   255 255 255   255 255 255   255 255 255   255 255 255   255 255 255   255 255 255   255 255 255   255 255 255   255 255 255   255 255 255   255 255 255   255 255 255   255 255 255   255 255 255   255 255 255   255 255 255   255 255 255   255 255 255   255 255 255   255 255 255   255 255 255   255 255 255   255 255 255   255 255 255   255 255 255   255 255 255   255 255 255   255 255 255   255 255 255   255 255 255   255 255 255   255 255 255   255 255 255   255 255 255   255 255 255   255 255 255   255 255 255   255 255 255   255 255 255   255 255 255   255 255 255   255 255 255   255 255 255   255 255 255   255 255 255   255 255 255   255 255 255   255 255 255   255 255 255   255 255 255   255 255 255   255 255 255   255 255 255   255 255 255   255 255 255   255 255 255   255 255 255   255 255 255   255 255 255   255 255 255   255 255 255   255 255 255   255 255 255   255 255 255   255 255 255   255 255 255   255 255 255   255 255 255   255 255 255   255 255 255   255 255 255   255 255 255   255 255 255   255 255 255   255 255 255   255 255 255   255 255 255   255 255 255   255 255 255   255 255 255   255 255 255   255 255 255   255 255 255   255 255 255   255 255 255   255 255 255   255 255 255   255 255 255   255 255 255   255 255 255   255 255 255   255 255 255   255 255 255   255 255 255   255 255 255   255 255 255   255 255 255   255 255 255   255 255 255   255 255 255   255 255 255   255 255 255   255 255 255   255 255 255   255 255 255   255 255 255   255 255 255   255 255 255   255 255 255   255 255 255   255 255 255   255 255 255   255 255 255   255 255 255   255 255 255   255 255 255   255 255 255   255 255 255   255 255 255   255 255 255   255 255 255   255 255 255   255 255 255   255 255 255   255 255 255   255 255 255   255 255 255   255 255 255   255 255 255   255 255 255   255 255 255   255 255 255   255 255 255   255 255 255   255 255 255   255 255 255   255 255 255   255 255 255   255 255 255   255 255 255   255 255 255   255 255 255   255 255 255   255 255 255   255 255 255   255 255 255   255 255 255   255 255 255   255 255 255   255 255 255   255 255 255   255 255 255   255 255 255   255 255 255   255 255 255   255 255 255   255 255 255   255 255 255   255 255 255   255 255 255   255 255 255   255 255 255   255 255 255   255 255 255   255 255 255   255 255 255   255 255 255   255 255 255
255 255 255   255 255 255   255 255 255   255 255 255   255 255 255   255 255 255   255 255 255   255 255 255   255 255 255   255 255 255   255 255 255   255 255 255   255 255 255   255 255 255   255 255 255   255 255 255   255 255 255   255 255 255   255 255 255   255 255 255   255 255 255   255 255 255   255 255 255   255 255 255   255 255 255   255 255 255   255 255 255   255 255 255   255 255 255   255 255 255   255 255 255   255 255 255   255 255 255   255 255 255   255 255 255   255 255 255   255 255 255   255 255 255   255 255 255   255 255 255   255 255 255   255 255 255   255 255 255   255 255 255   255 255 255   255 255 255   255 255 255   255 255 255   255 255 255   255 255 255   255 255 255   255 255 255   255 255 255   255 255 255   255 255 255   255 255 255   255 255 255   255 255 255   255 255 255   255 255 255   255 255 255   255 255 255   255 255 255   255 255 255   255 255 255   255 255 255   255 255 255   255 255 255   255 255 255   255 255 255   255 255 255   255 255 255   255 255 255   255 255 255   255 255 255   255 255 255   255 255 255   255 255 255   255 255 255   255 255 255   255 255 255   255 255 255   255 255 255   255 255 255   255 255 255   255 255 255   255 255 255   255 255 255   255 255 255   255 255 255   255 255 255   255 255 255   255 255 255   255 255 255   255 255 255   255 255 255   255 255 255   255 255 255   255 255 255   255 255 255   255 255 255   255 255 255   255 255 255   255 255 255   255 255 255   255 255 255   255 255 255   255 255 255   255 255 255   255 255 255   255 255 255   255 255 255   255 255 255   255 255 255   255 255 255   255 255 255   255 255 255   255 255 255   255 255 255   255 255 255   255 255 255   255 255 255   255 255 255   255 255 255   255 255 255   255 255 255   255 255 255   255 255 255   255 255 255   255 255 255   255 255 255   255 255 255   255 255 255   255 255 255   255 255 255   255 255 255   255 255 255   255 255 255   255 255 255   255 255 255   255 255 255   255 255 255   255 255 255   255 255 255   255 255 255   255 255 255   255 255 255   255 255 255   255 255 255   255 255 255   255 255 255   255 255 255   255 255 255   255 255 255   255 255 255   255 255 255   255 255 255   255 255 255   255 255 255   255 255 255   255 255 255   255 255 255   255 255 255   255 255 255   255 255 255   255 255 255   255 255 255   255 255 255   255 255 255   255 255 255   255 255 255   255 255 255   255 255 255   255 255 255   255 255 255   255 255 255   255 255 255   255 255 255   255 255 255   255 255 255   255 255 255   255 255 255   255 255 255   255 255 255   255 255 255   255 255 255   255 255 255   255 255 255   255 255 255   255 255 255   255 255 255   255 255 255   255 255 255   255 255 255   255 255 255   255 255 255   255 255 255   255 255 255   255 255 255   255 255 255   255 255 255   255 255 255   255 255 255   255 255 255   255 255 255   255 255 255   255 255 255   255 255 255   255 255 255   255 255 255   255 255 255   255 255 255   255 255 255   255 255 255   255 255 255   255 255 255   255 255 255   255 255 255   255 255 255   255 255 255   255 255 255   255 255 255   255 255 255   255 255 255   255 255 255   255 255 255   255 255 255   255 255 255   255 255 255   255 255 255   255 255 255   255 255 255   255 255 255   255 255 255   255 255 255   255 255 255   255 255 255   255 255 255   255 255 255   255 255 255   255 255 255   255 255 255   255 255 255   255 255 255   255 255 255   255 255 255   255 255 255   255 255 255   255 255 255   255 255 255   255 255 255   255 255 255   255 255 255   255 255 255   255 255 255   255 255 255
255 255 255   255 255 255   255 255 255   255 255 255   255 255 255   255 255 255   255 255 255   255 255 255   255 255 255   255 255 255   255 255 255   255 255 255   255 255 255   255 255 255   255 255 255   255 255 255   255 255 255   255 255 255   255 255 255   255 255 255   255 255 255   255 255 255   255 255 255   255 255 255   255 255 255   255 255 255   255 255 255   255 255 255   255 255 255   255 255 255   255 255 255   255 255 255   255 255 255   255 255 255   255 255 255   255 255 255   255 255 255   255 255 255   255 255 255   255 255 255   255 255 255   255 255 255   255 255 255   255 255 255   255 255 255   255 255 255   255 255 255   255 255 255   255 255 255   255 255 255   255 255 255   255 255 255   255 255 255   255 255 255   255 255 255   255 255 255   255 255 255   255 255 255   255 255 255   255 255 255   255 255 255   255 255 255   255 255 255   255 255 255   255 255 255   255 255 255   255 255 255   255 255 255   255 255 255   255 255 255   255 255 255   255 255 255   255 255 255   255 255 255   255 255 255   255 255 255   255 255 255   255 255 255   255 255 255   255 255 255   255 255 255   255 255 255   255 255 255   255 255 255   255 255 255   255 255 255   255 255 255   255 255 255   255 255 255   255 255 255   255 255 255   255 255 255   255 255 255   255 255 255   255 255 255   255 255 255   255 255 255   255 255 255   255 255 255   255 255 255   255 255 255   255 255 255   255 255 255   255 255 255   255 255 255   255 255 255   255 255 255   255 255 255   255 255 255   255 255 255   255 255 255   255 255 255   255 255 255   255 255 255   255 255 255   255 255 255   255 255 255   255 255 255   255 255 255   255 255 255   255 255 255   255 255 255   255 255 255   255 255 255   255 255 255   255 255 255   255 255 255   255 255 255   255 255 255   255 255 255   255 255 255   255 255 255   255 255 255   255 255 255   255 255 255   255 255 255   255 255 255   255 255 255   255 255 255   255 255 255   255 255 255   255 255 255   255 255 255   255 255 255   255 255 255   255 255 255   255 255 255   255 255 255   255 255 255   255 255 255   255 255 255   255 255 255   255 255 255   255 255 255   255 255 255   255 255 255   255 255 255   255 255 255   255 255 255   255 255 255   255 255 255   255 255 255   255 255 255   255 255 255   255 255 255   255 255 255   255 255 255   255 255 255   255 255 255   255 255 255   255 255 255   255 255 255   255 255 255   255 255 255   255 255 255   255 255 255   255 255 255   255 255 255   255 255 255   255 255 255   255 255 255   255 255 255   255 255 255   255 255 255   255 255 255   255 255 255   255 255 255   255 255 255   255 255 255   255 255 255   255 255 255   255 255 255   255 255 255   255 255 255   255 255 255   255 255 255   255 255 255   255 255 255   255 255 255   255 255 255   255 255 255   255 255 255   255 255 255   255 255 255   255 255 255   255 255 255   255 255 255   255 255 255   255 255 255   255 255 255   255 255 255   255 255 255   255 255 255   255 255 255   255 255 255   255 255 255   255 255 255   255 255 255   255 255 255   255 255 255   255 255 255   255 255 255   255 255 255   255 255 255   255 255 255   255 255 255   255 255 255   255 255 255   255 255 255   255 255 255   255 255 255   255 255 255   255 255 255   255 255 255   255 255 255   255 255 255   255 255 255   255 255 255   255 255 255   255 255 255   255 255 255   255 255 255   255 255 255   255 255 255   255 255 255   255 255 255   255 255 255   255 255 255   255 255 255   255 255 255   255 255 255   255 255 255   255 255 255   255 255 255   255 255 255   255 255 255
255 255 255   255 255 255   255 255 255   255 255 255   255 255 255   255 255 255   255 255 255   255 255 255   255 255 255   255 255 255   255 255 255   255 255 255   255 255 255   255 255 255   255 255 255   255 255 255   255 255 255   255 255 255   255 255 255   255 255 255   255 255 255   255 255 255   255 255 255   255 255 255   255 255 255   255 255 255   255 255 255   255 255 255   255 255 255   255 255 255   255 255 255   255 255 255   255 255 255   255 255 255   255 255 255   255 255 255   255 255 255   255 255 255   255 255 255   255 255 255   255 255 255   255 255 255   255 255 255   255 255 255   255 255 255   255 255 255   255 255 255   255 255 255   255 255 255   255 255 255   255 255 255   255 255 255   255 255 255   255 255 255   255 255 255   255 255 255   255 255 255   255 255 255   255 255 255   255 255 255   255 255 255   255 255 255   255 255 255   255 255 255   255 255 255   255 255 255   255 255 255   255 255 255   255 255 255   255 255 255   255 255 255   255 255 255   255 255 255   255 255 255   255 255 255   255 255 255   255 255 255   255 255 255   255 255 255   255 255 255   255 255 255   255 255 255   255 255 255   255 255 255   255 255 255   255 255 255   255 255 255   255 255 255   255 255 255   255 255 255   255 255 255   255 255 255   255 255 255   255 255 255   255 255 255   255 255 255   255 255 255   255 255 255   255 255 255   255 255 255   255 255 255   255 255 255   255 255 255   255 255 255   255 255 255   255 255 255   255 255 255   255 255 255   255 255 255   255 255 255   255 255 255   255 255 255   255 255 255   255 255 255   255 255 255   255 255 255   255 255 255   255 255 255   255 255 255   255 255 255   255 255 255   255 255 255   255 255 255   255 255 255   255 255 255   255 255 255   255 255 255   255 255 255   255 255 255   255 255 255   255 255 255   255 255 255   255 255 255   255 255 255   255 255 255   255 255 255   255 255 255   255 255 255   255 255 255   255 255 255   255 255 255   255 255 255   255 255 255   255 255 255   255 255 255   255 255 255   255 255 255   255 255 255   255 255 255   255 255 255   255 255 255   255 255 255   255 255 255   255 255 255   255 255 255   255 255 255   255 255 255   255 255 255   255 255 255   255 255 255   255 255 255   255 255 255   255 255 255   255 255 255   255 255 255   255 255 255   255 255 255   255 255 255   255 255 255   255 255 255   255 255 255   255 255 255   255 255 255   255 255 255   255 255 255   255 255 255   255 255 255   255 255 255   255 255 255   255 255 255   255 255 255   255 255 255   255 255 255   255 255 255   255 255 255   255 255 255   255 255 255   255 255 255   255 255 255   255 255 255   255 255 255   255 255 255   255 255 255   255 255 255   255 255 255   255 255 255   255 255 255   255 255 255   255 255 255   255 255 255   255 255 255   255 255 255   255 255 255   255 255 255   255 255 255   255 255 255   255 255 255   255 255 255   255 255 255   255 255 255   255 255 255   255 255 255   255 255 255   255 255 255   255 255 255   255 255 255   255 255 255   255 255 255   255 255 255   255 255 255   255 255 255   255 255 255   255 255 255   255 255 255   255 255 255   255 255 255   255 255 255   255 255 255   255 255 255   255 255 255   255 255 255   255 255 255   255 255 255   255 255 255   255 255 255   255 255 255   255 255 255   255 255 255   255 255 255   255 255 255   255 255 255   255 255 255   255 255 255   255 255 255   255 255 255   255 255 255   255 255 255   255 255 255   255 255 255   255 255 255   255 255 255   255 255 255   255 255 255   255 255 255   255 255 255   255 255 255
255 255 255   255 255 255   255 255 255   255 255 255   255 255 255   255 255 255   255 255 255   255 255 255   255 255 255   255 255 255   255 255 255   255 255 255   255 255 255   255 255 255   255 255 255   255 255 255   255 255 255   255 255 255   255 255 255   255 255 255   255 255 255   255 255 255   255 255 255   255 255 255   255 255 255   255 255 255   255 255 255   255 255 255   255 255 255   255 255 255   255 255 255   255 255 255   255 255 255   255 255 255   255 255 255   255 255 255   255 255 255   255 255 255   255 255 255   255 255 255   255 255 255   255 255 255   255 255 255   255 255 255   255 255 255   255 255 255   255 255 255   255 255 255   255 255 255   255 255 255   255 255 255   255 255 255   255 255 255   255 255 255   255 255 255   255 255 255   255 255 255   255 255 255   255 255 255   255 255 255   255 255 255   255 255 255   255 255 255   255 255 255   255 255 255   255 255 255   255 255 255   255 255 255   255 255 255   255 255 255   255 255 255   255 255 255   255 255 255   255 255 255   255 255 255   255 255 255   255 255 255   255 255 255   255 255 255   255 255 255   255 255 255   255 255 255   255 255 255   255 255 255   255 255 255   255 255 255   255 255 255   255 255 255   255 255 255   255 255 255   255 255 255   255 255 255   255 255 255   255 255 255   255 255 255   255 255 255   255 255 255   255 255 255   255 255 255   255 255 255   255 255 255   255 255 255   255 255 255   255 255 255   255 255 255   255 255 255   255 255 255   255 255 255   255 255 255   255 255 255   255 255 255   255 255 255   255 255 255   255 255 255   255 255 255   255 255 255   255 255 255   255 255 255   255 255 255   255 255 255   255 255 255   255 255 255   255 255 255   255 255 255   255 255 255   255 255 255   255 255 255   255 255 255   255 255 255   255 255 255   255 255 255   255 255 255   255 255 255   255 255 255   255 255 255   255 255 255   255 255 255   255 255 255   255 255 255   255 255 255   255 255 255   255 255 255   255 255 255   255 255 255   255 255 255   255 255 255   255 255 255   255 255 255   255 255 255   255 255 255   255 255 255   255 255 255   255 255 255   255 255 255   255 255 255   255 255 255   255 255 255   255 255 255   255 255 255   255 255 255   255 255 255   255 255 255   255 255 255   255 255 255   255 255 255   255 255 255   255 255 255   255 255 255   255 255 255   255 255 255   255 255 255   255 255 255   255 255 255   255 255 255   255 255 255   255 255 255   255 255 255   255 255 255   255 255 255   255 255 255   255 255 255   255 255 255   255 255 255   255 255 255   255 255 255   255 255 255   255 255 255   255 255 255   255 255 255   255 255 255   255 255 255   255 255 255   255 255 255   255 255 255   255 255 255   255 255 255   255 255 255   255 255 255   255 255 255   255 255 255   255 255 255   255 255 255   255 255 255   255 255 255   255 255 255   255 255 255   255 255 255   255 255 255   255 255 255   255 255 255   255 255 255   255 255 255   255 255 255   255 255 255   255 255 255   255 255 255   255 255 255   255 255 255   255 255 255   255 255 255   255 255 255   255 255 255   255 255 255   255 255 255   255 255 255   255 255 255   255 255 255   255 255 255   255 255 255   255 255 255   255 255 255   255 255 255   255 255 255   255 255 255   255 255 255   255 255 255   255 255 255   255 255 255   255 255 255   255 255 255   255 255 255   255 255 255   255 255 255   255 255 255   255 255 255   255 255 255   255 255 255   255 255 255   255 255 255   255 255 255   255 255 255   255 255 255   255 255 255   255 255 255   255 255 255   255 255 255
255 255 255   255 255 255   255 255 255   255 255 255   255 255 255   255 255 255   255 255 255   255 255 255   255 255 255   255 255 255   255 255 255   255 255 255   255 255 255   255 255 255   255 255 255   255 255 255   255 255 255   255 255 255   255 255 255   255 255 255   255 255 255   255 255 255   255 255 255   255 255 255   255 255 255   255 255 255   255 255 255   255 255 255   255 255 255   255 255 255   255 255 255   255 255 255   255 255 255   255 255 255   255 255 255   255 255 255   255 255 255   255 255 255   255 255 255   255 255 255   255 255 255   255 255 255   255 255 255   255 255 255   255 255 255   255 255 255   255 255 255   255 255 255   255 255 255   255 255 255   255 255 255   255 255 255   255 255 255   255 255 255   255 255 255   255 255 255   255 255 255   255 255 255   255 255 255   255 255 255   255 255 255   255 255 255   255 255 255   255 255 255   255 255 255   255 255 255   255 255 255   255 255 255   255 255 255   255 255 255   255 255 255   255 255 255   255 255 255   255 255 255   255 255 255   255 255 255   255 255 255   255 255 255   255 255 255   255 255 255   255 255 255   255 255 255   255 255 255   255 255 255   255 255 255   255 255 255   255 255 255   255 255 255   255 255 255   255 255 255   255 255 255   255 255 255   255 255 255   255 255 255   255 255 255   255 255 255   255 255 255   255 255 255   255 255 255   255 255 255   255 255 255   255 255 255   255 255 255   255 255 255   255 255 255   255 255 255   255 255 255   255 255 255   255 255 255   255 255 255   255 255 255   255 255 255   255 255 255   255 255 255   255 255 255   255 255 255   255 255 255   255 255 255   255 255 255   255 255 255   255 255 255   255 255 255   255 255 255   255 255 255   255 255 255   255 255 255   255 255 255   255 255 255   255 255 255   255 255 255   255 255 255   255 255 255   255 255 255   255 255 255   255 255 255   255 255 255   255 255 255   255 255 255   255 255 255   255 255 255   255 255 255   255 255 255   255 255 255   255 255 255   255 255 255   255 255 255   255 255 255   255 255 255   255 255 255   255 255 255   255 255 255   255 255 255   255 255 255   255 255 255   255 255 255   255 255 255   255 255 255   255 255 255   255 255 255   255 255 255   255 255 255   255 255 255   255 255 255   255 255 255   255 255 255   255 255 255   255 255 255   255 255 255   255 255 255   255 255 255   255 255 255   255 255 255   255 255 255   255 255 255   255 255 255   255 255 255   255 255 255   255 255 255   255 255 255   255 255 255   255 255 255   255 255 255   255 255 255   255 255 255   255 255 255   255 255 255   255 255 255   255 255 255   255 255 255   255 255 255   255 255 255   255 255 255   255 255 255   255 255 255   255 255 255   255 255 255   255 255 255   255 255 255   255 255 255   255 255 255   255 255 255   255 255 255   255 255 255   255 255 255   255 255 255   255 255 255   255 255 255   255 255 255   255 255 255   255 255 255   255 255 255   255 255 255   255 255 255   255 255 255   255 255 255   255 255 255   255 255 255   255 255 255   255 255 255   255 255 255   255 255 255   255 255 255   255 255 255   255 255 255   255 255 255   255 255 255   255 255 255   255 255 255   255 255 255   255 255 255   255 255 255   255 255 255   255 255 255   255 255 255   255 255 255   255 255 255   255 255 255   255 255 255   255 255 255   255 255 255   255 255 255   255 255 255   255 255 255   255 255 255   255 255 255   255 255 255   255 255 255   255 255 255   255 255 255   255 255 255   255 255 255   255 255 255   255 255 255   255 255 255   255 255 255   255 255 255
255 255 255   255 255 255   255 255 255   255 255 255   255 255 255   255 255 255   255 255 255   255 255 255   255 255 255   255 255 255   255 255 255   255 255 255   255 255 255   255 255 255   255 255 255   255 255 255   255 255 255   255 255 255   255 255 255   255 255 255   255 255 255   255 255 255   255 255 255   255 255 255   255 255 255   255 255 255   255 255 255   255 255 255   255 255 255   255 255 255   255 255 255   255 255 255   255 255 255   255 255 255   255 255 255   255 255 255   255 255 255   255 255 255   255 255 255   255 255 255   255 255 255   255 255 255   255 255 255   255 255 255   255 255 255   255 255 255   255 255 255   255 255 255   255 255 255   255 255 255   255 255 255   255 255 255   255 255 255   255 255 255   255 255 255   255 255 255   255 255 255   255 255 255   255 255 255   255 255 255   255 255 255   255 255 255   255 255 255   255 255 255   255 255 255   255 255 255   255 255 255   255 255 255   255 255 255   255 255 255   255 255 255   255 255 255   255 255 255   255 255 255   255 255 255   255 255 255   255 255 255   255 255 255   255 255 255   255 255 255   255 255 255   255 255 255   255 255 255   255 255 255   255 255 255   255 255 255   255 255 255   255 255 255   255 255 255   255 255 255   255 255 255   255 255 255   255 255 255   255 255 255   255 255 255   255 255 255   255 255 255   255 255 255   255 255 255   255 255 255   255 255 255   255 255 255   255 255 255   255 255 255   255 255 255   255 255 255   255 255 255   255 255 255   255 255 255   255 255 255   255 255 255   255 255 255   255 255 255   255 255 255   255 255 255   255 255 255   255 255 255   255 255 255   255 255 255   255 255 255   255 255 255   255 255 255   255 255 255   255 255 255   255 255 255   255 255 255   255 255 255   255 255 255   255 255 255   255 255 255   255 255 255   255 255 255   255 255 255   255 255 255   255 255 255   255 255 255   255 255 255   255 255 255   255 255 255   255 255 255   255 255 255   255 255 255   255 255 255   255 255 255   255 255 255   255 255 255   255 255 255   255 255 255   255 255 255   255 255 255   255 255 255   255 255 255   255 255 255   255 255 255   255 255 255   255 255 255   255 255 255   255 255 255   255 255 255   255 255 255   255 255 255   255 255 255   255 255 255   255 255 255   255 255 255   255 255 255   255 255 255   255 255 255   255 255 255   255 255 255   255 255 255   255 255 255   255 255 255   255 255 255   255 255 255   255 255 255   255 255 255   255 255 255   255 255 255   255 255 255   255 255 255   255 255 255   255 255 255   255 255 255   255 255 255   255 255 255   255 255 255   255 255 255   255 255 255   255 255 255   255 255 255   255 255 255   255 255 255   255 255 255   255 255 255   255 255 255   255 255 255   255 255 255   255 255 255   255 255 255   255 255 255   255 255 255   255 255 255   255 255 255   255 255 255   255 255 255   255 255 255   255 255 255   255 255 255   255 255 255   255 255 255   255 255 255   255 255 255   255 255 255   255 255 255   255 255 255   255 255 255   255 255 255   255 255 255   255 255 255   255 255 255   255 255 255   255 255 255   255 255 255   255 255 255   255 255 255   255 255 255   255 255 255   255 255 255   255 255 255   255 255 255   255 255 255   255 255 255   255 255 255   255 255 255   255 255 255   255 255 255   255 255 255   255 255 255   255 255 255   255 255 255   255 255 255   255 255 255   255 255 255   255 255 255   255 255 255   255 255 255   255 255 255   255 255 255   255 255 255   255 255 255   255 255 255   255 255 255   255 255 255   255 255 255   255 255 255
255 255 255   255 255 255   255 255 255   255 255 255   255 255 255   255 255 255   255 255 255   255 255 255   255 255 255   255 255 255   255 255 255   255 255 255   255 255 255   255 255 255   255 255 255   255 255 255   255 255 255   255 255 255   255 255 255   255 255 255   255 255 255   255 255 255   255 255 255   255 255 255   255 255 255   255 255 255   255 255 255   255 255 255   255 255 255   255 255 255   255 255 255   255 255 255   255 255 255   255 255 255   255 255 255   255 255 255   255 255 255   255 255 255   255 255 255   255 255 255   255 255 255   255 255 255   255 255 255   255 255 255   255 255 255   255 255 255   255 255 255   255 255 255   255 255 255   255 255 255   255 255 255   255 255 255   255 255 255   255 255 255   255 255 255   255 255 255   255 255 255   255 255 255   255 255 255   255 255 255   255 255 255   255 255 255   255 255 255   255 255 255   255 255 255   255 255 255   255 255 255   255 255 255   255 255 255   255 255 255   255 255 255   255 255 255   255 255 255   255 255 255   255 255 255   255 255 255   255 255 255   255 255 255   255 255 255   255 255 255   255 255 255   255 255 255   255 255 255   255 255 255   255 255 255   255 255 255   255 255 255   255 255 255   255 255 255   255 255 255   255 255 255   255 255 255   255 255 255   255 255 255   255 255 255   255 255 255   255 255 255   255 255 255   255 255 255   255 255 255   255 255 255   255 255 255   255 255 255   255 255 255   255 255 255   255 255 255   255 255 255   255 255 255   255 255 255   255 255 255   255 255 255   255 255 255   255 255 255   255 255 255   255 255 255   255 255 255   255 255 255   255 255 255   255 255 255   255 255 255   255 255 255   255 255 255   255 255 255   255 255 255   255 255 255   255 255 255   255 255 255   255 255 255   255 255 255   255 255 255   255 255 255   255 255 255   255 255 255   255 255 255   255 255 255   255 255 255   255 255 255   255 255 255   255 255 255   255 255 255   255 255 255   255 255 255   255 255 255   255 255 255   255 255 255   255 255 255   255 255 255   255 255 255   255 255 255   255 255 255   255 255 255   255 255 255   255 255 255   255 255 255   255 255 255   255 255 255   255 255 255   255 255 255   255 255 255   255 255 255   255 255 255   255 255 255   255 255 255   255 255 255   255 255 255   255 255 255   255 255 255   255 255 255   255 255 255   255 255 255   255 255 255   255 255 255   255 255 255   255 255 255   255 255 255   255 255 255   255 255 255   255 255 255   255 255 255   255 255 255   255 255 255   255 255 255   255 255 255   255 255 255   255 255 255   255 255 255   255 255 255   255 255 255   255 255 255   255 255 255   255 255 255   255 255 255   255 255 255   255 255 255   255 255 255   255 255 255   255 255 255   255 255 255   255 255 255   255 255 255   255 255 255   255 255 255   255 255 255   255 255 255   255 255 255   255 255 255   255 255 255   255 255 255   255 255 255   255 255 255   255 255 255   255 255 255   255 255 255   255 255 255   255 255 255   255 255 255   255 255 255   255 255 255   255 255 255   255 255 255   255 255 255   255 255 255   255 255 255   255 255 255   255 255 255   255 255 255   255 255 255   255 255 255   255 255 255   255 255 255   255 255 255   255 255 255   255 255 255   255 255 255   255 255 255   255 255 255   255 255 255   255 255 255   255 255 255   255 255 255   255 255 255   255 255 255   255 255 255   255 255 255   255 255 255   255 255 255   255 255 255   255 255 255   255 255 255   255 255 255   255 255 255   255 255 255   255 255 255   255 255 255   255 255 255   255 255 255
255 255 255   255 255 255   255 255 255   255 255 255   255 255 255   255 255 255   255 255 255   255 255 255   255 255 255   255 255 255   255 255 255   255 255 255   255 255 255   255 255 255   255 255 255   255 255 255   255 255 255   255 255 255   255 255 255   255 255 255   255 255 255   255 255 255   255 255 255   255 255 255   255 255 255   255 255 255   255 255 255   255 255 255   255 255 255   255 255 255   255 255 255   255 255 255   255 255 255   255 255 255   255 255 255   255 255 255   255 255 255   255 255 255   255 255 255   255 255 255   255 255 255   255 255 255   255 255 255   255 255 255   255 255 255   255 255 255   255 255 255   255 255 255   255 255 255   255 255 255   255 255 255   255 255 255   255 255 255   255 255 255   255 255 255   255 255 255   255 255 255   255 255 255   255 255 255   255 255 255   255 255 255   255 255 255   255 255 255   255 255 255   255 255 255   255 255 255   255 255 255   255 255 255   255 255 255   255 255 255   255 255 255   255 255 255   255 255 255   255 255 255   255 255 255   255 255 255   255 255 255   255 255 255   255 255 255   255 255 255   255 255 255   255 255 255   255 255 255   255 255 255   255 255 255   255 255 255   255 255 255   255 255 255   255 255 255   255 255 255   255 255 255   255 255 255   255 255 255   255 255 255   255 255 255   255 255 255   255 255 255   255 255 255   255 255 255   255 255 255   255 255 255   255 255 255   255 255 255   255 255 255   255 255 255   255 255 255   255 255 255   255 255 255   255 255 255   255 255 255   255 255 255   255 255 255   255 255 255   255 255 255   255 255 255   255 255 255   255 255 255   255 255 255   255 255 255   255 255 255   255 255 255   255 255 255   255 255 255   255 255 255   255 255 255   255 255 255   255 255 255   255 255 255   255 255 255   255 255 255   255 255 255   255 255 255   255 255 255   255 255 255   255 255 255   255 255 255   255 255 255   255 255 255   255 255 255   255 255 255   255 255 255   255 255 255   255 255 255   255 255 255   255 255 255   255 255 255   255 255 255   255 255 255   255 255 255   255 255 255   255 255 255   255 255 255   255 255 255   255 255 255   255 255 255   255 255 255   255 255 255   255 255 255   255 255 255   255 255 255   255 255 255   255 255 255   255 255 255   255 255 255   255 255 255   255 255 255   255 255 255   255 255 255   255 255 255   255 255 255   255 255 255   255 255 255   255 255 255   255 255 255   255 255 255   255 255 255   255 255 255   255 255 255   255 255 255   255 255 255   255 255 255   255 255 255   255 255 255   255 255 255   255 255 255   255 255 255   255 255 255   255 255 255   255 255 255   255 255 255   255 255 255   255 255 255   255 255 255   255 255 255   255 255 255   255 255 255   255 255 255   255 255 255   255 255 255   255 255 255   255 255 255   255 255 255   255 255 255   255 255 255   255 255 255   255 255 255   255 255 255   255 255 255   255 255 255   255 255 255   255 255 255   255 255 255   255 255 255   255 255 255   255 255 255   255 255 255   255 255 255   255 255 255   255 255 255   255 255 255   255 255 255   255 255 255   255 255 255   255 255 255   255 255 255   255 255 255   255 255 255   255 255 255   255 255 255   255 255 255   255 255 255   255 255 255   255 255 255   255 255 255   255 255 255   255 255 255   255 255 255   255 255 255   255 255 255   255 255 255   255 255 255   255 255 255   255 255 255   255 255 255   255 255 255   255 255 255   255 255 255   255 255 255   255 255 255   255 255 255   255 255 255   255 255 255   255 255 255   255 255 255   255 255 255   255 255 255
255 255 255   255 255 255   255 255 255   255 255 255   255 255 255   255 255 255   255 255 255   255 255 255   255 255 255   255 255 255   255 255 255   255 255 255   255 255 255   255 255 255   255 255 255   255 255 255   255 255 255   255 255 255   255 255 255   255 255 255   255 255 255   255 255 255   255 255 255   255 255 255   255 255 255   255 255 255   255 255 255   255 255 255   255 255 255   255 255 255   255 255 255   255 255 255   255 255 255   255 255 255   255 255 255   255 255 255   255 255 255   255 255 255   255 255 255   255 255 255   255 255 255   255 255 255   255 255 255   255 255 255   255 255 255   255 255 255   255 255 255   255 255 255   255 255 255   255 255 255   255 255 255   255 255 255   255 255 255   255 255 255   255 255 255   255 255 255   255 255 255   255 255 255   255 255 255   255 255 255   255 255 255   255 255 255   255 255 255   255 255 255   255 255 255   255 255 255   255 255 255   255 255 255   255 255 255   255 255 255   255 255 255   255 255 255   255 255 255   255 255 255   255 255 255   255 255 255   255 255 255   255 255 255   255 255 255   255 255 255   255 255 255   255 255 255   255 255 255   255 255 255   255 255 255   255 255 255   255 255 255   255 255 255   255 255 255   255 255 255   255 255 255   255 255 255   255 255 255   255 255 255   255 255 255   255 255 255   255 255 255   255 255 255   255 255 255   255 255 255   255 255 255   255 255 255   255 255 255   255 255 255   255 255 255   255 255 255   255 255 255   255 255 255   255 255 255   255 255 255   255 255 255   255 255 255   255 255 255   255 255 255   255 255 255   255 255 255   255 255 255   255 255 255   255 255 255   255 255 255   255 255 255   255 255 255   255 255 255   255 255 255   255 255 255   255 255 255   255 255 255   255 255 255   255 255 255   255 255 255   255 255 255   255 255 255   255 255 255   255 255 255   255 255 255   255 255 255   255 255 255   255 255 255   255 255 255   255 255 255   255 255 255   255 255 255   255 255 255   255 255 255   255 255 255   255 255 255   255 255 255   255 255 255   255 255 255   255 255 255   255 255 255   255 255 255   255 255 255   255 255 255   255 255 255   255 255 255   255 255 255   255 255 255   255 255 255   255 255 255   255 255 255   255 255 255   255 255 255   255 255 255   255 255 255   255 255 255   255 255 255   255 255 255   255 255 255   255 255 255   255 255 255   255 255 255   255 255 255   255 255 255   255 255 255   255 255 255   255 255 255   255 255 255   255 255 255   255 255 255   255 255 255   255 255 255   255 255 255   255 255 255   255 255 255   255 255 255   255 255 255   255 255 255   255 255 255   255 255 255   255 255 255   255 255 255   255 255 255   255 255 255   255 255 255   255 255 255   255 255 255   255 255 255   255 255 255   255 255 255   255 255 255   255 255 255   255 255 255   255 255 255   255 255 255   255 255 255   255 255 255   255 255 255   255 255 255   255 255 255   255 255 255   255 255 255   255 255 255   255 255 255   255 255 255   255 255 255   255 255 255   255 255 255   255 255 255   255 255 255   255 255 255   255 255 255   255 255 255   255 255 255   255 255 255   255 255 255   255 255 255   255 255 255   255 255 255   255 255 255   255 255 255   255 255 255   255 255 255   255 255 255   255 255 255   255 255 255   255 255 255   255 255 255   255 255 255   255 255 255   255 255 255   255 255 255   255 255 255   255 255 255   255 255 255   255 255 255   255 255 255   255 255 255   255 255 255   255 255 255   255 255 255   255 255 255   255 255 255   255 255 255   255 255 255   255 255 255
255 255 255   255 255 255   255 255 255   255 255 255   255 255 255   255 255 255   255 255 255   255 255 255   255 255 255   255 255 255   255 255 255   255 255 255   255 255 255   255 255 255   255 255 255   255 255 255   255 255 255   255 255 255   255 255 255   255 255 255   255 255 255   255 255 255   255 255 255   255 255 255   255 255 255   255 255 255   255 255 255   255 255 255   255 255 255   255 255 255   255 255 255   255 255 255   255 255 255   255 255 255   255 255 255   255 255 255   255 255 255   255 255 255   255 255 255   255 255 255   255 255 255   255 255 255   255 255 255   255 255 255   255 255 255   255 255 255   255 255 255   255 255 255   255 255 255   255 255 255   255 255 255   255 255 255   255 255 255   255 255 255   255 255 255   255 255 255   255 255 255   255 255 255   255 255 255   255 255 255   255 255 255   255 255 255   255 255 255   255 255 255   255 255 255   255 255 255   255 255 255   255 255 255   255 255 255   255 255 255   255 255 255   255 255 255   255 255 255   255 255 255   255 255 255   255 255 255   255 255 255   255 255 255   255 255 255   255 255 255   255 255 255   255 255 255   255 255 255   255 255 255   255 255 255   255 255 255   255 255 255   255 255 255   255 255 255   255 255 255   255 255 255   255 255 255   255 255 255   255 255 255   255 255 255   255 255 255   255 255 255   255 255 255   255 255 255   255 255 255   255 255 255   255 255 255   255 255 255   255 255 255   255 255 255   255 255 255   255 255 255   255 255 255   255 255 255   255 255 255   255 255 255   255 255 255   255 255 255   255 255 255   255 255 255   255 255 255   255 255 255   255 255 255   255 255 255   255 255 255   255 255 255   255 255 255   255 255 255   255 255 255   255 255 255   255 255 255   255 255 255   255 255 255   255 255 255   255 255 255   255 255 255   255 255 255   255 255 255   255 255 255   255 255 255   255 255 255   255 255 255   255 255 255   255 255 255   255 255 255   255 255 255   255 255 255   255 255 255   255 255 255   255 255 255   255 255 255   255 255 255   255 255 255   255 255 255   255 255 255   255 255 255   255 255 255   255 255 255   255 255 255   255 255 255   255 255 255   255 255 255   255 255 255   255 255 255   255 255 255   255 255 255   255 255 255   255 255 255   255 255 255   255 255 255   255 255 255   255 255 255   255 255 255   255 255 255   255 255 255   255 255 255   255 255 255   255 255 255   255 255 255   255 255 255   255 255 255   255 255 255   255 255 255   255 255 255   255 255 255   255 255 255   255 255 255   255 255 255   255 255 255   255 255 255   255 255 255   255 255 255   255 255 255   255 255 255   255 255 255   255 255 255   255 255 255   255 255 255   255 255 255   255 255 255   255 255 255   255 255 255   255 255 255   255 255 255   255 255 255   255 255 255   255 255 255   255 255 255   255 255 255   255 255 255   255 255 255   255 255 255   255 255 255   255 255 255   255 255 255   255 255 255   255 255 255   255 255 255   255 255 255   255 255 255   255 255 255   255 255 255   255 255 255   255 255 255   255 255 255   255 255 255   255 255 255   255 255 255   255 255 255   255 255 255   255 255 255   255 255 255   255 255 255   255 255 255   255 255 255   255 255 255   255 255 255   255 255 255   255 255 255   255 255 255   255 255 255   255 255 255   255 255 255   255 255 255   255 255 255   255 255 255   255 255 255   255 255 255   255 255 255   255 255 255   255 255 255   255 255 255   255 255 255   255 255 255   255 255 255   255 255 255   255 255 255   255 255 255   255 255 255   255 255 255   255 255 255
255 255 255   255 255 255   255 255 255   255 255 255   255 255 255   255 255 255   255 255 255   255 255 255   255 255 255   255 255 255   255 255 255   255 255 255   255 255 255   255 255 255   255 255 255   255 255 255   255 255 255   255 255 255   255 255 255   255 255 255   255 255 255   255 255 255   255 255 255   255 255 255   255 255 255   255 255 255   255 255 255   255 255 255   255 255 255   255 255 255   255 255 255   255 255 255   255 255 255   255 255 255   255 255 255   255 255 255   255 255 255   255 255 255   255 255 255   255 255 255   255 255 255   255 255 255   255 255 255   255 255 255   255 255 255   255 255 255   255 255 255   255 255 255   255 255 255   255 255 255   255 255 255   255 255 255   255 255 255   255 255 255   255 255 255   255 255 255   255 255 255   255 255 255   255 255 255   255 255 255   255 255 255   255 255 255   255 255 255   255 255 255   255 255 255   255 255 255   255 255 255   255 255 255   255 255 255   255 255 255   255 255 255   255 255 255   255 255 255   255 255 255   255 255 255   255 255 255   255 255 255   255 255 255   255 255 255   255 255 255   255 255 255   255 255 255   255 255 255   255 255 255   255 255 255   255 255 255   255 255 255   255 255 255   255 255 255   255 255 255   255 255 255   255 255 255   255 255 255   255 255 255   255 255 255   255 255 255   255 255 255   255 255 255   255 255 255   255 255 255   255 255 255   255 255 255   255 255 255   255 255 255   255 255 255   255 255 255   255 255 255   255 255 255   255 255 255   255 255 255   255 255 255   255 255 255   255 255 255   255 255 255   255 255 255   255 255 255   255 255 255   255 255 255   255 255 255   255 255 255   255 255 255   255 255 255   255 255 255   255 255 255   255 255 255   255 255 255   255 255 255   255 255 255   255 255 255   255 255 255   255 255 255   255 255 255   255 255 255   255 255 255   255 255 255   255 255 255   255 255 255   255 255 255   255 255 255   255 255 255   255 255 255   255 255 255   255 255 255   255 255 255   255 255 255   255 255 255   255 255 255   255 255 255   255 255 255   255 255 255   255 255 255   255 255 255   255 255 255   255 255 255   255 255 255   255 255 255   255 255 255   255 255 255   255 255 255   255 255 255   255 255 255   255 255 255   255 255 255   255 255 255   255 255 255   255 255 255   255 255 255   255 255 255   255 255 255   255 255 255   255 255 255   255 255 255   255 255 255   255 255 255   255 255 255   255 255 255   255 255 255   255 255 255   255 255 255   255 255 255   255 255 255   255 255 255   255 255 255   255 255 255   255 255 255   255 255 255   255 255 255   255 255 255   255 255 255   255 255 255   255 255 255   255 255 255   255 255 255   255 255 255   255 255 255   255 255 255   255 255 255   255 255 255   255 255 255   255 255 255   255 255 255   255 255 255   255 255 255   255 255 255   255 255 255   255 255 255   255 255 255   255 255 255   255 255 255   255 255 255   255 255 255   255 255 255   255 255 255   255 255 255   255 255 255   255 255 255   255 255 255   255 255 255   255 255 255   255 255 255   255 255 255   255 255 255   255 255 255   255 255 255   255 255 255   255 255 255   255 255 255   255 255 255   255 255 255   255 255 255   255 255 255   255 255 255   255 255 255   255 255 255   255 255 255   255 255 255   255 255 255   255 255 255   255 255 255   255 255 255   255 255 255   255 255 255   255 255 255   255 255 255   255 255 255   255 255 255   255 255 255   255 255 255   255 255 255   255 255 255   255 255 255   255 255 255   255 255 255   255 255 255   255 255 255   255 255 255
255 255 255   255 255 255   255 255 255   255 255 255   255 255 255   255 255 255   255 255 255   255 255 255   255 255 255   255 255 255   255 255 255   255 255 255   255 255 255   255 255 255   255 255 255   255 255 255   255 255 255   255 255 255   255 255 255   255 255 255   255 255 255   255 255 255   255 255 255   255 255 255   255 255 255   255 255 255   255 255 255   255 255 255   255 255 255   255 255 255   255 255 255   255 255 255   255 255 255   255 255 255   255 255 255   255 255 255   255 255 255   255 255 255   255 255 255   255 255 255   255 255 255   255 255 255   255 255 255   255 255 255   255 255 255   255 255 255   255 255 255   255 255 255   255 255 255   255 255 255   255 255 255   255 255 255   255 255 255   255 255 255   255 255 255   255 255 255   255 255 255   255 255 255   255 255 255   255 255 255   255 255 255   255 255 255   255 255 255   255 255 255   255 255 255   255 255 255   255 255 255   255 255 255   255 255 255   255 255 255   255 255 255   255 255 255   255 255 255   255 255 255   255 255 255   255 255 255   255 255 255   255 255 255   255 255 255   255 255 255   255 255 255   255 255 255   255 255 255   255 255 255   255 255 255   255 255 255   255 255 255   255 255 255   255 255 255   255 255 255   255 255 255   255 255 255   255 255 255   255 255 255   255 255 255   255 255 255   255 255 255   255 255 255   255 255 255   255 255 255   255 255 255   255 255 255   255 255 255   255 255 255   255 255 255   255 255 255   255 255 255   255 255 255   255 255 255   255 255 255   255 255 255   255 255 255   255 255 255   255 255 255   255 255 255   255 255 255   255 255 255   255 255 255   255 255 255   255 255 255   255 255 255   255 255 255   255 255 255   255 255 255   255 255 255   255 255 255   255 255 255   255 255 255   255 255 255   255 255 255   255 255 255   255 255 255   255 255 255   255 255 255   255 255 255   255 255 255   255 255 255   255 255 255   255 255 255   255 255 255   255 255 255   255 255 255   255 255 255   255 255 255   255 255 255   255 255 255   255 255 255   255 255 255   255 255 255   255 255 255   255 255 255   255 255 255   255 255 255   255 255 255   255 255 255   255 255 255   255 255 255   255 255 255   255 255 255   255 255 255   255 255 255   255 255 255   255 255 255   255 255 255   255 255 255   255 255 255   255 255 255   255 255 255   255 255 255   255 255 255   255 255 255   255 255 255   255 255 255   255 255 255   255 255 255   255 255 255   255 255 255   255 255 255   255 255 255   255 255 255   255 255 255   255 255 255   255 255 255   255 255 255   255 255 255   255 255 255   255 255 255   255 255 255   255 255 255   255 255 255   255 255 255   255 255 255   255 255 255   255 255 255   255 255 255   255 255 255   255 255 255   255 255 255   255 255 255   255 255 255   255 255 255   255 255 255   255 255 255   255 255 255   255 255 255   255 255 255   255 255 255   255 255 255   255 255 255   255 255 255   255 255 255   255 255 255   255 255 255   255 255 255   255 255 255   255 255 255   255 255 255   255 255 255   255 255 255   255 255 255   255 255 255   255 255 255   255 255 255   255 255 255   255 255 255   255 255 255   255 255 255   255 255 255   255 255 255   255 255 255   255 255 255   255 255 255   255 255 255   255 255 255   255 255 255   255 255 255   255 255 255   255 255 255   255 255 255   255 255 255   255 255 255   255 255 255   255 255 255   255 255 255   255 255 255   255 255 255   255 255 255   255 255 255   255 255 255   255 255 255   255 255 255   255 255 255   255 255 255   255 255 255   255 255 255   255 255 255
255 255 255   255 255 255   255 255 255   255 255 255   255 255 255   255 255 255   255 255 255   255 255 255   255 255 255   255 255 255   255 255 255   255 255 255   255 255 255   255 255 255   255 255 255   255 255 255   255 255 255   255 255 255   255 255 255   255 255 255   255 255 255   255 255 255   255 255 255   255 255 255   255 255 255   255 255 255   255 255 255   255 255 255   255 255 255   255 255 255   255 255 255   255 255 255   255 255 255   255 255 255   255 255 255   255 255 255   255 255 255   255 255 255   255 255 255   255 255 255   255 255 255   255 255 255   255 255 255   255 255 255   255 255 255   255 255 255   255 255 255   255 255 255   255 255 255   255 255 255   255 255 255   255 255 255   255 255 255   255 255 255   255 255 255   255 255 255   255 255 255   255 255 255   255 255 255   255 255 255   255 255 255   255 255 255   255 255 255   255 255 255   255 255 255   255 255 255   255 255 255   255 255 255   255 255 255   255 255 255   255 255 255   255 255 255   255 255 255   255 255 255   255 255 255   255 255 255   255 255 255   255 255 255   255 255 255   255 255 255   255 255 255   255 255 255   255 255 255   255 255 255   255 255 255   255 255 255   255 255 255   255 255 255   255 255 255   255 255 255   255 255 255   255 255 255   255 255 255   255 255 255   255 255 255   255 255 255   255 255 255   255 255 255   255 255 255   255 255 255   255 255 255   255 255 255   255 255 255   255 255 255   255 255 255   255 255 255   255 255 255   255 255 255   255 255 255   255 255 255   255 255 255   255 255 255   255 255 255   255 255 255   255 255 255   255 255 255   255 255 255   255 255 255   255 255 255   255 255 255   255 255 255   255 255 255   255 255 255   255 255 255   255 255 255   255 255 255   255 255 255   255 255 255   255 255 255   255 255 255   255 255 255   255 255 255   255 255 255   255 255 255   255 255 255   255 255 255   255 255 255   255 255 255   255 255 255   255 255 255   255 255 255   255 255 255   255 255 255   255 255 255   255 255 255   255 255 255   255 255 255   255 255 255   255 255 255   255 255 255   255 255 255   255 255 255   255 255 255   255 255 255   255 255 255   255 255 255   255 255 255   255 255 255   255 255 255   255 255 255   255 255 255   255 255 255   255 255 255   255 255 255   255 255 255   255 255 255   255 255 255   255 255 255   255 255 255   255 255 255   255 255 255   255 255 255   255 255 255   255 255 255   255 255 255   255 255 255   255 255 255   255 255 255   255 255 255   255 255 255   255 255 255   255 255 255   255 255 255   255 255 255   255 255 255   255 255 255   255 255 255   255 255 255   255 255 255   255 255 255   255 255 255   255 255 255   255 255 255   255 255 255   255 255 255   255 255 255   255 255 255   255 255 255   255 255 255   255 255 255   255 255 255   255 255 255   255 255 255   255 255 255   255 255 255   255 255 255   255 255 255   255 255 255   255 255 255   255 255 255   255 255 255   255 255 255   255 255 255   255 255 255   255 255 255   255 255 255   255 255 255   255 255 255   255 255 255   255 255 255   255 255 255   255 255 255   255 255 255   255 255 255   255 255 255   255 255 255   255 255 255   255 255 255   255 255 255   255 255 255   255 255 255   255 255 255   255 255 255   255 255 255   255 255 255   255 255 255   255 255 255   255 255 255   255 255 255   255 255 255   255 255 255   255 255 255   255 255 255   255 255 255   255 255 255   255 255 255   255 255 255   255 255 255   255 255 255   255 255 255   255 255 255   255 255 255   255 255 255   255 255 255   255 255 255   255 255 255
255 255 255   255 255 255   255 255 255   255 255 255   255 255 255   255 255 255   255 255 255   255 255 255   255 255 255   255 255 255   255 255 255   255 255 255   255 255 255   255 255 255   255 255 255   255 255 255   255 255 255   255 255 255   255 255 255   255 255 255   255 255 255   255 255 255   255 255 255   255 255 255   255 255 255   255 255 255   255 255 255   255 255 255   255 255 255   255 255 255   255 255 255   255 255 255   255 255 255   255 255 255   255 255 255   255 255 255   255 255 255   255 255 255   255 255 255   255 255 255   255 255 255   255 255 255   255 255 255   255 255 255   255 255 255   255 255 255   255 255 255   255 255 255   255 255 255   255 255 255   255 255 255   255 255 255   255 255 255   255 255 255   255 255 255   255 255 255   255 255 255   255 255 255   255 255 255   255 255 255   255 255 255   255 255 255   255 255 255   255 255 255   255 255 255   255 255 255   255 255 255   255 255 255   255 255 255   255 255 255   255 255 255   255 255 255   255 255 255   255 255 255   255 255 255   255 255 255   255 255 255   255 255 255   255 255 255   255 255 255   255 255 255   255 255 255   255 255 255   255 255 255   255 255 255   255 255 255   255 255 255   255 255 255   255 255 255   255 255 255   255 255 255   255 255 255   255 255 255   255 255 255   255 255 255   255 255 255   255 255 255   255 255 255   255 255 255   255 255 255   255 255 255   255 255 255   255 255 255   255 255 255   255 255 255   255 255 255   255 255 255   255 255 255   255 255 255   255 255 255   255 255 255   255 255 255   255 255 255   255 255 255   255 255 255   255 255 255   255 255 255   255 255 255   255 255 255   255 255 255   255 255 255   255 255 255   255 255 255   255 255 255   255 255 255   255 255 255   255 255 255   255 255 255   255 255 255   255 255 255   255 255 255   255 255 255   255 255 255   255 255 255   255 255 255   255 255 255   255 255 255   255 255 255   255 255 255   255 255 255   255 255 255   255 255 255   255 255 255   255 255 255   255 255 255   255 255 255   255 255 255   255 255 255   255 255 255   255 255 255   255 255 255   255 255 255   255 255 255   255 255 255   255 255 255   255 255 255   255 255 255   255 255 255   255 255 255   255 255 255   255 255 255   255 255 255   255 255 255   255 255 255   255 255 255   255 255 255   255 255 255   255 255 255   255 255 255   255 255 255   255 255 255   255 255 255   255 255 255   255 255 255   255 255 255   255 255 255   255 255 255   255 255 255   255 255 255   255 255 255   255 255 255   255 255 255   255 255 255   255 255 255   255 255 255   255 255 255   255 255 255   255 255 255   255 255 255   255 255 255   255 255 255   255 255 255   255 255 255   255 255 255   255 255 255   255 255 255   255 255 255   255 255 255   255 255 255   255 255 255   255 255 255   255 255 255   255 255 255   255 255 255   255 255 255   255 255 255   255 255 255   255 255 255   255 255 255   255 255 255   255 255 255   255 255 255   255 255 255   255 255 255   255 255 255   255 255 255   255 255 255   255 255 255   255 255 255   255 255 255   255 255 255   255 255 255   255 255 255   255 255 255   255 255 255   255 255 255   255 255 255   255 255 255   255 255 255   255 255 255   255 255 255   255 255 255   255 255 255   255 255 255   255 255 255   255 255 255   255 255 255   255 255 255   255 255 255   255 255 255   255 255 255   255 255 255   255 255 255   255 255 255   255 255 255   255 255 255   255 255 255   255 255 255   255 255 255   255 255 255   255 255 255   255 255 255   255 255 255   255 255 255   255 255 255   255 255 255
255 255 255   255 255 255   255 255 255   255 255 255   255 255 255   255 255 255   255 255 255   255 255 255   255 255 255   255 255 255   255 255 255   255 255 255   255 255 255   255 255 255   255 255 255   255 255 255   255 255 255   255 255 255   255 255 255   255 255 255   255 255 255   255 255 255   255 255 255   255 255 255   255 255 255   255 255 255   255 255 255   255 255 255   255 255 255   255 255 255   255 255 255   255 255 255   255 255 255   255 255 255   255 255 255   255 255 255   255 255 255   255 255 255   255 255 255   255 255 255   255 255 255   255 255 255   255 255 255   255 255 255   255 255 255   255 255 255   255 255 255   255 255 255   255 255 255   255 255 255   255 255 255   255 255 255   255 255 255   255 255 255   255 255 255   255 255 255   255 255 255   255 255 255   255 255 255   255 255 255   255 255 255   255 255 255   255 255 255   255 255 255   255 255 255   255 255 255   255 255 255   255 255 255   255 255 255   255 255 255   255 255 255   255 255 255   255 255 255   255 255 255   255 255 255   255 255 255   255 255 255   255 255 255   255 255 255   255 255 255   255 255 255   255 255 255   255 255 255   255 255 255   255 255 255   255 255 255   255 255 255   255 255 255   255 255 255   255 255 255   255 255 255   255 255 255   255 255 255   255 255 255   255 255 255   255 255 255   255 255 255   255 255 255   255 255 255   255 255 255   255 255 255   255 255 255   255 255 255   255 255 255   255 255 255   255 255 255   255 255 255   255 255 255   255 255 255   255 255 255   255 255 255   255 255 255   255 255 255   255 255 255   255 255 255   255 255 255   255 255 255   255 255 255   255 255 255   255 255 255   255 255 255   255 255 255   255 255 255   255 255 255   255 255 255   255 255 255   255 255 255   255 255 255   255 255 255   255 255 255   255 255 255   255 255 255   255 255 255   255 255 255   255 255 255   255 255 255   255 255 255   255 255 255   255 255 255   255 255 255   255 255 255   255 255 255   255 255 255   255 255 255   255 255 255   255 255 255   255 255 255   255 255 255   255 255 255   255 255 255   255 255 255   255 255 255   255 255 255   255 255 255   255 255 255   255 255 255   255 255 255   255 255 255   255 255 255   255 255 255   255 255 255   255 255 255   255 255 255   255 255 255   255 255 255   255 255 255   255 255 255   255 255 255   255 255 255   255 255 255   255 255 255   255 255 255   255 255 255   255 255 255   255 255 255   255 255 255   255 255 255   255 255 255   255 255 255   255 255 255   255 255 255   255 255 255   255 255 255   255 255 255   255 255 255   255 255 255   255 255 255   255 255 255   255 255 255   255 255 255   255 255 255   255 255 255   255 255 255   255 255 255   255 255 255   255 255 255   255 255 255   255 255 255   255 255 255   255 255 255   255 255 255   255 255 255   255 255 255   255 255 255   255 255 255   255 255 255   255 255 255   255 255 255   255 255 255   255 255 255   255 255 255   255 255 255   255 255 255   255 255 255   255 255 255   255 255 255   255 255 255   255 255 255   255 255 255   255 255 255   255 255 255   255 255 255   255 255 255   255 255 255   255 255 255   255 255 255   255 255 255   255 255 255   255 255 255   255 255 255   255 255 255   255 255 255   255 255 255   255 255 255   255 255 255   255 255 255   255 255 255   255 255 255   255 255 255   255 255 255   255 255 255   255 255 255   255 255 255   255 255 255   255 255 255   255 255 255   255 255 255   255 255 255   255 255 255   255 255 255   255 255 255   255 255 255   255 255 255   255 255 255   255 255 255   255 255 255
255 255 255   255 255 255   255 255 255   255 255 255   255 255 255   255 255 255   255 255 255   255 255 255   255 255 255   255 255 255   255 255 255   255 255 255   255 255 255   255 255 255   255 255 255   255 255 255   255 255 255   255 255 255   255 255 255   255 255 255   255 255 255   255 255 255   255 255 255   255 255 255   255 255 255   255 255 255   255 255 255   255 255 255   255 255 255   255 255 255   255 255 255   255 255 255   255 255 255   255 255 255   255 255 255   255 255 255   255 255 255   255 255 255   255 255 255   255 255 255   255 255 255   255 255 255   255 255 255   255 255 255   255 255 255   255 255 255   255 255 255   255 255 255   255 255 255   255 255 255   255 255 255   255 255 255   255 255 255   255 255 255   255 255 255   255 255 255   255 255 255   255 255 255   255 255 255   255 255 255   255 255 255   255 255 255   255 255 255   255 255 255   255 255 255   255 255 255   255 255 255   255 255 255   255 255 255   255 255 255   255 255 255   255 255 255   255 255 255   255 255 255   255 255 255   255 255 255   255 255 255   255 255 255   255 255 255   255 255 255   255 255 255   255 255 255   255 255 255   255 255 255   255 255 255   255 255 255   255 255 255   255 255 255   255 255 255   255 255 255   255 255 255   255 255 255   255 255 255   255 255 255   255 255 255   255 255 255   255 255 255   255 255 255   255 255 255   255 255 255   255 255 255   255 255 255   255 255 255   255 255 255   255 255 255   255 255 255   255 255 255   255 255 255   255 255 255   255 255 255   255 255 255   255 255 255   255 255 255   255 255 255   255 255 255   255 255 255   255 255 255   255 255 255   255 255 255   255 255 255   255 255 255   255 255 255   255 255 255   255 255 255   255 255 255   255 255 255   255 255 255   255 255 255   255 255 255   255 255 255   255 255 255   255 255 255   255 255 255   255 255 255   255 255 255   255 255 255   255 255 255   255 255 255   255 255 255   255 255 255   255 255 255   255 255 255   255 255 255   255 255 255   255 255 255   255 255 255   255 255 255   255 255 255   255 255 255   255 255 255   255 255 255   255 255 255   255 255 255   255 255 255   255 255 255   255 255 255   255 255 255   255 255 255   255 255 255   255 255 255   255 255 255   255 255 255   255 255 255   255 255 255   255 255 255   255 255 255   255 255 255   255 255 255   255 255 255   255 255 255   255 255 255   255 255 255   255 255 255   255 255 255   255 255 255   255 255 255   255 255 255   255 255 255   255 255 255   255 255 255   255 255 255   255 255 255   255 255 255   255 255 255   255 255 255   255 255 255   255 255 255   255 255 255   255 255 255   255 255 255   255 255 255   255 255 255   255 255 255   255 255 255   255 255 255   255 255 255   255 255 255   255 255 255   255 255 255   255 255 255   255 255 255   255 255 255   255 255 255   255 255 255   255 255 255   255 255 255   255 255 255   255 255 255   255 255 255   255 255 255   255 255 255   255 255 255   255 255 255   255 255 255   255 255 255   255 255 255   255 255 255   255 255 255   255 255 255   255 255 255   255 255 255   255 255 255   255 255 255   255 255 255   255 255 255   255 255 255   255 255 255   255 255 255   255 255 255   255 255 255   255 255 255   255 255 255   255 255 255   255 255 255   255 255 255   255 255 255   255 255 255   255 255 255   255 255 255   255 255 255   255 255 255   255 255 255   255 255 255   255 255 255   255 255 255   255 255 255   255 255 255   255 255 255   255 255 255   255 255 255   255 255 255   255 255 255   255 255 255   255 255 255   255 255 255   255 255 255
255 255 255   255 255 255   255 255 255   255 255 255   255 255 255   255 255 255   255 255 255   255 255 255   255 255 255   255 255 255   255 255 255   255 255 255   255 255 255   255 255 255   255 255 255   255 255 255   255 255 255   255 255 255   255 255 255   255 255 255   255 255 255   255 255 255   255 255 255   255 255 255   255 255 255   255 255 255   255 255 255   255 255 255   255 255 255   255 255 255   255 255 255   255 255 255   255 255 255   255 255 255   255 255 255   255 255 255   255 255 255   255 255 255   255 255 255   255 255 255   255 255 255   255 255 255   255 255 255   255 255 255   255 255 255   255 255 255   255 255 255   255 255 255   255 255 255   255 255 255   255 255 255   255 255 255   255 255 255   255 255 255   255 255 255   255 255 255   255 255 255   255 255 255   255 255 255   255 255 255   255 255 255   255 255 255   255 255 255   255 255 255   255 255 255   255 255 255   255 255 255   255 255 255   255 255 255   255 255 255   255 255 255   255 255 255   255 255 255   255 255 255   255 255 255   255 255 255   255 255 255   255 255 255   255 255 255   255 255 255   255 255 255   255 255 255   255 255 255   255 255 255   255 255 255   255 255 255   255 255 255   255 255 255   255 255 255   255 255 255   255 255 255   255 255 255   255 255 255   255 255 255   255 255 255   255 255 255   255 255 255   255 255 255   255 255 255   255 255 255   255 255 255   255 255 255   255 255 255   255 255 255   255 255 255   255 255 255   255 255 255   255 255 255   255 255 255   255 255 255   255 255 255   255 255 255   255 255 255   255 255 255   255 255 255   255 255 255   255 255 255   255 255 255   255 255 255   255 255 255   255 255 255   255 255 255   255 255 255   255 255 255   255 255 255   255 255 255   255 255 255   255 255 255   255 255 255   255 255 255   255 255 255   255 255 255   255 255 255   255 255 255   255 255 255   255 255 255   255 255 255   255 255 255   255 255 255   255 255 255   255 255 255   255 255 255   255 255 255   255 255 255   255 255 255   255 255 255   255 255 255   255 255 255   255 255 255   255 255 255   255 255 255   255 255 255   255 255 255   255 255 255   255 255 255   255 255 255   255 255 255   255 255 255   255 255 255   255 255 255   255 255 255   255 255 255   255 255 255   255 255 255   255 255 255   255 255 255   255 255 255   255 255 255   255 255 255   255 255 255   255 255 255   255 255 255   255 255 255   255 255 255   255 255 255   255 255 255   255 255 255   255 255 255   255 255 255   255 255 255   255 255 255   255 255 255   255 255 255   255 255 255   255 255 255   255 255 255   255 255 255   255 255 255   255 255 255   255 255 255   255 255 255   255 255 255   255 255 255   255 255 255   255 255 255   255 255 255   255 255 255   255 255 255   255 255 255   255 255 255   255 255 255   255 255 255   255 255 255   255 255 255   255 255 255   255 255 255   255 255 255   255 255 255   255 255 255   255 255 255   255 255 255   255 255 255   255 255 255   255 255 255   255 255 255   255 255 255   255 255 255   255 255 255   255 255 255   255 255 255   255 255 255   255 255 255   255 255 255   255 255 255   255 255 255   255 255 255   255 255 255   255 255 255   255 255 255   255 255 255   255 255 255   255 255 255   255 255 255   255 255 255   255 255 255   255 255 255   255 255 255   255 255 255   255 255 255   255 255 255   255 255 255   255 255 255   255 255 255   255 255 255   255 255 255   255 255 255   255 255 255   255 255 255   255 255 255   255 255 255   255 255 255   255 255 255   255 255 255   255 255 255   255 255 255   255 255 255
255 255 255   255 255 255   255 255 255   255 255 255   255 255 255   255 255 255   255 255 255   255 255 255   255 255 255   255 255 255   255 255 255   255 255 255   255 255 255   255 255 255   255 255 255   255 255 255   255 255 255   255 255 255   255 255 255   255 255 255   255 255 255   255 255 255   255 255 255   255 255 255   255 255 255   255 255 255   255 255 255   255 255 255   255 255 255   255 255 255   255 255 255   255 255 255   255 255 255   255 255 255   255 255 255   255 255 255   255 255 255   255 255 255   255 255 255   255 255 255   255 255 255   255 255 255   255 255 255   255 255 255   255 255 255   255 255 255   255 255 255   255 255 255   255 255 255   255 255 255   255 255 255   255 255 255   255 255 255   255 255 255   255 255 255   255 255 255   255 255 255   255 255 255   255 255 255   255 255 255   255 255 255   255 255 255   255 255 255   255 255 255   255 255 255   255 255 255   255 255 255   255 255 255   255 255 255   255 255 255   255 255 255   255 255 255   255 255 255   255 255 255   255 255 255   255 255 255   255 255 255   255 255 255   255 255 255   255 255 255   255 255 255   255 255 255   255 255 255   255 255 255   255 255 255   255 255 255   255 255 255   255 255 255   255 255 255   255 255 255   255 255 255   255 255 255   255 255 255   255 255 255   255 255 255   255 255 255   255 255 255   255 255 255   255 255 255   255 255 255   255 255 255   255 255 255   255 255 255   255 255 255   255 255 255   255 255 255   255 255 255   255 255 255   255 255 255   255 255 255   255 255 255   255 255 255   255 255 255   255 255 255   255 255 255   255 255 255   255 255 255   255 255 255   255 255 255   255 255 255   255 255 255   255 255 255   255 255 255   255 255 255   255 255 255   255 255 255   255 255 255   255 255 255   255 255 255   255 255 255   255 255 255   255 255 255   255 255 255   255 255 255   255 255 255   255 255 255   255 255 255   255 255 255   255 255 255   255 255 255   255 255 255   255 255 255   255 255 255   255 255 255   255 255 255   255 255 255   255 255 255   255 255 255   255 255 255   255 255 255   255 255 255   255 255 255   255 255 255   255 255 255   255 255 255   255 255 255   255 255 255   255 255 255   255 255 255   255 255 255   255 255 255   255 255 255   255 255 255   255 255 255   255 255 255   255 255 255   255 255 255   255 255 255   255 255 255   255 255 255   255 255 255   255 255 255   255 255 255   255 255 255   255 255 255   255 255 255   255 255 255   255 255 255   255 255 255   255 255 255   255 255 255   255 255 255   255 255 255   255 255 255   255 255 255   255 255 255   255 255 255   255 255 255   255 255 255   255 255 255   255 255 255   255 255 255   255 255 255   255 255 255   255 255 255   255 255 255   255 255 255   255 255 255   255 255 255   255 255 255   255 255 255   255 255 255   255 255 255   255 255 255   255 255 255   255 255 255   255 255 255   255 255 255   255 255 255   255 255 255   255 255 255   255 255 255   255 255 255   255 255 255   255 255 255   255 255 255   255 255 255   255 255 255   255 255 255   255 255 255   255 255 255   255 255 255   255 255 255   255 255 255   255 255 255   255 255 255   255 255 255   255 255 255   255 255 255   255 255 255   255 255 255   255 255 255   255 255 255   255 255 255   255 255 255   255 255 255   255 255 255   255 255 255   255 255 255   255 255 255   255 255 255   255 255 255   255 255 255   255 255 255   255 255 255   255 255 255   255 255 255   255 255 255   255 255 255   255 255 255   255 255 255   255 255 255   255 255 255   255 255 255   255 255 255   255 255 255
255 255 255   255 255 255   255 255 255   255 255 255   255 255 255   255 255 255   255 255 255   255 255 255   255 255 255   255 255 255   255 255 255   255 255 255   255 255 255   255 255 255   255 255 255   255 255 255   255 255 255   255 255 255   255 255 255   255 255 255   255 255 255   255 255 255   255 255 255   255 255 255   255 255 255   255 255 255   255 255 255   255 255 255   255 255 255   255 255 255   255 255 255   255 255 255   255 255 255   255 255 255   255 255 255   255 255 255   255 255 255   255 255 255   255 255 255   255 255 255   255 255 255   255 255 255   255 255 255   255 255 255   255 255 255   255 255 255   255 255 255   255 255 255   255 255 255   255 255 255   255 255 255   255 255 255   255 255 255   255 255 255   255 255 255   255 255 255   255 255 255   255 255 255   255 255 255   255 255 255   255 255 255   255 255 255   255 255 255   255 255 255   255 255 255   255 255 255   255 255 255   255 255 255   255 255 255   255 255 255   255 255 255   255 255 255   255 255 255   255 255 255   255 255 255   255 255 255   255 255 255   255 255 255   255 255 255   255 255 255   255 255 255   255 255 255   255 255 255   255 255 255   255 255 255   255 255 255   255 255 255   255 255 255   255 255 255   255 255 255   255 255 255   255 255 255   255 255 255   255 255 255   255 255 255   255 255 255   255 255 255   255 255 255   255 255 255   255 255 255   255 255 255   255 255 255   255 255 255   255 255 255   255 255 255   255 255 255   255 255 255   255 255 255   255 255 255   255 255 255   255 255 255   255 255 255   255 255 255   255 255 255   255 255 255   255 255 255   255 255 255   255 255 255   255 255 255   255 255 255   255 255 255   255 255 255   255 255 255   255 255 255   255 255 255   255 255 255   255 255 255   255 255 255   255 255 255   255 255 255   255 255 255   255 255 255   255 255 255   255 255 255   255 255 255   255 255 255   255 255 255   255 255 255   255 255 255   255 255 255   255 255 255   255 255 255   255 255 255   255 255 255   255 255 255   255 255 255   255 255 255   255 255 255   255 255 255   255 255 255   255 255 255   255 255 255   255 255 255   255 255 255   255 255 255   255 255 255   255 255 255   255 255 255   255 255 255   255 255 255   255 255 255   255 255 255   255 255 255   255 255 255   255 255 255   255 255 255   255 255 255   255 255 255   255 255 255   255 255 255   255 255 255   255 255 255   255 255 255   255 255 255   255 255 255   255 255 255   255 255 255   255 255 255   255 255 255   255 255 255   255 255 255   255 255 255   255 255 255   255 255 255   255 255 255   255 255 255   255 255 255   255 255 255   255 255 255   255 255 255   255 255 255   255 255 255   255 255 255   255 255 255   255 255 255   255 255 255   255 255 255   255 255 255   255 255 255   255 255 255   255 255 255   255 255 255   255 255 255   255 255 255   255 255 255   255 255 255   255 255 255   255 255 255   255 255 255   255 255 255   255 255 255   255 255 255   255 255 255   255 255 255   255 255 255   255 255 255   255 255 255   255 255 255   255 255 255   255 255 255   255 255 255   255 255 255   255 255 255   255 255 255   255 255 255   255 255 255   255 255 255   255 255 255   255 255 255   255 255 255   255 255 255   255 255 255   255 255 255   255 255 255   255 255 255   255 255 255   255 255 255   255 255 255   255 255 255   255 255 255   255 255 255   255 255 255   255 255 255   255 255 255   255 255 255   255 255 255   255 255 255   255 255 255   255 255 255   255 255 255   255 255 255   255 255 255   255 255 255   255 255 255   255 255 255   255 255 255
255 255 255   255 255 255   255 255 255   255 255 255   255 255 255   255 255 255   255 255 255   255 255 255   255 255 255   255 255 255   255 255 255   255 255 255   255 255 255   255 255 255   255 255 255   255 255 255   255 255 255   255 255 255   255 255 255   255 255 255   255 255 255   255 255 255   255 255 255   255 255 255   255 255 255   255 255 255   255 255 255   255 255 255   255 255 255   255 255 255   255 255 255   255 255 255   255 255 255   255 255 255   255 255 255   255 255 255   255 255 255   255 255 255   255 255 255   255 255 255   255 255 255   255 255 255   255 255 255   255 255 255   255 255 255   255 255 255   255 255 255   255 255 255   255 255 255   255 255 255   255 255 255   255 255 255   255 255 255   255 255 255   255 255 255   255 255 255   255 255 255   255 255 255   255 255 255   255 255 255   255 255 255   255 255 255   255 255 255   255 255 255   255 255 255   255 255 255   255 255 255   255 255 255   255 255 255   255 255 255   255 255 255   255 255 255   255 255 255   255 255 255   255 255 255   255 255 255   255 255 255   255 255 255   255 255 255   255 255 255   255 255 255   255 255 255   255 255 255   255 255 255   255 255 255   255 255 255   255 255 255   255 255 255   255 255 255   255 255 255   255 255 255   255 255 255   255 255 255   255 255 255   255 255 255   255 255 255   255 255 255   255 255 255   255 255 255   255 255 255   255 255 255   255 255 255   255 255 255   255 255 255   255 255 255   255 255 255   255 255 255   255 255 255   255 255 255   255 255 255   255 255 255   255 255 255   255 255 255   255 255 255   255 255 255   255 255 255   255 255 255   255 255 255   255 255 255   255 255 255   255 255 255   255 255 255   255 255 255   255 255 255   255 255 255   255 255 255   255 255 255   255 255 255   255 255 255   255 255 255   255 255 255   255 255 255   255 255 255   255 255 255   255 255 255   255 255 255   255 255 255   255 255 255   255 255 255   255 255 255   255 255 255   255 255 255   255 255 255   255 255 255   255 255 255   255 255 255   255 255 255   255 255 255   255 255 255   255 255 255   255 255 255   255 255 255   255 255 255   255 255 255   255 255 255   255 255 255   255 255 255   255 255 255   255 255 255   255 255 255   255 255 255   255 255 255   255 255 255   255 255 255   255 255 255   255 255 255   255 255 255   255 255 255   255 255 255   255 255 255   255 255 255   255 255 255   255 255 255   255 255 255   255 255 255   255 255 255   255 255 255   255 255 255   255 255 255   255 255 255   255 255 255   255 255 255   255 255 255   255 255 255   255 255 255   255 255 255   255 255 255   255 255 255   255 255 255   255 255 255   255 255 255   255 255 255   255 255 255   255 255 255   255 255 255   255 255 255   255 255 255   255 255 255   255 255 255   255 255 255   255 255 255   255 255 255   255 255 255   255 255 255   255 255 255   255 255 255   255 255 255   255 255 255   255 255 255   255 255 255   255 255 255   255 255 255   255 255 255   255 255 255   255 255 255   255 255 255   255 255 255   255 255 255   255 255 255   255 255 255   255 255 255   255 255 255   255 255 255   255 255 255   255 255 255   255 255 255   255 255 255   255 255 255   255 255 255   255 255 255   255 255 255   255 255 255   255 255 255   255 255 255   255 255 255   255 255 255   255 255 255   255 255 255   255 255 255   255 255 255   255 255 255   255 255 255   255 255 255   255 255 255   255 255 255   255 255 255   255 255 255   255 255 255   255 255 255   255 255 255   255 255 255   255 255 255   255 255 255   255 255 255   255 255 255   255 255 255
255 255 255   255 255 255   255 255 255   255 255 255   255 255 255   255 255 255   255 255 255   255 255 255   255 255 255   255 255 255   255 255 255   255 255 255   255 255 255   255 255 255   255 255 255   255 255 255   255 255 255   255 255 255   255 255 255   255 255 255   255 255 255   255 255 255   255 255 255   255 255 255   255 255 255   255 255 255   255 255 255   255 255 255   255 255 255   255 255 255   255 255 255   255 255 255   255 255 255   255 255 255   255 255 255   255 255 255   255 255 255   255 255 255   255 255 255   255 255 255   255 255 255   255 255 255   255 255 255   255 255 255   255 255 255   255 255 255   255 255 255   255 255 255   255 255 255   255 255 255   255 255 255   255 255 255   255 255 255   255 255 255   255 255 255   255 255 255   255 255 255   255 255 255   255 255 255   255 255 255   255 255 255   255 255 255   255 255 255   255 255 255   255 255 255   255 255 255   255 255 255   255 255 255   255 255 255   255 255 255   255 255 255   255 255 255   255 255 255   255 255 255   255 255 255   255 255 255   255 255 255   255 255 255   255 255 255   255 255 255   255 255 255   255 255 255   255 255 255   255 255 255   255 255 255   255 255 255   255 255 255   255 255 255   255 255 255   255 255 255   255 255 255   255 255 255   255 255 255   255 255 255   255 255 255   255 255 255   255 255 255   255 255 255   255 255 255   255 255 255   255 255 255   255 255 255   255 255 255   255 255 255   255 255 255   255 255 255   255 255 255   255 255 255   255 255 255   255 255 255   255 255 255   255 255 255   255 255 255   255 255 255   255 255 255   255 255 255   255 255 255   255 255 255   255 255 255   255 255 255   255 255 255   255 255 255   255 255 255   255 255 255   255 255 255   255 255 255   255 255 255   255 255 255   255 255 255   255 255 255   255 255 255   255 255 255   255 255 255   255 255 255   255 255 255   255 255 255   255 255 255   255 255 255   255 255 255   255 255 255   255 255 255   255 255 255   255 255 255   255 255 255   255 255 255   255 255 255   255 255 255   255 255 255   255 255 255   255 255 255   255 255 255   255 255 255   255 255 255   255 255 255   255 255 255   255 255 255   255 255 255   255 255 255   255 255 255   255 255 255   255 255 255   255 255 255   255 255 255   255 255 255   255 255 255   255 255 255   255 255 255   255 255 255   255 255 255   255 255 255   255 255 255   255 255 255   255 255 255   255 255 255   255 255 255   255 255 255   255 255 255   255 255 255   255 255 255   255 255 255   255 255 255   255 255 255   255 255 255   255 255 255   255 255 255   255 255 255   255 255 255   255 255 255   255 255 255   255 255 255   255 255 255   255 255 255   255 255 255   255 255 255   255 255 255   255 255 255   255 255 255   255 255 255   255 255 255   255 255 255   255 255 255   255 255 255   255 255 255   255 255 255   255 255 255   255 255 255   255 255 255   255 255 255   255 255 255   255 255 255   255 255 255   255 255 255   255 255 255   255 255 255   255 255 255   255 255 255   255 255 255   255 255 255   255 255 255   255 255 255   255 255 255   255 255 255   255 255 255   255 255 255   255 255 255   255 255 255   255 255 255   255 255 255   255 255 255   255 255 255   255 255 255   255 255 255   255 255 255   255 255 255   255 255 255   255 255 255   255 255 255   255 255 255   255 255 255   255 255 255   255 255 255   255 255 255   255 255 255   255 255 255   255 255 255   255 255 255   255 255 255   255 255 255   255 255 255   255 255 255   255 255 255   255 255 255   255 255 255   255 255 255   255 255 255   255 255 255
255 255 255   255 255 255   255 255 255   255 255 255   255 255 255   255 255 255   255 255 255   255 255 255   255 255 255   255 255 255   255 255 255   255 255 255   255 255 255   255 255 255   255 255 255   255 255 255   255 255 255   255 255 255   255 255 255   255 255 255   255 255 255   255 255 255   255 255 255   255 255 255   255 255 255   255 255 255   255 255 255   255 255 255   255 255 255   255 255 255   255 255 255   255 255 255   255 255 255   255 255 255   255 255 255   255 255 255   255 255 255   255 255 255   255 255 255   255 255 255   255 255 255   255 255 255   255 255 255   255 255 255   255 255 255   255 255 255   255 255 255   255 255 255   255 255 255   255 255 255   255 255 255   255 255 255   255 255 255   255 255 255   255 255 255   255 255 255   255 255 255   255 255 255   255 255 255   255 255 255   255 255 255   255 255 255   255 255 255   255 255 255   255 255 255   255 255 255   255 255 255   255 255 255   255 255 255   255 255 255   255 255 255   255 255 255   255 255 255   255 255 255   255 255 255   255 255 255   255 255 255   255 255 255   255 255 255   255 255 255   255 255 255   255 255 255   255 255 255   255 255 255   255 255 255   255 255 255   255 255 255   255 255 255   255 255 255   255 255 255   255 255 255   255 255 255   255 255 255   255 255 255   255 255 255   255 255 255   255 255 255   255 255 255   255 255 255   255 255 255   255 255 255   255 255 255   255 255 255   255 255 255   255 255 255   255 255 255   255 255 255   255 255 255   255 255 255   255 255 255   255 255 255   255 255 255   255 255 255   255 255 255   255 255 255   255 255 255   255 255 255   255 255 255   255 255 255   255 255 255   255 255 255   255 255 255   255 255 255   255 255 255   255 255 255   255 255 255   255 255 255   255 255 255   255 255 255   255 255 255   255 255 255   255 255 255   255 255 255   255 255 255   255 255 255   255 255 255   255 255 255   255 255 255   255 255 255   255 255 255   255 255 255   255 255 255   255 255 255   255 255 255   255 255 255   255 255 255   255 255 255   255 255 255   255 255 255   255 255 255   255 255 255   255 255 255   255 255 255   255 255 255   255 255 255   255 255 255   255 255 255   255 255 255   255 255 255   255 255 255   255 255 255   255 255 255   255 255 255   255 255 255   255 255 255   255 255 255   255 255 255   255 255 255   255 255 255   255 255 255   255 255 255   255 255 255   255 255 255   255 255 255   255 255 255   255 255 255   255 255 255   255 255 255   255 255 255   255 255 255   255 255 255   255 255 255   255 255 255   255 255 255   255 255 255   255 255 255   255 255 255   255 255 255   255 255 255   255 255 255   255 255 255   255 255 255   255 255 255   255 255 255   255 255 255   255 255 255   255 255 255   255 255 255   255 255 255   255 255 255   255 255 255   255 255 255   255 255 255   255 255 255   255 255 255   255 255 255   255 255 255   255 255 255   255 255 255   255 255 255   255 255 255   255 255 255   255 255 255   255 255 255   255 255 255   255 255 255   255 255 255   255 255 255   255 255 255   255 255 255   255 255 255   255 255 255   255 255 255   255 255 255   255 255 255   255 255 255   255 255 255   255 255 255   255 255 255   255 255 255   255 255 255   255 255 255   255 255 255   255 255 255   255 255 255   255 255 255   255 255 255   255 255 255   255 255 255   255 255 255   255 255 255   255 255 255   255 255 255   255 255 255   255 255 255   255 255 255   255 255 255   255 255 255   255 255 255   255 255 255   255 255 255   255 255 255   255 255 255   255 255 255   255 255 255   255 255 255
255 255 255   255 255 255   255 255 255   255 255 255   255 255 255   255 255 255   255 255 255   255 255 255   255 255 255   255 255 255   255 255 255   255 255 255   255 255 255   255 255 255   255 255 255   255 255 255   255 255 255   255 255 255   255 255 255   255 255 255   255 255 255   255 255 255   255 255 255   255 255 255   255 255 255   255 255 255   255 255 255   255 255 255   255 255 255   255 255 255   255 255 255   255 255 255   255 255 255   255 255 255   255 255 255   255 255 255   255 255 255   255 255 255   255 255 255   255 255 255   255 255 255   255 255 255   255 255 255   255 255 255   255 255 255   255 255 255   255 255 255   255 255 255   255 255 255   255 255 255   255 255 255   255 255 255   255 255 255   255 255 255   255 255 255   255 255 255   255 255 255   255 255 255   255 255 255   255 255 255   255 255 255   255 255 255   255 255 255   255 255 255   255 255 255   255 255 255   255 255 255   255 255 255   255 255 255   255 255 255   255 255 255   255 255 255   255 255 255   255 255 255   255 255 255   255 255 255   255 255 255   255 255 255   255 255 255   255 255 255   255 255 255   255 255 255   255 255 255   255 255 255   255 255 255   255 255 255   255 255 255   255 255 255   255 255 255   255 255 255   255 255 255   255 255 255   255 255 255   255 255 255   255 255 255   255 255 255   255 255 255   255 255 255   255 255 255   255 255 255   255 255 255   255 255 255   255 255 255   255 255 255   255 255 255   255 255 255   255 255 255   255 255 255   255 255 255   255 255 255   255 255 255   255 255 255   255 255 255   255 255 255   255 255 255   255 255 255   255 255 255   255 255 255   255 255 255   255 255 255   255 255 255   255 255 255   255 255 255   255 255 255   255 255 255   255 255 255   255 255 255   255 255 255   255 255 255   255 255 255   255 255 255   255 255 255   255 255 255   255 255 255   255 255 255   255 255 255   255 255 255   255 255 255   255 255 255   255 255 255   255 255 255   255 255 255   255 255 255   255 255 255   255 255 255   255 255 255   255 255 255   255 255 255   255 255 255   255 255 255   255 255 255   255 255 255   255 255 255   255 255 255   255 255 255   255 255 255   255 255 255   255 255 255   255 255 255   255 255 255   255 255 255   255 255 255   255 255 255   255 255 255   255 255 255   255 255 255   255 255 255   255 255 255   255 255 255   255 255 255   255 255 255   255 255 255   255 255 255   255 255 255   255 255 255   255 255 255   255 255 255   255 255 255   255 255 255   255 255 255   255 255 255   255 255 255   255 255 255   255 255 255   255 255 255   255 255 255   255 255 255   255 255 255   255 255 255   255 255 255   255 255 255   255 255 255   255 255 255   255 255 255   255 255 255   255 255 255   255 255 255   255 255 255   255 255 255   255 255 255   255 255 255   255 255 255   255 255 255   255 255 255   255 255 255   255 255 255   255 255 255   255 255 255   255 255 255   255 255 255   255 255 255   255 255 255   255 255 255   255 255 255   255 255 255   255 255 255   255 255 255   255 255 255   255 255 255   255 255 255   255 255 255   255 255 255   255 255 255   255 255 255   255 255 255   255 255 255   255 255 255   255 255 255   255 255 255   255 255 255   255 255 255   255 255 255   255 255 255   255 255 255   255 255 255   255 255 255   255 255 255   255 255 255   255 255 255   255 255 255   255 255 255   255 255 255   255 255 255   255 255 255   255 255 255   255 255 255   255 255 255   255 255 255   255 255 255   255 255 255   255 255 255   255 255 255   255 255 255   255 255 255   255 255 255   255 255 255
255 255 255   255 255 255   255 255 255   255 255 255   255 255 255   255 255 255   255 255 255   255 255 255   255 255 255   255 255 255   255 255 255   255 255 255   255 255 255   255 255 255   255 255 255   255 255 255   255 255 255   255 255 255   255 255 255   255 255 255   255 255 255   255 255 255   255 255 255   255 255 255   255 255 255   255 255 255   255 255 255   255 255 255   255 255 255   255 255 255   255 255 255   255 255 255   255 255 255   255 255 255   255 255 255   255 255 255   255 255 255   255 255 255   255 255 255   255 255 255   255 255 255   255 255 255   255 255 255   255 255 255   255 255 255   255 255 255   255 255 255   255 255 255   255 255 255   255 255 255   255 255 255   255 255 255   255 255 255   255 255 255   255 255 255   255 255 255   255 255 255   255 255 255   255 255 255   255 255 255   255 255 255   255 255 255   255 255 255   255 255 255   255 255 255   255 255 255   255 255 255   255 255 255   255 255 255   255 255 255   255 255 255   255 255 255   255 255 255   255 255 255   255 255 255   255 255 255   255 255 255   255 255 255   255 255 255   255 255 255   255 255 255   255 255 255   255 255 255   255 255 255   255 255 255   255 255 255   255 255 255   255 255 255   255 255 255   255 255 255   255 255 255   255 255 255   255 255 255   255 255 255   255 255 255   255 255 255   255 255 255   255 255 255   255 255 255   255 255 255   255 255 255   255 255 255   255 255 255   255 255 255   255 255 255   255 255 255   255 255 255   255 255 255   255 255 255   255 255 255   255 255 255   255 255 255   255 255 255   255 255 255   255 255 255   255 255 255   255 255 255   255 255 255   255 255 255   255 255 255   255 255 255   255 255 255   255 255 255   255 255 255   255 255 255   255 255 255   255 255 255   255 255 255   255 255 255   255 255 255   255 255 255   255 255 255   255 255 255   255 255 255   255 255 255   255 255 255   255 255 255   255 255 255   255 255 255   255 255 255   255 255 255   255 255 255   255 255 255   255 255 255   255 255 255   255 255 255   255 255 255   255 255 255   255 255 255   255 255 255   255 255 255   255 255 255   255 255 255   255 255 255   255 255 255   255 255 255   255 255 255   255 255 255   255 255 255   255 255 255   255 255 255   255 255 255   255 255 255   255 255 255   255 255 255   255 255 255   255 255 255   255 255 255   255 255 255   255 255 255   255 255 255   255 255 255   255 255 255   255 255 255   255 255 255   255 255 255   255 255 255   255 255 255   255 255 255   255 255 255   255 255 255   255 255 255   255 255 255   255 255 255   255 255 255   255 255 255   255 255 255   255 255 255   255 255 255   255 255 255   255 255 255   255 255 255   255 255 255   255 255 255   255 255 255   255 255 255   255 255 255   255 255 255   255 255 255   255 255 255   255 255 255   255 255 255   255 255 255   255 255 255   255 255 255   255 255 255   255 255 255   255 255 255   255 255 255   255 255 255   255 255 255   255 255 255   255 255 255   255 255 255   255 255 255   255 255 255   255 255 255   255 255 255   255 255 255   255 255 255   255 255 255   255 255 255   255 255 255   255 255 255   255 255 255   255 255 255   255 255 255   255 255 255   255 255 255   255 255 255   255 255 255   255 255 255   255 255 255   255 255 255   255 255 255   255 255 255   255 255 255   255 255 255   255 255 255   255 255 255   255 255 255   255 255 255   255 255 255   255 255 255   255 255 255   255 255 255   255 255 255   255 255 255   255 255 255   255 255 255   255 255 255   255 255 255   255 255 255   255 255 255   255 255 255   255 255 255
255 255 255   255 255 255   255 255 255   255 255 255   255 255 255   255 255 255   255 255 255   255 255 255   255 255 255   255 255 255   255 255 255   255 255 255   255 255 255   255 255 255   255 255 255   255 255 255   255 255 255   255 255 255   255 255 255   255 255 255   255 255 255   255 255 255   255 255 255   255 255 255   255 255 255   255 255 255   255 255 255   255 255 255   255 255 255   255 255 255   255 255 255   255 255 255   255 255 255   255 255 255   255 255 255   255 255 255   255 255 255   255 255 255   255 255 255   255 255 255   255 255 255   255 255 255   255 255 255   255 255 255   255 255 255   255 255 255   255 255 255   255 255 255   255 255 255   255 255 255   255 255 255   255 255 255   255 255 255   255 255 255   255 255 255   255 255 255   255 255 255   255 255 255   255 255 255   255 255 255   255 255 255   255 255 255   255 255 255   255 255 255   255 255 255   255 255 255   255 255 255   255 255 255   255 255 255   255 255 255   255 255 255   255 255 255   255 255 255   255 255 255   255 255 255   255 255 255   255 255 255   255 255 255   255 255 255   255 255 255   255 255 255   255 255 255   255 255 255   255 255 255   255 255 255   255 255 255   255 255 255   255 255 255   255 255 255   255 255 255   255 255 255   255 255 255   255 255 255   255 255 255   255 255 255   255 255 255   255 255 255   255 255 255   255 255 255   255 255 255   255 255 255   255 255 255   255 255 255   255 255 255   255 255 255   255 255 255   255 255 255   255 255 255   255 255 255   255 255 255   255 255 255   255 255 255   255 255 255   255 255 255   255 255 255   255 255 255   255 255 255   255 255 255   255 255 255   255 255 255   255 255 255   255 255 255   255 255 255   255 255 255   255 255 255   255 255 255   255 255 255   255 255 255   255 255 255   255 255 255   255 255 255   255 255 255   255 255 255   255 255 255   255 255 255   255 255 255   255 255 255   255 255 255   255 255 255   255 255 255   255 255 255   255 255 255   255 255 255   255 255 255   255 255 255   255 255 255   255 255 255   255 255 255   255 255 255   255 255 255   255 255 255   255 255 255   255 255 255   255 255 255   255 255 255   255 255 255   255 255 255   255 255 255   255 255 255   255 255 255   255 255 255   255 255 255   255 255 255   255 255 255   255 255 255   255 255 255   255 255 255   255 255 255   255 255 255   255 255 255   255 255 255   255 255 255   255 255 255   255 255 255   255 255 255   255 255 255   255 255 255   255 255 255   255 255 255   255 255 255   255 255 255   255 255 255   255 255 255   255 255 255   255 255 255   255 255 255   255 255 255   255 255 255   255 255 255   255 255 255   255 255 255   255 255 255   255 255 255   255 255 255   255 255 255   255 255 255   255 255 255   255 255 255   255 255 255   255 255 255   255 255 255   255 255 255   255 255 255   255 255 255   255 255 255   255 255 255   255 255 255   255 255 255   255 255 255   255 255 255   255 255 255   255 255 255   255 255 255   255 255 255   255 255 255   255 255 255   255 255 255   255 255 255   255 255 255   255 255 255   255 255 255   255 255 255   255 255 255   255 255 255   255 255 255   255 255 255   255 255 255   255 255 255   255 255 255   255 255 255   255 255 255   255 255 255   255 255 255   255 255 255   255 255 255   255 255 255   255 255 255   255 255 255   255 255 255   255 255 255   255 255 255   255 255 255   255 255 255   255 255 255   255 255 255   255 255 255   255 255 255   255 255 255   255 255 255   255 255 255   255 255 255   255 255 255   255 255 255   255 255 255   255 255 255   255 255 255
255 255 255   255 255 255   255 255 255   255 255 255   255 255 255   255 255 255   255 255 255   255 255 255   255 255 255   255 255 255   255 255 255   255 255 255   255 255 255   255 255 255   255 255 255   255 255 255   255 255 255   255 255 255   255 255 255   255 255 255   255 255 255   255 255 255   255 255 255   255 255 255   255 255 255   255 255 255   255 255 255   255 255 255   255 255 255   255 255 255   255 255 255   255 255 255   255 255 255   255 255 255   255 255 255   255 255 255   255 255 255   255 255 255   255 255 255   255 255 255   255 255 255   255 255 255   255 255 255   255 255 255   255 255 255   255 255 255   255 255 255   255 255 255   255 255 255   255 255 255   255 255 255   255 255 255   255 255 255   255 255 255   255 255 255   255 255 255   255 255 255   255 255 255   255 255 255   255 255 255   255 255 255   255 255 255   255 255 255   255 255 255   255 255 255   255 255 255   255 255 255   255 255 255   255 255 255   255 255 255   255 255 255   255 255 255   255 255 255   255 255 255   255 255 255   255 255 255   255 255 255   255 255 255   255 255 255   255 255 255   255 255 255   255 255 255   255 255 255   255 255 255   255 255 255   255 255 255   255 255 255   255 255 255   255 255 255   255 255 255   255 255 255   255 255 255   255 255 255   255 255 255   255 255 255   255 255 255   255 255 255   255 255 255   255 255 255   255 255 255   255 255 255   255 255 255   255 255 255   255 255 255   255 255 255   255 255 255   255 255 255   255 255 255   255 255 255   255 255 255   255 255 255   255 255 255   255 255 255   255 255 255   255 255 255   255 255 255   255 255 255   255 255 255   255 255 255   255 255 255   255 255 255   255 255 255   255 255 255   255 255 255   255 255 255   255 255 255   255 255 255   255 255 255   255 255 255   255 255 255   255 255 255   255 255 255   255 255 255   255 255 255   255 255 255   255 255 255   255 255 255   255 255 255   255 255 255   255 255 255   255 255 255   255 255 255   255 255 255   255 255 255   255 255 255   255 255 255   255 255 255   255 255 255   255 255 255   255 255 255   255 255 255   255 255 255   255 255 255   255 255 255   255 255 255   255 255 255   255 255 255   255 255 255   255 255 255   255 255 255   255 255 255   255 255 255   255 255 255   255 255 255   255 255 255   255 255 255   255 255 255   255 255 255   255 255 255   255 255 255   255 255 255   255 255 255   255 255 255   255 255 255   255 255 255   255 255 255   255 255 255   255 255 255   255 255 255   255 255 255   255 255 255   255 255 255   255 255 255   255 255 255   255 255 255   255 255 255   255 255 255   255 255 255   255 255 255   255 255 255   255 255 255   255 255 255   255 255 255   255 255 255   255 255 255   255 255 255   255 255 255   255 255 255   255 255 255   255 255 255   255 255 255   255 255 255   255 255 255   255 255 255   255 255 255   255 255 255   255 255 255   255 255 255   255 255 255   255 255 255   255 255 255   255 255 255   255 255 255   255 255 255   255 255 255   255 255 255   255 255 255   255 255 255   255 255 255   255 255 255   255 255 255   255 255 255   255 255 255   255 255 255   255 255 255   255 255 255   255 255 255   255 255 255   255 255 255   255 255 255   255 255 255   255 255 255   255 255 255   255 255 255   255 255 255   255 255 255   255 255 255   255 255 255   255 255 255   255 255 255   255 255 255   255 255 255   255 255 255   255 255 255   255 255 255   255 255 255   255 255 255   255 255 255   255 255 255   255 255 255   255 255 255   255 255 255   255 255 255   255 255 255   255 255 255   255 255 255
255 255 255   255 255 255   255 255 255   255 255 255   255 255 255   255 255 255   255 255 255   255 255 255   255 255 255   255 255 255   255 255 255   255 255 255   255 255 255   255 255 255   255 255 255   255 255 255   255 255 255   255 255 255   255 255 255   255 255 255   255 255 255   255 255 255   255 255 255   255 255 255   255 255 255   255 255 255   255 255 255   255 255 255   255 255 255   255 255 255   255 255 255   255 255 255   255 255 255   255 255 255   255 255 255   255 255 255   255 255 255   255 255 255   255 255 255   255 255 255   255 255 255   255 255 255   255 255 255   255 255 255   255 255 255   255 255 255   255 255 255   255 255 255   255 255 255   255 255 255   255 255 255   255 255 255   255 255 255   255 255 255   255 255 255   255 255 255   255 255 255   255 255 255   255 255 255   255 255 255   255 255 255   255 255 255   255 255 255   255 255 255   255 255 255   255 255 255   255 255 255   255 255 255   255 255 255   255 255 255   255 255 255   255 255 255   255 255 255   255 255 255   255 255 255   255 255 255   255 255 255   255 255 255   255 255 255   255 255 255   255 255 255   255 255 255   255 255 255   255 255 255   255 255 255   255 255 255   255 255 255   255 255 255   255 255 255   255 255 255   255 255 255   255 255 255   255 255 255   255 255 255   255 255 255   255 255 255   255 255 255   255 255 255   255 255 255   255 255 255   255 255 255   255 255 255   255 255 255   255 255 255   255 255 255   255 255 255   255 255 255   255 255 255   255 255 255   255 255 255   255 255 255   255 255 255   255 255 255   255 255 255   255 255 255   255 255 255   255 255 255   255 255 255   255 255 255   255 255 255   255 255 255   255 255 255   255 255 255   255 255 255   255 255 255   255 255 255   255 255 255   255 255 255   255 255 255   255 255 255   255 255 255   255 255 255   255 255 255   255 255 255   255 255 255   255 255 255   255 255 255   255 255 255   255 255 255   255 255 255   255 255 255   255 255 255   255 255 255   255 255 255   255 255 255   255 255 255   255 255 255   255 255 255   255 255 255   255 255 255   255 255 255   255 255 255   255 255 255   255 255 255   255 255 255   255 255 255   255 255 255   255 255 255   255 255 255   255 255 255   255 255 255   255 255 255   255 255 255   255 255 255   255 255 255   255 255 255   255 255 255   255 255 255   255 255 255   255 255 255   255 255 255   255 255 255   255 255 255   255 255 255   255 255 255   255 255 255   255 255 255   255 255 255   255 255 255   255 255 255   255 255 255   255 255 255   255 255 255   255 255 255   255 255 255   255 255 255   255 255 255   255 255 255   255 255 255   255 255 255   255 255 255   255 255 255   255 255 255   255 255 255   255 255 255   255 255 255   255 255 255   255 255 255   255 255 255   255 255 255   255 255 255   255 255 255   255 255 255   255 255 255   255 255 255   255 255 255   255 255 255   255 255 255   255 255 255   255 255 255   255 255 255   255 255 255   255 255 255   255 255 255   255 255 255   255 255 255   255 255 255   255 255 255   255 255 255   255 255 255   255 255 255   255 255 255   255 255 255   255 255 255   255 255 255   255 255 255   255 255 255   255 255 255   255 255 255   255 255 255   255 255 255   255 255 255   255 255 255   255 255 255   255 255 255   255 255 255   255 255 255   255 255 255   255 255 255   255 255 255   255 255 255   255 255 255   255 255 255   255 255 255   255 255 255   255 255 255   255 255 255   255 255 255   255 255 255   255 255 255   255 255 255   255 255 255   255 255 255   255 255 255   255 255 255   255 255 255
255 255 255   255 255 255   255 255 255   255 255 255   255 255 255   255 255 255   255 255 255   255 255 255   255 255 255   255 255 255   255 255 255   255 255 255   255 255 255   255 255 255   255 255 255   255 255 255   255 255 255   255 255 255   255 255 255   255 255 255   255 255 255   255 255 255   255 255 255   255 255 255   255 255 255   255 255 255   255 255 255   255 255 255   255 255 255   255 255 255   255 255 255   255 255 255   255 255 255   255 255 255   255 255 255   255 255 255   255 255 255   255 255 255   255 255 255   255 255 255   255 255 255   255 255 255   255 255 255   255 255 255   255 255 255   255 255 255   255 255 255   255 255 255   255 255 255   255 255 255   255 255 255   255 255 255   255 255 255   255 255 255   255 255 255   255 255 255   255 255 255   255 255 255   255 255 255   255 255 255   255 255 255   255 255 255   255 255 255   255 255 255   255 255 255   255 255 255   255 255 255   255 255 255   255 255 255   255 255 255   255 255 255   255 255 255   255 255 255   255 255 255   255 255 255   255 255 255   255 255 255   255 255 255   255 255 255   255 255 255   255 255 255   255 255 255   255 255 255   255 255 255   255 255 255   255 255 255   255 255 255   255 255 255   255 255 255   255 255 255   255 255 255   255 255 255   255 255 255   255 255 255   255 255 255   255 255 255   255 255 255   255 255 255   255 255 255   255 255 255   255 255 255   255 255 255   255 255 255   255 255 255   255 255 255   255 255 255   255 255 255   255 255 255   255 255 255   255 255 255   255 255 255   255 255 255   255 255 255   255 255 255   255 255 255   255 255 255   255 255 255   255 255 255   255 255 255   255 255 255   255 255 255   255 255 255   255 255 255   255 255 255   255 255 255   255 255 255   255 255 255   255 255 255   255 255 255   255 255 255   255 255 255   255 255 255   255 255 255   255 255 255   255 255 255   255 255 255   255 255 255   255 255 255   255 255 255   255 255 255   255 255 255   255 255 255   255 255 255   255 255 255   255 255 255   255 255 255   255 255 255   255 255 255   255 255 255   255 255 255   255 255 255   255 255 255   255 255 255   255 255 255   255 255 255   255 255 255   255 255 255   255 255 255   255 255 255   255 255 255   255 255 255   255 255 255   255 255 255   255 255 255   255 255 255   255 255 255   255 255 255   255 255 255   255 255 255   255 255 255   255 255 255   255 255 255   255 255 255   255 255 255   255 255 255   255 255 255   255 255 255   255 255 255   255 255 255   255 255 255   255 255 255   255 255 255   255 255 255   255 255 255   255 255 255   255 255 255   255 255 255   255 255 255   255 255 255   255 255 255   255 255 255   255 255 255   255 255 255   255 255 255   255 255 255   255 255 255   255 255 255   255 255 255   255 255 255   255 255 255   255 255 255   255 255 255   255 255 255   255 255 255   255 255 255   255 255 255   255 255 255   255 255 255   255 255 255   255 255 255   255 255 255   255 255 255   255 255 255   255 255 255   255 255 255   255 255 255   255 255 255   255 255 255   255 255 255   255 255 255   255 255 255   255 255 255   255 255 255   255 255 255   255 255 255   255 255 255   255 255 255   255 255 255   255 255 255   255 255 255   255 255 255   255 255 255   255 255 255   255 255 255   255 255 255   255 255 255   255 255 255   255 255 255   255 255 255   255 255 255   255 255 255   255 255 255   255 255 255   255 255 255   255 255 255   255 255 255   255 255 255   255 255 255   255 255 255   255 255 255   255 255 255   255 255 255   255 255 255   255 255 255   255 255 255   255 255 255
255 255 255   255 255 255   255 255 255   255 255 255   255 255 255   255 255 255   255 255 255   255 255 255   255 255 255   255 255 255   255 255 255   255 255 255   255 255 255   255 255 255   255 255 255   255 255 255   255 255 255   255 255 255   255 255 255   255 255 255   255 255 255   255 255 255   255 255 255   255 255 255   255 255 255   255 255 255   255 255 255   255 255 255   255 255 255   255 255 255   255 255 255   255 255 255   255 255 255   255 255 255   255 255 255   255 255 255   255 255 255   255 255 255   255 255 255   255 255 255   255 255 255   255 255 255   255 255 255   255 255 255   255 255 255   255 255 255   255 255 255   255 255 255   255 255 255   255 255 255   255 255 255   255 255 255   255 255 255   255 255 255   255 255 255   255 255 255   255 255 255   255 255 255   255 255 255   255 255 255   255 255 255   255 255 255   255 255 255   255 255 255   255 255 255   255 255 255   255 255 255   255 255 255   255 255 255   255 255 255   255 255 255   255 255 255   255 255 255   255 255 255   255 255 255   255 255 255   255 255 255   255 255 255   255 255 255   255 255 255   255 255 255   255 255 255   255 255 255   255 255 255   255 255 255   255 255 255   255 255 255   255 255 255   255 255 255   255 255 255   255 255 255   255 255 255   255 255 255   255 255 255   255 255 255   255 255 255   255 255 255   255 255 255   255 255 255   255 255 255   255 255 255   255 255 255   255 255 255   255 255 255   255 255 255   255 255 255   255 255 255   255 255 255   255 255 255   255 255 255   255 255 255   255 255 255   255 255 255   255 255 255   255 255 255   255 255 255   255 255 255   255 255 255   255 255 255   255 255 255   255 255 255   255 255 255   255 255 255   255 255 255   255 255 255   255 255 255   255 255 255   255 255 255   255 255 255   255 255 255   255 255 255   255 255 255   255 255 255   255 255 255   255 255 255   255 255 255   255 255 255   255 255 255   255 255 255   255 255 255   255 255 255   255 255 255   255 255 255   255 255 255   255 255 255   255 255 255   255 255 255   255 255 255   255 255 255   255 255 255   255 255 255   255 255 255   255 255 255   255 255 255   255 255 255   255 255 255   255 255 255   255 255 255   255 255 255   255 255 255   255 255 255   255 255 255   255 255 255   255 255 255   255 255 255   255 255 255   255 255 255   255 255 255   255 255 255   255 255 255   255 255 255   255 255 255   255 255 255   255 255 255   255 255 255   255 255 255   255 255 255   255 255 255   255 255 255   255 255 255   255 255 255   255 255 255   255 255 255   255 255 255   255 255 255   255 255 255   255 255 255   255 255 255   255 255 255   255 255 255   255 255 255   255 255 255   255 255 255   255 255 255   255 255 255   255 255 255   255 255 255   255 255 255   255 255 255   255 255 255   255 255 255   255 255 255   255 255 255   255 255 255   255 255 255   255 255 255   255 255 255   255 255 255   255 255 255   255 255 255   255 255 255   255 255 255   255 255 255   255 255 255   255 255 255   255 255 255   255 255 255   255 255 255   255 255 255   255 255 255   255 255 255   255 255 255   255 255 255   255 255 255   255 255 255   255 255 255   255 255 255   255 255 255   255 255 255   255 255 255   255 255 255   255 255 255   255 255 255   255 255 255   255 255 255   255 255 255   255 255 255   255 255 255   255 255 255   255 255 255   255 255 255   255 255 255   255 255 255   255 255 255   255 255 255   255 255 255   255 255 255   255 255 255   255 255 255   255 255 255   255 255 255   255 255 255   255 255 255   255 255 255   255 255 255   255 255 255
255 255 255   255 255 255   255 255 255   255 255 255   255 255 255   255 255 255   255 255 255   255 255 255   255 255 255   255 255 255   255 255 255   255 255 255   255 255 255   255 255 255   255 255 255   255 255 255   255 255 255   255 255 255   255 255 255   255 255 255   255 255 255   255 255 255   255 255 255   255 255 255   255 255 255   255 255 255   255 255 255   255 255 255   255 255 255   255 255 255   255 255 255   255 255 255   255 255 255   255 255 255   255 255 255   255 255 255   255 255 255   255 255 255   255 255 255   255 255 255   255 255 255   255 255 255   255 255 255   255 255 255   255 255 255   255 255 255   255 255 255   255 255 255   255 255 255   255 255 255   255 255 255   255 255 255   255 255 255   255 255 255   255 255 255   255 255 255   255 255 255   255 255 255   255 255 255   255 255 255   255 255 255   255 255 255   255 255 255   255 255 255   255 255 255   255 255 255   255 255 255   255 255 255   255 255 255   255 255 255   255 255 255   255 255 255   255 255 255   255 255 255   255 255 255   255 255 255   255 255 255   255 255 255   255 255 255   255 255 255   255 255 255   255 255 255   255 255 255   255 255 255   255 255 255   255 255 255   255 255 255   255 255 255   255 255 255   255 255 255   255 255 255   255 255 255   255 255 255   255 255 255   255 255 255   255 255 255   255 255 255   255 255 255   255 255 255   255 255 255   255 255 255   255 255 255   255 255 255   255 255 255   255 255 255   255 255 255   255 255 255   255 255 255   255 255 255   255 255 255   255 255 255   255 255 255   255 255 255   255 255 255   255 255 255   255 255 255   255 255 255   255 255 255   255 255 255   255 255 255   255 255 255   255 255 255   255 255 255   255 255 255   255 255 255   255 255 255   255 255 255   255 255 255   255 255 255   255 255 255   255 255 255   255 255 255   255 255 255   255 255 255   255 255 255   255 255 255   255 255 255   255 255 255   255 255 255   255 255 255   255 255 255   255 255 255   255 255 255   255 255 255   255 255 255   255 255 255   255 255 255   255 255 255   255 255 255   255 255 255   255 255 255   255 255 255   255 255 255   255 255 255   255 255 255   255 255 255   255 255 255   255 255 255   255 255 255   255 255 255   255 255 255   255 255 255   255 255 255   255 255 255   255 255 255   255 255 255   255 255 255   255 255 255   255 255 255   255 255 255   255 255 255   255 255 255   255 255 255   255 255 255   255 255 255   255 255 255   255 255 255   255 255 255   255 255 255   255 255 255   255 255 255   255 255 255   255 255 255   255 255 255   255 255 255   255 255 255   255 255 255   255 255 255   255 255 255   255 255 255   255 255 255   255 255 255   255 255 255   255 255 255   255 255 255   255 255 255   255 255 255   255 255 255   255 255 255   255 255 255   255 255 255   255 255 255   255 255 255   255 255 255   255 255 255   255 255 255   255 255 255   255 255 255   255 255 255   255 255 255   255 255 255   255 255 255   255 255 255   255 255 255   255 255 255   255 255 255   255 255 255   255 255 255   255 255 255   255 255 255   255 255 255   255 255 255   255 255 255   255 255 255   255 255 255   255 255 255   255 255 255   255 255 255   255 255 255   255 255 255   255 255 255   255 255 255   255 255 255   255 255 255   255 255 255   255 255 255   255 255 255   255 255 255   255 255 255   255 255 255   255 255 255   255 255 255   255 255 255   255 255 255   255 255 255   255 255 255   255 255 255   255 255 255   255 255 255   255 255 255   255 255 255   255 255 255   255 255 255   255 255 255   255 255 255   255 255 255
255 255 255   255 255 255   255 255 255   255 255 255   255 255 255   255 255 255   255 255 255   255 255 255   255 255 255   255 255 255   255 255 255   255 255 255   255 255 255   255 255 255   255 255 255   255 255 255   255 255 255   255 255 255   255 255 255   255 255 255   255 255 255   255 255 255   255 255 255   255 255 255   255 255 255   255 255 255   255 255 255   255 255 255   255 255 255   255 255 255   255 255 255   255 255 255   255 255 255   255 255 255   255 255 255   255 255 255   255 255 255   255 255 255   255 255 255   255 255 255   255 255 255   255 255 255   255 255 255   255 255 255   255 255 255   255 255 255   255 255 255   255 255 255   255 255 255   255 255 255   255 255 255   255 255 255   255 255 255   255 255 255   255 255 255   255 255 255   255 255 255   255 255 255   255 255 255   255 255 255   255 255 255   255 255 255   255 255 255   255 255 255   255 255 255   255 255 255   255 255 255   255 255 255   255 255 255   255 255 255   255 255 255   255 255 255   255 255 255   255 255 255   255 255 255   255 255 255   255 255 255   255 255 255   255 255 255   255 255 255   255 255 255   255 255 255   255 255 255   255 255 255   255 255 255   255 255 255   255 255 255   255 255 255   255 255 255   255 255 255   255 255 255   255 255 255   255 255 255   255 255 255   255 255 255   255 255 255   255 255 255   255 255 255   255 255 255   255 255 255   255 255 255   255 255 255   255 255 255   255 255 255   255 255 255   255 255 255   255 255 255   255 255 255   255 255 255   255 255 255   255 255 255   255 255 255   255 255 255   255 255 255   255 255 255   255 255 255   255 255 255   255 255 255   255 255 255   255 255 255   255 255 255   255 255 255   255 255 255   255 255 255   255 255 255   255 255 255   255 255 255   255 255 255   255 255 255   255 255 255   255 255 255   255 255 255   255 255 255   255 255 255   255 255 255   255 255 255   255 255 255   255 255 255   255 255 255   255 255 255   255 255 255   255 255 255   255 255 255   255 255 255   255 255 255   255 255 255   255 255 255   255 255 255   255 255 255   255 255 255   255 255 255   255 255 255   255 255 255   255 255 255   255 255 255   255 255 255   255 255 255   255 255 255   255 255 255   255 255 255   255 255 255   255 255 255   255 255 255   255 255 255   255 255 255   255 255 255   255 255 255   255 255 255   255 255 255   255 255 255   255 255 255   255 255 255   255 255 255   255 255 255   255 255 255   255 255 255   255 255 255   255 255 255   255 255 255   255 255 255   255 255 255   255 255 255   255 255 255   255 255 255   255 255 255   255 255 255   255 255 255   255 255 255   255 255 255   255 255 255   255 255 255   255 255 255   255 255 255   255 255 255   255 255 255   255 255 255   255 255 255   255 255 255   255 255 255   255 255 255   255 255 255   255 255 255   255 255 255   255 255 255   255 255 255   255 255 255   255 255 255   255 255 255   255 255 255   255 255 255   255 255 255   255 255 255   255 255 255   255 255 255   255 255 255   255 255 255   255 255 255   255 255 255   255 255 255   255 255 255   255 255 255   255 255 255   255 255 255   255 255 255   255 255 255   255 255 255   255 255 255   255 255 255   255 255 255   255 255 255   255 255 255   255 255 255   255 255 255   255 255 255   255 255 255   255 255 255   255 255 255   255 255 255   255 255 255   255 255 255   255 255 255   255 255 255   255 255 255   255 255 255   255 255 255   255 255 255   255 255 255   255 255 255   255 255 255   255 255 255   255 255 255   255 255 255   255 255 255   255 255 255   255 255 255   255 255 255
255 255 255   255 255 255   255 255 255   255 255 255   255 255 255   255 255 255   255 255 255   255 255 255   255 255 255   255 255 255   255 255 255   255 255 255   255 255 255   255 255 255   255 255 255   255 255 255   255 255 255   255 255 255   255 255 255   255 255 255   255 255 255   255 255 255   255 255 255   255 255 255   255 255 255   255 255 255   255 255 255   255 255 255   255 255 255   255 255 255   255 255 255   255 255 255   255 255 255   255 255 255   255 255 255   255 255 255   255 255 255   255 255 255   255 255 255   255 255 255   255 255 255   255 255 255   255 255 255   255 255 255   255 255 255   255 255 255   255 255 255   255 255 255   255 255 255   255 255 255   255 255 255   255 255 255   255 255 255   255 255 255   255 255 255   255 255 255   255 255 255   255 255 255   255 255 255   255 255 255   255 255 255   255 255 255   255 255 255   255 255 255   255 255 255   255 255 255   255 255 255   255 255 255   255 255 255   255 255 255   255 255 255   255 255 255   255 255 255   255 255 255   255 255 255   255 255 255   255 255 255   255 255 255   255 255 255   255 255 255   255 255 255   255 255 255   255 255 255   255 255 255   255 255 255   255 255 255   255 255 255   255 255 255   255 255 255   255 255 255   255 255 255   255 255 255   255 255 255   255 255 255   255 255 255   255 255 255   255 255 255   255 255 255   255 255 255   255 255 255   255 255 255   255 255 255   255 255 255   255 255 255   255 255 255   255 255 255   255 255 255   255 255 255   255 255 255   255 255 255   255 255 255   255 255 255   255 255 255   255 255 255   255 255 255   255 255 255   255 255 255   255 255 255   255 255 255   255 255 255   255 255 255   255 255 255   255 255 255   255 255 255   255 255 255   255 255 255   255 255 255   255 255 255   255 255 255   255 255 255   255 255 255   255 255 255   255 255 255   255 255 255   255 255 255   255 255 255   255 255 255   255 255 255   255 255 255   255 255 255   255 255 255   255 255 255   255 255 255   255 255 255   255 255 255   255 255 255   255 255 255   255 255 255   255 255 255   255 255 255   255 255 255   255 255 255   255 255 255   255 255 255   255 255 255   255 255 255   255 255 255   255 255 255   255 255 255   255 255 255   255 255 255   255 255 255   255 255 255   255 255 255   255 255 255   255 255 255   255 255 255   255 255 255   255 255 255   255 255 255   255 255 255   255 255 255   255 255 255   255 255 255   255 255 255   255 255 255   255 255 255   255 255 255   255 255 255   255 255 255   255 255 255   255 255 255   255 255 255   255 255 255   255 255 255   255 255 255   255 255 255   255 255 255   255 255 255   255 255 255   255 255 255   255 255 255   255 255 255   255 255 255   255 255 255   255 255 255   255 255 255   255 255 255   255 255 255   255 255 255   255 255 255   255 255 255   255 255 255   255 255 255   255 255 255   255 255 255   255 255 255   255 255 255   255 255 255   255 255 255   255 255 255   255 255 255   255 255 255   255 255 255   255 255 255   255 255 255   255 255 255   255 255 255   255 255 255   255 255 255   255 255 255   255 255 255   255 255 255   255 255 255   255 255 255   255 255 255   255 255 255   255 255 255   255 255 255   255 255 255   255 255 255   255 255 255   255 255 255   255 255 255   255 255 255   255 255 255   255 255 255   255 255 255   255 255 255   255 255 255   255 255 255   255 255 255   255 255 255   255 255 255   255 255 255   255 255 255   255 255 255   255 255 255   255 255 255   255 255 255   255 255 255   255 255 255   255 255 255   255 255 255   255 255 255   255 255 255
255 255 255   255 255 255   255 255 255   255 255 255   255 255 255   255 255 255   255 255 255   255 255 255   255 255 255   255 255 255   255 255 255   255 255 255   255 255 255   255 255 255   255 255 255   255 255 255   255 255 255   255 255 255   255 255 255   255 255 255   255 255 255   255 255 255   255 255 255   255 255 255   255 255 255   255 255 255   255 255 255   255 255 255   255 255 255   255 255 255   255 255 255   255 255 255   255 255 255   255 255 255   255 255 255   255 255 255   255 255 255   255 255 255   255 255 255   255 255 255   255 255 255   255 255 255   255 255 255   255 255 255   255 255 255   255 255 255   255 255 255   255 255 255   255 255 255   255 255 255   255 255 255   255 255 255   255 255 255   255 255 255   255 255 255   255 255 255   255 255 255   255 255 255   255 255 255   255 255 255   255 255 255   255 255 255   255 255 255   255 255 255   255 255 255   255 255 255   255 255 255   255 255 255   255 255 255   255 255 255   255 255 255   255 255 255   255 255 255   255 255 255   255 255 255   255 255 255   255 255 255   255 255 255   255 255 255   255 255 255   255 255 255   255 255 255   255 255 255   255 255 255   255 255 255   255 255 255   255 255 255   255 255 255   255 255 255   255 255 255   255 255 255   255 255 255   255 255 255   255 255 255   255 255 255   255 255 255   255 255 255   255 255 255   229 229 229   196 196 196   173 173 173   153 153 153   149 149 149   141 141 141   153 153 153   162 162 162   183 183 183   213 213 213   248 248 248   255 255 255   255 255 255   255 255 255   255 255 255   255 255 255   255 255 255   255 255 255   255 255 255   255 255 255   255 255 255   255 255 255   255 255 255   255 255 255   255 255 255   255 255 255   255 255 255   255 255 255   255 255 255   255 255 255   255 255 255   255 255 255   255 255 255   255 255 255   255 255 255   255 255 255   255 255 255   255 255 255   255 255 255   255 255 255   255 255 255   255 255 255   255 255 255   255 255 255   255 255 255   255 255 255   255 255 255   255 255 255   255 255 255   255 255 255   255 255 255   255 255 255   255 255 255   255 255 255   255 255 255   255 255 255   255 255 255   255 255 255   255 255 255   255 255 255   255 255 255   255 255 255   255 255 255   255 255 255   255 255 255   255 255 255   255 255 255   255 255 255   255 255 255   255 255 255   255 255 255   255 255 255   255 255 255   255 255 255   255 255 255   255 255 255   255 255 255   255 255 255   255 255 255   255 255 255   255 255 255   255 255 255   255 255 255   255 255 255   255 255 255   255 255 255   255 255 255   255 255 255   255 255 255   255 255 255   255 255 255   255 255 255   255 255 255   255 255 255   255 255 255   255 255 255   255 255 255   255 255 255   255 255 255   255 255 255   255 255 255   255 255 255   255 255 255   255 255 255   255 255 255   255 255 255   255 255 255   255 255 255   255 255 255   255 255 255   255 255 255   255 255 255   255 255 255   255 255 255   255 255 255   255 255 255   255 255 255   255 255 255   255 255 255   255 255 255   255 255 255   255 255 255   255 255 255   255 255 255   255 255 255   255 255 255   255 255 255   255 255 255   255 255 255   255 255 255   255 255 255   255 255 255   255 255 255   255 255 255   255 255 255   255 255 255   255 255 255   255 255 255   255 255 255   255 255 255   255 255 255   255 255 255   255 255 255   255 255 255   255 255 255   255 255 255   255 255 255   255 255 255   255 255 255   255 255 255   255 255 255   255 255 255   255 255 255   255 255 255   255 255 255   255 255 255   255 255 255   255 255 255
255 255 255   255 255 255   255 255 255   255 255 255   255 255 255   255 255 255   255 255 255   255 255 255   255 255 255   255 255 255   255 255 255   255 255 255   255 255 255   255 255 255   255 255 255   255 255 255   255 255 255   255 255 255   255 255 255   255 255 255   255 255 255   255 255 255   255 255 255   255 255 255   255 255 255   255 255 255   255 255 255   255 255 255   255 255 255   255 255 255   255 255 255   255 255 255   255 255 255   255 255 255   255 255 255   255 255 255   255 255 255   255 255 255   255 255 255   255 255 255   255 255 255   255 255 255   255 255 255   255 255 255   255 255 255   255 255 255   255 255 255   255 255 255   255 255 255   255 255 255   255 255 255   255 255 255   255 255 255   255 255 255   255 255 255   255 255 255   255 255 255   255 255 255   255 255 255   255 255 255   255 255 255   255 255 255   255 255 255   255 255 255   255 255 255   255 255 255   255 255 255   255 255 255   255 255 255   255 255 255   255 255 255   255 255 255   255 255 255   255 255 255   255 255 255   255 255 255   255 255 255   255 255 255   255 255 255   255 255 255   255 255 255   255 255 255   255 255 255   255 255 255   255 255 255   255 255 255   255 255 255   255 255 255   255 255 255   255 255 255   255 255 255   255 255 255   255 255 255   246 246 246   183 183 183   118 118 118    62  62  62    14  14  14     0   0   0     0   0   0     0   0   0     0   0   0     0   0   0     0   0   0     0   0   0     0   0   0     0   0   0     0   0   0     2   2   2    40  40  40    92  92  92   152 152 152   222 222 222   255 255 255   255 255 255   255 255 255   255 255 255   255 255 255   255 255 255   255 255 255   255 255 255   255 255 255   255 255 255   255 255 255   255 255 255   255 255 255   255 255 255   255 255 255   255 255 255   255 255 255   255 255 255   255 255 255   255 255 255   255 255 255   255 255 255   255 255 255   255 255 255   255 255 255   255 255 255   255 255 255   255 255 255   255 255 255   255 255 255   255 255 255   255 255 255   255 255 255   255 255 255   255 255 255   255 255 255   255 255 255   255 255 255   255 255 255   255 255 255   255 255 255   255 255 255   255 255 255   255 255 255   255 255 255   255 255 255   255 255 255   255 255 255   255 255 255   255 255 255   255 255 255   255 255 255   255 255 255   255 255 255   255 255 255   255 255 255   255 255 255   255 255 255   255 255 255   255 255 255   255 255 255   255 255 255   255 255 255   255 255 255   255 255 255   255 255 255   255 255 255   255 255 255   255 255 255   255 255 255   255 255 255   255 255 255   255 255 255   255 255 255   255 255 255   255 255 255   255 255 255   255 255 255   255 255 255   255 255 255   255 255 255   255 255 255   255 255 255   255 255 255   255 255 255   255 255 255   255 255 255   255 255 255   255 255 255   255 255 255   255 255 255   255 255 255   255 255 255   255 255 255   255 255 255   255 255 255   255 255 255   255 255 255   255 255 255   255 255 255   255 255 255   255 255 255   255 255 255   255 255 255   255 255 255   255 255 255   255 255 255   255 255 255   255 255 255   255 255 255   255 255 255   255 255 255   255 255 255   255 255 255   255 255 255   255 255 255   255 255 255   255 255 255   255 255 255   255 255 255   255 255 255   255 255 255   255 255 255   255 255 255   255 255 255   255 255 255   255 255 255   255 255 255   255 255 255   255 255 255   255 255 255   255 255 255   255 255 255   255 255 255   255 255 255   255 255 255   255 255 255   255 255 255   255 255 255   255 255 255   255 255 255   255 255 255   255 255 255
255 255 255   255 255 255   255 255 255   255 255 255   255 255 255   255 255 255   255 255 255   255 255 255   255 255 255   255 255 255   255 255 255   255 255 255   255 255 255   255 255 255   255 255 255   255 255 255   255 255 255   255 255 255   255 255 255   255 255 255   255 255 255   255 255 255   255 255 255   255 255 255   255 255 255   255 255 255   255 255 255   255 255 255   255 255 255   255 255 255   255 255 255   255 255 255   255 255 255   255 255 255   255 255 255   255 255 255   255 255 255   255 255 255   255 255 255   255 255 255   255 255 255   255 255 255   255 255 255   255 255 255   255 255 255   255 255 255   255 255 255   255 255 255   255 255 255   255 255 255   255 255 255   255 255 255   255 255 255   255 255 255   255 255 255   255 255 255   255 255 255   255 255 255   255 255 255   255 255 255   255 255 255   255 255 255   255 255 255   255 255 255   255 255 255   255 255 255   255 255 255   255 255 255   255 255 255   255 255 255   255 255 255   255 255 255   255 255 255   255 255 255   255 255 255   255 255 255   255 255 255   255 255 255   255 255 255   255 255 255   255 255 255   255 255 255   255 255 255   255 255 255   255 255 255   255 255 255   255 255 255   255 255 255   255 255 255   255 255 255   250 250 250   174 174 174    82  82  82    10  10  10     0   0   0     0   0   0     0   0   0     0   0   0    20  20  20    56  56  56    81  81  81   100 100 100   106 106 106   114 114 114   102 102 102    91  91  91    68  68  68    37  37  37     5   5   5     0   0   0     0   0   0     0   0   0     0   0   0    44  44  44   130 130 130   224 224 224   255 255 255   255 255 255   255 255 255   255 255 255   255 255 255   255 255 255   255 255 255   255 255 255   255 255 255   255 255 255   255 255 255   255 255 255   255 255 255   255 255 255   255 255 255   255 255 255   255 255 255   255 255 255   255 255 255   255 255 255   255 255 255   255 255 255   255 255 255   255 255 255   255 255 255   255 255 255   255 255 255   255 255 255   255 255 255   255 255 255   255 255 255   255 255 255   255 255 255   255 255 255   255 255 255   255 255 255   255 255 255   255 255 255   255 255 255   255 255 255   255 255 255   255 255 255   255 255 255   255 255 255   255 255 255   255 255 255   255 255 255   255 255 255   255 255 255   255 255 255   255 255 255   255 255 255   255 255 255   255 255 255   255 255 255   255 255 255   255 255 255   255 255 255   255 255 255   255 255 255   255 255 255   255 255 255   255 255 255   255 255 255   255 255 255   255 255 255   255 255 255   255 255 255   255 255 255   255 255 255   255 255 255   255 255 255   255 255 255   255 255 255   255 255 255   255 255 255   255 255 255   255 255 255   255 255 255   255 255 255   255 255 255   255 255 255   255 255 255   255 255 255   255 255 255   255 255 255   255 255 255   255 255 255   255 255 255   255 255 255   255 255 255   255 255 255   255 255 255   255 255 255   255 255 255   255 255 255   255 255 255   255 255 255   255 255 255   255 255 255   255 255 255   255 255 255   255 255 255   255 255 255   255 255 255   255 255 255   255 255 255   255 255 255   255 255 255   255 255 255   255 255 255   255 255 255   255 255 255   255 255 255   255 255 255   255 255 255   255 255 255   255 255 255   255 255 255   255 255 255   255 255 255   255 255 255   255 255 255   255 255 255   255 255 255   255 255 255   255 255 255   255 255 255   255 255 255   255 255 255   255 255 255   255 255 255   255 255 255   255 255 255   255 255 255   255 255 255   255 255 255   255 255 255   255 255 255   255 255 255
255 255 255   255 255 255   255 255 255   255 255 255   255 255 255   255 255 255   255 255 255   255 255 255   255 255 255   255 255 255   255 255 255   255 255 255   255 255 255   255 255 255   255 255 255   255 255 255   255 255 255   255 255 255   255 255 255   255 255 255   255 255 255   255 255 255   255 255 255   255 255 255   255 255 255   255 255 255   255 255 255   255 255 255   255 255 255   255 255 255   255 255 255   255 255 255   255 255 255   255 255 255   255 255 255   255 255 255   255 255 255   255 255 255   255 255 255   255 255 255   255 255 255   255 255 255   255 255 255   255 255 255   255 255 255   255 255 255   255 255 255   255 255 255   255 255 255   255 255 255   255 255 255   255 255 255   255 255 255   255 255 255   255 255 255   255 255 255   255 255 255   255 255 255   255 255 255   255 255 255   255 255 255   255 255 255   255 255 255   255 255 255   255 255 255   255 255 255   255 255 255   255 255 255   255 255 255   255 255 255   255 255 255   255 255 255   255 255 255   255 255 255   255 255 255   255 255 255   255 255 255   255 255 255   255 255 255   255 255 255   255 255 255   255 255 255   255 255 255   255 255 255   255 255 255   255 255 255   255 255 255   255 255 255   235 235 235   127 127 127    24  24  24     0   0   0     0   0   0     2   2   2    52  52  52   121 121 121   181 181 181   234 234 234   255 216   0   255 216   0   255 216   0   255 216   0   255 216   0   255 216   0   255 216   0   255 216   0   255 216   0   255 216   0   250 250 250   206 206 206   149 149 149    85  85  85    16  16  16     0   0   0     0   0   0     2   2   2    77  77  77   191 191 191   255 255 255   255 255 255   255 255 255   255 255 255   255 255 255   255 255 255   255 255 255   255 255 255   255 255 255   255 255 255   255 255 255   255 255 255   255 255 255   255 255 255   255 255 255   255 255 255   255 255 255   255 255 255   255 255 255   255 255 255   255 255 255   255 255 255   255 255 255   255 255 255   255 255 255   255 255 255   255 255 255   255 255 255   255 255 255   255 255 255   255 255 255   255 255 255   255 255 255   255 255 255   255 255 255   255 255 255   255 255 255   255 255 255   255 255 255   255 255 255   255 255 255   255 255 255   255 255 255   255 255 255   255 255 255   255 255 255   255 255 255   255 255 255   255 255 255   255 255 255   255 255 255   255 255 255   255 255 255   255 255 255   255 255 255   255 255 255   255 255 255   255 255 255   255 255 255   255 255 255   255 255 255   255 255 255   255 255 255   255 255 255   255 255 255   255 255 255   255 255 255   255 255 255   255 255 255   255 255 255   255 255 255   255 255 255   255 255 255   255 255 255   255 255 255   255 255 255   255 255 255   255 255 255   255 255 255   255 255 255   255 255 255   255 255 255   255 255 255   255 255 255   255 255 255   255 255 255   255 255 255   255 255 255   255 255 255   255 255 255   255 255 255   255 255 255   255 255 255   255 255 255   255 255 255   255 255 255   255 255 255   255 255 255   255 255 255   255 255 255   255 255 255   255 255 255   255 255 255   255 255 255   255 255 255   255 255 255   255 255 255   255 255 255   255 255 255   255 255 255   255 255 255   255 255 255   255 255 255   255 255 255   255 255 255   255 255 255   255 255 255   255 255 255   255 255 255   255 255 255   255 255 255   255 255 255   255 255 255   255 255 255   255 255 255   255 255 255   255 255 255   255 255 255   255 255 255   255 255 255   255 255 255   255 255 255   255 255 255   255 255 255   255 255 255   255 255 255   255 255 255   255 255 255
255 255 255   255 255 255   255 255 255   255 255 255   255 255 255   255 255 255   255 255 255   255 255 255   255 255 255   255 255 255   255 255 255   255 255 255   255 255 255   255 255 255   255 255 255   255 255 255   255 255 255   255 255 255   255 255 255   255 255 255   255 255 255   255 255 255   255 255 255   255 255 255   255 255 255   255 255 255   255 255 255   255 255 255   255 255 255   255 255 255   255 255 255   255 255 255   255 255 255   255 255 255   255 255 255   255 255 255   255 255 255   255 255 255   255 255 255   255 255 255   255 255 255   255 255 255   255 255 255   255 255 255   255 255 255   255 255 255   255 255 255   255 255 255   255 255 255   255 255 255   255 255 255   255 255 255   255 255 255   255 255 255   255 255 255   255 255 255   255 255 255   255 255 255   255 255 255   255 255 255   255 255 255   255 255 255   255 255 255   255 255 255   255 255 255   255 255 255   255 255 255   255 255 255   255 255 255   255 255 255   255 255 255   255 255 255   255 255 255   255 255 255   255 255 255   255 255 255   255 255 255   255 255 255   255 255 255   255 255 255   255 255 255   255 255 255   255 255 255   255 255 255   255 255 255   255 255 255   241 241 241   123 123 123    12  12  12     0   0   0     0   0   0    44  44  44   142 142 142   228 228 228   255 216   0   255 216   0   255 216   0   255 216   0   255 216   0   255 216   0   255 216   0   255 216   0   255 216   0   255 216   0   255 216   0   255 216   0   255 216   0   255 216   0   255 216   0   255 216   0   255 216   0   255 216   0   250 250 250   183 183 183    90  90  90     8   8   8     0   0   0     0   0   0    62  62  62   197 197 197   255 255 255   255 255 255   255 255 255   255 255 255   255 255 255   255 255 255   255 255 255   255 255 255   255 255 255   255 255 255   255 255 255   255 255 255   255 255 255   255 255 255   255 255 255   255 255 255   255 255 255   255 255 255   255 255 255   255 255 255   255 255 255   255 255 255   255 255 255   255 255 255   255 255 255   255 255 255   255 255 255   255 255 255   255 255 255   255 255 255   255 255 255   255 255 255   255 255 255   255 255 255   255 255 255   255 255 255   255 255 255   255 255 255   255 255 255   255 255 255   255 255 255   255 255 255   255 255 255   255 255 255   255 255 255   255 255 255   255 255 255   255 255 255   255 255 255   255 255 255   255 255 255   255 255 255   255 255 255   255 255 255   255 255 255   255 255 255   255 255 255   255 255 255   255 255 255   255 255 255   255 255 255   255 255 255   255 255 255   255 255 255   255 255 255   255 255 255   255 255 255   255 255 255   255 255 255   255 255 255   255 255 255   255 255 255   255 255 255   255 255 255   255 255 255   255 255 255   255 255 255   255 255 255   255 255 255   255 255 255   255 255 255   255 255 255   255 255 255   255 255 255   255 255 255   255 255 255   255 255 255   255 255 255   255 255 255   255 255 255   255 255 255   255 255 255   255 255 255   255 255 255   255 255 255   255 255 255   255 255 255   255 255 255   255 255 255   255 255 255   255 255 255   255 255 255   255 255 255   255 255 255   255 255 255   255 255 255   255 255 255   255 255 255   255 255 255   255 255 255   255 255 255   255 255 255   255 255 255   255 255 255   255 255 255   255 255 255   255 255 255   255 255 255   255 255 255   255 255 255   255 255 255   255 255 255   255 255 255   255 255 255   255 255 255   255 255 255   255 255 255   255 255 255   255 255 255   255 255 255   255 255 255   255 255 255   255 255 255   255 255 255   255 255 255   255 255 255
255 255 255   255 255 255   255 255 255   255 255 255   255 255 255   255 255 255   255 255 255   255 255 255   255 255 255   255 255 255   255 255 255   255 255 255   255 255 255   255 255 255   255 255 255   255 255 255   255 255 255   255 255 255   255 255 255   255 255 255   255 255 255   255 255 255   255 255 255   255 255 255   255 255 255   255 255 255   255 255 255   255 255 255   255 255 255   255 255 255   255 255 255   255 255 255   255 255 255   255 255 255   255 255 255   255 255 255   255 255 255   255 255 255   255 255 255   255 255 255   255 255 255   255 255 255   255 255 255   255 255 255   255 255 255   255 255 255   255 255 255   255 255 255   255 255 255   255 255 255   255 255 255   255 255 255   255 255 255   255 255 255   255 255 255   255 255 255   255 255 255   255 255 255   255 255 255   255 255 255   255 255 255   255 255 255   255 255 255   255 255 255   255 255 255   255 255 255   255 255 255   255 255 255   255 255 255   255 255 255   255 255 255   255 255 255   255 255 255   255 255 255   255 255 255   255 255 255   255 255 255   255 255 255   255 255 255   255 255 255   255 255 255   255 255 255   255 255 255   255 255 255   254 254 254   160 160 160    23  23  23     0   0   0     0   0   0    74  74  74   192 192 192   255 216   0   255 216   0   255 216   0   255 216   0   255 216   0   255 216   0   255 216   0   255 216   0   255 216   0   255 216   0   255 216   0   255 216   0   255 216   0   255 216   0   255 216   0   255 216   0   255 216   0   255 216   0   255 216   0   255 216   0   255 216   0   255 216   0   255 216   0   255 216   0   234 234 234   129 129 129    19  19  19     0   0   0     1   1   1    89  89  89   230 230 230   255 255 255   255 255 255   255 255 255   255 255 255   255 255 255   255 255 255   255 255 255   255 255 255   255 255 255   255 255 255   255 255 255   255 255 255   255 255 255   255 255 255   255 255 255   255 255 255   255 255 255   255 255 255   255 255 255   255 255 255   255 255 255   255 255 255   255 255 255   255 255 255   255 255 255   255 255 255   255 255 255   255 255 255   255 255 255   255 255 255   255 255 255   255 255 255   255 255 255   255 255 255   255 255 255   255 255 255   255 255 255   255 255 255   255 255 255   255 255 255   255 255 255   255 255 255   255 255 255   255 255 255   255 255 255   255 255 255   255 255 255   255 255 255   255 255 255   255 255 255   255 255 255   255 255 255   255 255 255   255 255 255   255 255 255   255 255 255   255 255 255   255 255 255   255 255 255   255 255 255   255 255 255   255 255 255   255 255 255   255 255 255   255 255 255   255 255 255   255 255 255   255 255 255   255 255 255   255 255 255   255 255 255   255 255 255   255 255 255   255 255 255   255 255 255   255 255 255   255 255 255   255 255 255   255 255 255   255 255 255   255 255 255   255 255 255   255 255 255   255 255 255   255 255 255   255 255 255   255 255 255   255 255 255   255 255 255   255 255 255   255 255 255   255 255 255   255 255 255   255 255 255   255 255 255   255 255 255   255 255 255   255 255 255   255 255 255   255 255 255   255 255 255   255 255 255   255 255 255   255 255 255   255 255 255   255 255 255   255 255 255   255 255 255   255 255 255   255 255 255   255 255 255   255 255 255   255 255 255   255 255 255   255 255 255   255 255 255   255 255 255   255 255 255   255 255 255   255 255 255   255 255 255   255 255 255   255 255 255   255 255 255   255 255 255   255 255 255   255 255 255   255 255 255   255 255 255   255 255 255   255 255 255   255 255 255   255 255 255   255 255 255
255 255 255   255 255 255   255 255 255   255 255 255   255 255 255   255 255 255   255 255 255   255 255 255   255 255 255   255 255 255   255 255 255   255 255 255   255 255 255   255 255 255   255 255 255   255 255 255   255 255 255   255 255 255   255 255 255   255 255 255   255 255 255   255 255 255   255 255 255   255 255 255   255 255 255   255 255 255   255 255 255   255 255 255   255 255 255   255 255 255   255 255 255   255 255 255   255 255 255   255 255 255   255 255 255   255 255 255   255 255 255   255 255 255   255 255 255   255 255 255   255 255 255   255 255 255   255 255 255   255 255 255   255 255 255   255 255 255   255 255 255   255 255 255   255 255 255   255 255 255   255 255 255   255 255 255   255 255 255   255 255 255   255 255 255   255 255 255   255 255 255   255 255 255   255 255 255   255 255 255   255 255 255   255 255 255   255 255 255   255 255 255   255 255 255   255 255 255   255 255 255   255 255 255   255 255 255   255 255 255   255 255 255   255 255 255   255 255 255   255 255 255   255 255 255   255 255 255   255 255 255   255 255 255   255 255 255   255 255 255   255 255 255   255 255 255   255 255 255   227 227 227    69  69  69     0   0   0     0   0   0    61  61  61   200 200 200   255 216   0   255 216   0   255 216   0   255 216   0   255 216   0   255 216   0   255 216   0   255 216   0   255 216   0   255 216   0   255 216   0   255 216   0   255 216   0   255 216   0   255 216   0   255 216   0   255 216   0   255 216   0   255 216   0   255 216   0   255 216   0   255 216   0   255 216   0   255 216   0   255 216   0   255 216   0   255 216   0   255 216   0   242 242 242   126 126 126    10  10  10     0   0   0    17  17  17   163 163 163   255 255 255   255 255 255   255 255 255   255 255 255   255 255 255   255 255 255   255 255 255   255 255 255   255 255 255   255 255 255   255 255 255   255 255 255   255 255 255   255 255 255   255 255 255   255 255 255   255 255 255   255 255 255   255 255 255   255 255 255   255 255 255   255 255 255   255 255 255   255 255 255   255 255 255   255 255 255   255 255 255   255 255 255   255 255 255   255 255 255   255 255 255   255 255 255   255 255 255   255 255 255   255 255 255   255 255 255   255 255 255   255 255 255   255 255 255   255 255 255   255 255 255   255 255 255   255 255 255   255 255 255   255 255 255   255 255 255   255 255 255   255 255 255   255 255 255   255 255 255   255 255 255   255 255 255   255 255 255   255 255 255   255 255 255   255 255 255   255 255 255   255 255 255   255 255 255   255 255 255   255 255 255   255 255 255   255 255 255   255 255 255   255 255 255   255 255 255   255 255 255   255 255 255   255 255 255   255 255 255   255 255 255   255 255 255   255 255 255   255 255 255   255 255 255   255 255 255   255 255 255   255 255 255   255 255 255   255 255 255   255 255 255   255 255 255   255 255 255   255 255 255   255 255 255   255 255 255   255 255 255   255 255 255   255 255 255   255 255 255   255 255 255   255 255 255   255 255 255   255 255 255   255 255 255   255 255 255   255 255 255   255 255 255   255 255 255   255 255 255   255 255 255   255 255 255   255 255 255   255 255 255   255 255 255   255 255 255   255 255 255   255 255 255   255 255 255   255 255 255   255 255 255   255 255 255   255 255 255   255 255 255   255 255 255   255 255 255   255 255 255   255 255 255   255 255 255   255 255 255   255 255 255   255 255 255   255 255 255   255 255 255   255 255 255   255 255 255   255 255 255   255 255 255   255 255 255   255 255 255   255 255 255   255 255 255   255 255 255
255 255 255   255 255 255   255 255 255   255 255 255   255 255 255   255 255 255   255 255 255   255 255 255   255 255 255   255 255 255   255 255 255   255 255 255   255 255 255   255 255 255   255 255 255   255 255 255   255 255 255   255 255 255   255 255 255   255 255 255   255 255 255   255 255 255   255 255 255   255 255 255   255 255 255   255 255 255   255 255 255   255 255 255   255 255 255   255 255 255   255 255 255   255 255 255   255 255 255   255 255 255   255 255 255   255 255 255   255 255 255   255 255 255   255 255 255   255 255 255   255 255 255   255 255 255   255 255 255   255 255 255   255 255 255   255 255 255   255 255 255   255 255 255   255 255 255   255 255 255   255 255 255   255 255 255   255 255 255   255 255 255   255 255 255   255 255 255   255 255 255   255 255 255   255 255 255   255 255 255   255 255 255   255 255 255   255 255 255   255 255 255   255 255 255   255 255 255   255 255 255   255 255 255   255 255 255   255 255 255   255 255 255   255 255 255   255 255 255   255 255 255   255 255 255   255 255 255   255 255 255   255 255 255   255 255 255   255 255 255   255 255 255   255 255 255   178 178 178    18  18  18     0   0   0    20  20  20   163 163 163   254 254 254   255 216   0   255 216   0   255 216   0   255 216   0   255 216   0   255 216   0   255 216   0   255 216   0   255 216   0   255 216   0   255 216   0   255 216   0   255 216   0   255 216   0   255 216   0   255 216   0   255 216   0   255 216   0   255 216   0   255 216   0   255 216   0   255 216   0   255 216   0   255 216   0   255 216   0   255 216   0   255 216   0   255 216   0   255 216   0   255 216   0   255 216   0   224 224 224    75  75  75     0   0   0     0   0   0    91  91  91   243 243 243   255 255 255   255 255 255   255 255 255   255 255 255   255 255 255   255 255 255   255 255 255   255 255 255   255 255 255   255 255 255   255 255 255   255 255 255   255 255 255   255 255 255   255 255 255   255 255 255   255 255 255   255 255 255   255 255 255   255 255 255   255 255 255   255 255 255   255 255 255   255 255 255   255 255 255   255 255 255   255 255 255   255 255 255   255 255 255   255 255 255   255 255 255   255 255 255   255 255 255   255 255 255   255 255 255   255 255 255   255 255 255   255 255 255   255 255 255   255 255 255   255 255 255   255 255 255   255 255 255   255 255 255   255 255 255   255 255 255   255 255 255   255 255 255   255 255 255   255 255 255   255 255 255   255 255 255   255 255 255   255 255 255   255 255 255   255 255 255   255 255 255   255 255 255   255 255 255   255 255 255   255 255 255   255 255 255   255 255 255   255 255 255   255 255 255   255 255 255   255 255 255   255 255 255   255 255 255   255 255 255   255 255 255   255 255 255   255 255 255   255 255 255   255 255 255   255 255 255   255 255 255   255 255 255   255 255 255   255 255 255   255 255 255   255 255 255   255 255 255   255 255 255   255 255 255   255 255 255   255 255 255   255 255 255   255 255 255   255 255 255   255 255 255   255 255 255   255 255 255   255 255 255   255 255 255   255 255 255   255 255 255   255 255 255   255 255 255   255 255 255   255 255 255   255 255 255   255 255 255   255 255 255   255 255 255   255 255 255   255 255 255   255 255 255   255 255 255   255 255 255   255 255 255   255 255 255   255 255 255   255 255 255   255 255 255   255 255 255   255 255 255   255 255 255   255 255 255   255 255 255   255 255 255   255 255 255   255 255 255   255 255 255   255 255 255   255 255 255   255 255 255   255 255 255   255 255 255   255 255 255   255 255 255
255 255 255   255 255 255   255 255 255   255 255 255   255 255 255   255 255 255   255 255 255   255 255 255   255 255 255   255 255 255   255 255 255   255 255 255   255 255 255   255 255 255   255 255 255   255 255 255   255 255 255   255 255 255   255 255 255   255 255 255   255 255 255   255 255 255   255 255 255   255 255 255   255 255 255   255 255 255   255 255 255   255 255 255   255 255 255   255 255 255   255 255 255   255 255 255   255 255 255   255 255 255   255 255 255   255 255 255   255 255 255   255 255 255   255 255 255   255 255 255   255 255 255   255 255 255   255 255 255   255 255 255   255 255 255   255 255 255   255 255 255   255 255 255   255 255 255   255 255 255   255 255 255   255 255 255   255 255 255   255 255 255   255 255 255   255 255 255   255 255 255   255 255 255   255 255 255   255 255 255   255 255 255   255 255 255   255 255 255   255 255 255   255 255 255   255 255 255   255 255 255   255 255 255   255 255 255   255 255 255   255 255 255   255 255 255   255 255 255   255 255 255   255 255 255   255 255 255   255 255 255   255 255 255   255 255 255   255 255 255   254 254 254   129 129 129     1   1   1     0   0   0    77  77  77   233 233 233   255 216   0   255 216   0   255 216   0   255 216   0   255 216   0   255 216   0   255 216   0   255 216   0   255 216   0   255 216   0   255 216   0   255 216   0   255 216   0   255 216   0   255 216   0   255 216   0   255 216   0   255 216   0   255 216   0   255 216   0   255 216   0   255 216   0   255 216   0   255 216   0   255 216   0   255 216   0   255 216   0   255 216   0   255 216   0   255 216   0   255 216   0   255 216   0   255 216   0   255 216   0   255 216   0   158 158 158    12  12  12     0   0   0    45  45  45   223 223 223   255 255 255   255 255 255   255 255 255   255 255 255   255 255 255   255 255 255   255 255 255   255 255 255   255 255 255   255 255 255   255 255 255   255 255 255   255 255 255   255 255 255   255 255 255   255 255 255   255 255 255   255 255 255   255 255 255   255 255 255   255 255 255   255 255 255   255 255 255   255 255 255   255 255 255   255 255 255   255 255 255   255 255 255   255 255 255   255 255 255   255 255 255   255 255 255   255 255 255   255 255 255   255 255 255   255 255 255   255 255 255   255 255 255   255 255 255   255 255 255   255 255 255   255 255 255   255 255 255   255 255 255   255 255 255   255 255 255   255 255 255   255 255 255   255 255 255   255 255 255   255 255 255   255 255 255   255 255 255   255 255 255   255 255 255   255 255 255   255 255 255   255 255 255   255 255 255   255 255 255   255 255 255   255 255 255   255 255 255   255 255 255   255 255 255   255 255 255   255 255 255   255 255 255   255 255 255   255 255 255   255 255 255   255 255 255   255 255 255   255 255 255   255 255 255   255 255 255   255 255 255   255 255 255   255 255 255   255 255 255   255 255 255   255 255 255   255 255 255   255 255 255   255 255 255   255 255 255   255 255 255   255 255 255   255 255 255   255 255 255   255 255 255   255 255 255   255 255 255   255 255 255   255 255 255   255 255 255   255 255 255   255 255 255   255 255 255   255 255 255   255 255 255   255 255 255   255 255 255   255 255 255   255 255 255   255 255 255   255 255 255   255 255 255   255 255 255   255 255 255   255 255 255   255 255 255   255 255 255   255 255 255   255 255 255   255 255 255   255 255 255   255 255 255   255 255 255   255 255 255   255 255 255   255 255 255   255 255 255   255 255 255   255 255 255   255 255 255   255 255 255   255 255 255   255 255 255   255 255 255
255 255 255   255 255 255   255 255 255   255 255 255   255 255 255   255 255 255   255 255 255   255 255 255   255 255 255   255 255 255   255 255 255   255 255 255   255 255 255   255 255 255   255 255 255   255 255 255   255 255 255   255 255 255   255 255 255   255 255 255   255 255 255   255 255 255   255 255 255   255 255 255   255 255 255   255 255 255   255 255 255   255 255 255   255 255 255   255 255 255   255 255 255   255 255 255   255 255 255   255 255 255   255 255 255   255 255 255   255 255 255   255 255 255   255 255 255   255 255 255   255 255 255   255 255 255   255 255 255   255 255 255   255 255 255   255 255 255   255 255 255   255 255 255   255 255 255   255 255 255   255 255 255   255 255 255   255 255 255   255 255 255   255 255 255   255 255 255   255 255 255   255 255 255   255 255 255   255 255 255   255 255 255   255 255 255   255 255 255   255 255 255   255 255 255   255 255 255   255 255 255   255 255 255   255 255 255   255 255 255   255 255 255   255 255 255   255 255 255   255 255 255   255 255 255   255 255 255   255 255 255   255 255 255   255 255 255   250 250 250    94  94  94     0   0   0     3   3   3   139 139 139   254 254 254   255 216   0   255 216   0   255 216   0   255 216   0   255 216   0   255 216   0   255 216   0   255 216   0   255 216   0   255 216   0   255 216   0   255 216   0   255 216   0   255 216   0   255 216   0   255 216   0   255 216   0   255 216   0   255 216   0   255 216   0   255 216   0   255 216   0   255 216   0   255 216   0   255 216   0   255 216   0   255 216   0   255 216   0   255 216   0   255 216   0   255 216   0   255 216   0   255 216   0   255 216   0   255 216   0   255 216   0   255 216   0   215 215 215    42  42  42     0   0   0    23  23  23   205 205 205   255 255 255   255 255 255   255 255 255   255 255 255   255 255 255   255 255 255   255 255 255   255 255 255   255 255 255   255 255 255   255 255 255   255 255 255   255 255 255   255 255 255   255 255 255   255 255 255   255 255 255   255 255 255   255 255 255   255 255 255   255 255 255   255 255 255   255 255 255   255 255 255   255 255 255   255 255 255   255 255 255   255 255 255   255 255 255   255 255 255   255 255 255   255 255 255   255 255 255   255 255 255   255 255 255   255 255 255   255 255 255   255 255 255   255 255 255   255 255 255   255 255 255   255 255 255   255 255 255   255 255 255   255 255 255   255 255 255   255 255 255   255 255 255   255 255 255   255 255 255   255 255 255   255 255 255   255 255 255   255 255 255   255 255 255   255 255 255   255 255 255   255 255 255   255 255 255   255 255 255   255 255 255   255 255 255   255 255 255   255 255 255   255 255 255   255 255 255   255 255 255   255 255 255   255 255 255   255 255 255   255 255 255   255 255 255   255 255 255   255 255 255   255 255 255   255 255 255   255 255 255   255 255 255   255 255 255   255 255 255   255 255 255   255 255 255   255 255 255   255 255 255   255 255 255   255 255 255   255 255 255   255 255 255   255 255 255   255 255 255   255 255 255   255 255 255   255 255 255   255 255 255   255 255 255   255 255 255   255 255 255   255 255 255   255 255 255   255 255 255   255 255 255   255 255 255   255 255 255   255 255 255   255 255 255   255 255 255   255 255 255   255 255 255   255 255 255   255 255 255   255 255 255   255 255 255   255 255 255   255 255 255   255 255 255   255 255 255   255 255 255   255 255 255   255 255 255   255 255 255   255 255 255   255 255 255   255 255 255   255 255 255   255 255 255   255 255 255   255 255 255   255 255 255   255 255 255
255 255 255   255 255 255   255 255 255   255 255 255   255 255 255   255 255 255   255 255 255   255 255 255   255 255 255   255 255 255   255 255 255   255 255 255   255 255 255   255 255 255   255 255 255   255 255 255   255 255 255   255 255 255   255 255 255   255 255 255   255 255 255   255 255 255   255 255 255   255 255 255   255 255 255   255 255 255   255 255 255   255 255 255   255 255 255   255 255 255   255 255 255   255 255 255   255 255 255   255 255 255   255 255 255   255 255 255   255 255 255   255 255 255   255 255 255   255 255 255   255 255 255   255 255 255   255 255 255   255 255 255   255 255 255   255 255 255   255 255 255   255 255 255   255 255 255   255 255 255   255 255 255   255 255 255   255 255 255   255 255 255   255 255 255   255 255 255   255 255 255   255 255 255   255 255 255   255 255 255   255 255 255   255 255 255   255 255 255   255 255 255   255 255 255   255 255 255   255 255 255   255 255 255   255 255 255   255 255 255   255 255 255   255 255 255   255 255 255   255 255 255   255 255 255   255 255 255   255 255 255   255 255 255   249 249 249    80  80  80     0   0   0    12  12  12   182 182 182   255 216   0   255 216   0   255 216   0   255 216   0   255 216   0   255 216   0   255 216   0   255 216   0   255 216   0   255 216   0   255 216   0   255 216   0   255 216   0   255 216   0   255 216   0   255 216   0   255 216   0   255 216   0   255 216   0   255 216   0   255 216   0   255 216   0   255 216   0   255 216   0   255 216   0   255 216   0   255 216   0   255 216   0   255 216   0   255 216   0   255 216   0   255 216   0   255 216   0   255 216   0   255 216   0   255 216   0   255 216   0   255 216   0   255 216   0   255 216   0   241 241 241    70  70  70     0   0   0    15  15  15   198 198 198   255 255 255   255 255 255   255 255 255   255 255 255   255 255 255   255 255 255   255 255 255   255 255 255   255 255 255   255 255 255   255 255 255   255 255 255   255 255 255   255 255 255   255 255 255   255 255 255   255 255 255   255 255 255   255 255 255   255 255 255   255 255 255   255 255 255   255 255 255   255 255 255   255 255 255   255 255 255   255 255 255   255 255 255   255 255 255   255 255 255   255 255 255   255 255 255   255 255 255   255 255 255   255 255 255   255 255 255   255 255 255   255 255 255   255 255 255   255 255 255   255 255 255   255 255 255   255 255 255   255 255 255   255 255 255   255 255 255   255 255 255   255 255 255   255 255 255   255 255 255   255 255 255   255 255 255   255 255 255   255 255 255   255 255 255   255 255 255   255 255 255   255 255 255   255 255 255   255 255 255   255 255 255   255 255 255   255 255 255   255 255 255   255 255 255   255 255 255   255 255 255   255 255 255   255 255 255   255 255 255   255 255 255   255 255 255   255 255 255   255 255 255   255 255 255   255 255 255   255 255 255   255 255 255   255 255 255   255 255 255   255 255 255   255 255 255   255 255 255   255 255 255   255 255 255   255 255 255   255 255 255   255 255 255   255 255 255   255 255 255   255 255 255   255 255 255   255 255 255   255 255 255   255 255 255   255 255 255   255 255 255   255 255 255   255 255 255   255 255 255   255 255 255   255 255 255   255 255 255   255 255 255   255 255 255   255 255 255   255 255 255   255 255 255   255 255 255   255 255 255   255 255 255   255 255 255   255 255 255   255 255 255   255 255 255   255 255 255   255 255 255   255 255 255   255 255 255   255 255 255   255 255 255   255 255 255   255 255 255   255 255 255   255 255 255   255 255 255   255 255 255   255 255 255
255 255 255   255 255 255   255 255 255   255 255 255   255 255 255   255 255 255   255 255 255   255 255 255   255 255 255   255 255 255   255 255 255   255 255 255   255 255 255   255 255 255   255 255 255   255 255 255   255 255 255   255 255 255   255 255 255   255 255 255   255 255 255   255 255 255   255 255 255   255 255 255   255 255 255   255 255 255   255 255 255   255 255 255   255 255 255   255 255 255   255 255 255   255 255 255   255 255 255   255 255 255   255 255 255   255 255 255   255 255 255   255 255 255   255 255 255   255 255 255   255 255 255   255 255 255   255 255 255   255 255 255   255 255 255   255 255 255   255 255 255   255 255 255   255 255 255   255 255 255   255 255 255   255 255 255   255 255 255   255 255 255   255 255 255   255 255 255   255 255 255   255 255 255   255 255 255   255 255 255   255 255 255   255 255 255   255 255 255   255 255 255   255 255 255   255 255 255   255 255 255   255 255 255   255 255 255   255 255 255   255 255 255   255 255 255   255 255 255   255 255 255   255 255 255   255 255 255   255 255 255   252 252 252    82  82  82     0   0   0    18  18  18   202 202 202   255 216   0   255 216   0   255 216   0   255 216   0   255 216   0   255 216   0   255 216   0   255 216   0   255 216   0   255 216   0   255 216   0   255 216   0   255 216   0   255 216   0   255 216   0   255 216   0   255 216   0   255 216   0   255 216   0   255 216   0   255 216   0   255 216   0   255 216   0   255 216   0   255 216   0   255 216   0   255 216   0   255 216   0   255 216   0   255 216   0   255 216   0   255 216   0   255 216   0   255 216   0   255 216   0   255 216   0   255 216   0   255 216   0   255 216   0   255 216   0   255 216   0   255 216   0   249 249 249    87  87  87     0   0   0    14  14  14   203 203 203   255 255 255   255 255 255   255 255 255   255 255 255   255 255 255   255 255 255   255 255 255   255 255 255   255 255 255   255 255 255   255 255 255   255 255 255   255 255 255   255 255 255   255 255 255   255 255 255   255 255 255   255 255 255   255 255 255   255 255 255   255 255 255   255 255 255   255 255 255   255 255 255   255 255 255   255 255 255   255 255 255   255 255 255   255 255 255   255 255 255   255 255 255   255 255 255   255 255 255   255 255 255   255 255 255   255 255 255   255 255 255   255 255 255   255 255 255   255 255 255   255 255 255   255 255 255   255 255 255   255 255 255   255 255 255   255 255 255   255 255 255   255 255 255   255 255 255   255 255 255   255 255 255   255 255 255   255 255 255   255 255 255   255 255 255   255 255 255   255 255 255   255 255 255   255 255 255   255 255 255   255 255 255   255 255 255   255 255 255   255 255 255   255 255 255   255 255 255   255 255 255   255 255 255   255 255 255   255 255 255   255 255 255   255 255 255   255 255 255   255 255 255   255 255 255   255 255 255   255 255 255   255 255 255   255 255 255   255 255 255   255 255 255   255 255 255   255 255 255   255 255 255   255 255 255   255 255 255   255 255 255   255 255 255   255 255 255   255 255 255   255 255 255   255 255 255   255 255 255   255 255 255   255 255 255   255 255 255   255 255 255   255 255 255   255 255 255   255 255 255   255 255 255   255 255 255   255 255 255   255 255 255   255 255 255   255 255 255   255 255 255   255 255 255   255 255 255   255 255 255   255 255 255   255 255 255   255 255 255   255 255 255   255 255 255   255 255 255   255 255 255   255 255 255   255 255 255   255 255 255   255 255 255   255 255 255   255 255 255   255 255 255   255 255 255   255 255 255   255 255 255
255 255 255   255 255 255   255 255 255   255 255 255   255 255 255   255 255 255   255 255 255   255 255 255   255 255 255   255 255 255   255 255 255   255 255 255   255 255 255   255 255 255   255 255 255   255 255 255   255 255 255   255 255 255   255 255 255   255 255 255   255 255 255   255 255 255   255 255 255   255 255 255   255 255 255   255 255 255   255 255 255   255 255 255   255 255 255   255 255 255   255 255 255   255 255 255   255 255 255   255 255 255   255 255 255   255 255 255   255 255 255   255 255 255   255 255 255   255 255 255   255 255 255   255 255 255   255 255 255   255 255 255   255 255 255   255 255 255   255 255 255   255 255 255   255 255 255   255 255 255   255 255 255   255 255 255   255 255 255   255 255 255   255 255 255   255 255 255   255 255 255   255 255 255   255 255 255   255 255 255   255 255 255   255 255 255   255 255 255   255 255 255   255 255 255   255 255 255   255 255 255   255 255 255   255 255 255   255 255 255   255 255 255   255 255 255   255 255 255   255 255 255   255 255 255   255 255 255   255 255 255   102 102 102     0   0   0    17  17  17   207 207 207   255 216   0   255 216   0   255 216   0   255 216   0   255 216   0   255 216   0   255 216   0   255 216   0   255 216   0   255 216   0   255 216   0   255 216   0   255 216   0   255 216   0   255 216   0   255 216   0   255 216   0   255 216   0   255 216   0   255 216   0   255 216   0   255 216   0   255 216   0   255 216   0   255 216   0   255 216   0   255 216   0   255 216   0   255 216   0   255 216   0   255 216   0   255 216   0   255 216   0   255 216   0   255 216   0   255 216   0   255 216   0   255 216   0   255 216   0   255 216   0   255 216   0   255 216   0   255 216   0   255 216   0   252 252 252    89  89  89     0   0   0    21  21  21   219 219 219   255 255 255   255 255 255   255 255 255   255 255 255   255 255 255   255 255 255   255 255 255   255 255 255   255 255 255   255 255 255   255 255 255   255 255 255   255 255 255   255 255 255   255 255 255   255 255 255   255 255 255   255 255 255   255 255 255   255 255 255   255 255 255   255 255 255   255 255 255   255 255 255   255 255 255   255 255 255   255 255 255   255 255 255   255 255 255   255 255 255   255 255 255   255 255 255   255 255 255   255 255 255   255 255 255   255 255 255   255 255 255   255 255 255   255 255 255   255 255 255   255 255 255   255 255 255   255 255 255   255 255 255   255 255 255   255 255 255   255 255 255   255 255 255   255 255 255   255 255 255   255 255 255   255 255 255   255 255 255   255 255 255   255 255 255   255 255 255   255 255 255   255 255 255   255 255 255   255 255 255   255 255 255   255 255 255   255 255 255   255 255 255   255 255 255   255 255 255   255 255 255   255 255 255   255 255 255   255 255 255   255 255 255   255 255 255   255 255 255   255 255 255   255 255 255   255 255 255   255 255 255   255 255 255   255 255 255   255 255 255   255 255 255   255 255 255   255 255 255   255 255 255   255 255 255   255 255 255   255 255 255   255 255 255   255 255 255   255 255 255   255 255 255   255 255 255   255 255 255   255 255 255   255 255 255   255 255 255   255 255 255   255 255 255   255 255 255   255 255 255   255 255 255   255 255 255   255 255 255   255 255 255   255 255 255   255 255 255   255 255 255   255 255 255   255 255 255   255 255 255   255 255 255   255 255 255   255 255 255   255 255 255   255 255 255   255 255 255   255 255 255   255 255 255   255 255 255   255 255 255   255 255 255   255 255 255   255 255 255   255 255 255   255 255 255   255 255 255
255 255 255   255 255 255   255 255 255   255 255 255   255 255 255   255 255 255   255 255 255   255 255 255   255 255 255   255 255 255   255 255 255   255 255 255   255 255 255   255 255 255   255 255 255   255 255 255   255 255 255   255 255 255   255 255 255   255 255 255   255 255 255   255 255 255   255 255 255   255 255 255   255 255 255   255 255 255   255 255 255   255 255 255   255 255 255   255 255 255   255 255 255   255 255 255   255 255 255   255 255 255   255 255 255   255 255 255   255 255 255   255 255 255   255 255 255   255 255 255   255 255 255   255 255 255   255 255 255   255 255 255   255 255 255   255 255 255   255 255 255   255 255 255   255 255 255   255 255 255   255 255 255   255 255 255   255 255 255   255 255 255   255 255 255   255 255 255   255 255 255   255 255 255   255 255 255   255 255 255   255 255 255   255 255 255   255 255 255   255 255 255   255 255 255   255 255 255   255 255 255   255 255 255   255 255 255   255 255 255   255 255 255   255 255 255   255 255 255   255 255 255   255 255 255   255 255 255   141 141 141     0   0   0    10  10  10   198 198 198   255 216   0   255 216   0   255 216   0   255 216   0   255 216   0   255 216   0   255 216   0   255 216   0   255 216   0   255 216   0   255 216   0   255 216   0   255 216   0   255 216   0   255 216   0   255 216   0   255 216   0   255 216   0   255 216   0   255 216   0   255 216   0   255 216   0   255 216   0   255 216   0   255 216   0   255 216   0   255 216   0   255 216   0   255 216   0   255 216   0   255 216   0   255 216   0   255 216   0   255 216   0   255 216   0   255 216   0   255 216   0   255 216   0   255 216   0   255 216   0   255 216   0   255 216   0   255 216   0   255 216   0   255 216   0   255 216   0   250 250 250    74  74  74     0   0   0    39  39  39   240 240 240   255 255 255   255 255 255   255 255 255   255 255 255   255 255 255   255 255 255   255 255 255   255 255 255   255 255 255   255 255 255   255 255 255   255 255 255   255 255 255   255 255 255   255 255 255   255 255 255   255 255 255   255 255 255   255 255 255   255 255 255   255 255 255   255 255 255   255 255 255   255 255 255   255 255 255   255 255 255   255 255 255   255 255 255   255 255 255   255 255 255   255 255 255   255 255 255   255 255 255   255 255 255   255 255 255   255 255 255   255 255 255   255 255 255   255 255 255   255 255 255   255 255 255   255 255 255   255 255 255   255 255 255   255 255 255   255 255 255   255 255 255   255 255 255   255 255 255   255 255 255   255 255 255   255 255 255   255 255 255   255 255 255   255 255 255   255 255 255   255 255 255   255 255 255   255 255 255   255 255 255   255 255 255   255 255 255   255 255 255   255 255 255   255 255 255   255 255 255   255 255 255   255 255 255   255 255 255   255 255 255   255 255 255   255 255 255   255 255 255   255 255 255   255 255 255   255 255 255   255 255 255   255 255 255   255 255 255   255 255 255   255 255 255   255 255 255   255 255 255   255 255 255   255 255 255   255 255 255   255 255 255   255 255 255   255 255 255   255 255 255   255 255 255   255 255 255   255 255 255   255 255 255   255 255 255   255 255 255   255 255 255   255 255 255   255 255 255   255 255 255   255 255 255   255 255 255   255 255 255   255 255 255   255 255 255   255 255 255   255 255 255   255 255 255   255 255 255   255 255 255   255 255 255   255 255 255   255 255 255   255 255 255   255 255 255   255 255 255   255 255 255   255 255 255   255 255 255   255 255 255   255 255 255   255 255 255   255 255 255   255 255 255   255 255 255
255 255 255   255 255 255   255 255 255   255 255 255   255 255 255   255 255 255   255 255 255   255 255 255   255 255 255   255 255 255   255 255 255   255 255 255   255 255 255   255 255 255   255 255 255   255 255 255   255 255 255   255 255 255   255 255 255   255 255 255   255 255 255   255 255 255   255 255 255   255 255 255   255 255 255   255 255 255   255 255 255   255 255 255   255 255 255   255 255 255   255 255 255   255 255 255   255 255 255   255 255 255   255 255 255   255 255 255   255 255 255   255 255 255   255 255 255   255 255 255   255 255 255   255 255 255   255 255 255   255 255 255   255 255 255   255 255 255   255 255 255   255 255 255   255 255 255   255 255 255   255 255 255   255 255 255   255 255 255   255 255 255   255 255 255   255 255 255   255 255 255   255 255 255   255 255 255   255 255 255   255 255 255   255 255 255   255 255 255   255 255 255   255 255 255   255 255 255   255 255 255   255 255 255   255 255 255   255 255 255   255 255 255   255 255 255   255 255 255   255 255 255   255 255 255   191 191 191     3   3   3     1   1   1   172 172 172   255 216   0   255 216   0   255 216   0   255 216   0   255 216   0   255 216   0   255 216   0   255 216   0   255 216   0   255 216   0   255 216   0   255 216   0   255 216   0   255 216   0   255 216   0   255 216   0   255 216   0   255 216   0   255 216   0   255 216   0   255 216   0   255 216   0   255 216   0   255 216   0   255 216   0   255 216   0   255 216   0   255 216   0   255 216   0   255 216   0   255 216   0   255 216   0   255 216   0   255 216   0   255 216   0   255 216   0   255 216   0   255 216   0   255 216   0   255 216   0   255 216   0   255 216   0   255 216   0   255 216   0   255 216   0   255 216   0   255 216   0   255 216   0   243 243 243    47  47  47     0   0   0    79  79  79   254 254 254   255 255 255   255 255 255   255 255 255   255 255 255   255 255 255   255 255 255   255 255 255   255 255 255   255 255 255   255 255 255   255 255 255   255 255 255   255 255 255   255 255 255   255 255 255   255 255 255   255 255 255   255 255 255   255 255 255   255 255 255   255 255 255   255 255 255   255 255 255   255 255 255   255 255 255   255 255 255   255 255 255   255 255 255   255 255 255   255 255 255   255 255 255   255 255 255   255 255 255   255 255 255   255 255 255   255 255 255   255 255 255   255 255 255   255 255 255   255 255 255   255 255 255   255 255 255   255 255 255   255 255 255   255 255 255   255 255 255   255 255 255   255 255 255   255 255 255   255 255 255   255 255 255   255 255 255   255 255 255   255 255 255   255 255 255   255 255 255   255 255 255   255 255 255   255 255 255   255 255 255   255 255 255   255 255 255   255 255 255   255 255 255   255 255 255   255 255 255   255 255 255   255 255 255   255 255 255   255 255 255   255 255 255   255 255 255   255 255 255   255 255 255   255 255 255   255 255 255   255 255 255   255 255 255   255 255 255   255 255 255   255 255 255   255 255 255   255 255 255   255 255 255   255 255 255   255 255 255   255 255 255   255 255 255   255 255 255   255 255 255   255 255 255   255 255 255   255 255 255   255 255 255   255 255 255   255 255 255   255 255 255   255 255 255   255 255 255   255 255 255   255 255 255   255 255 255   255 255 255   255 255 255   255 255 255   255 255 255   255 255 255   255 255 255   255 255 255   255 255 255   255 255 255   255 255 255   255 255 255   255 255 255   255 255 255   255 255 255   255 255 255   255 255 255   255 255 255   255 255 255   255 255 255   255 255 255   255 255 255   255 255 255
255 255 255   255 255 255   255 255 255   255 255 255   255 255 255   255 255 255   255 255 255   255 255 255   255 255 255   255 255 255   255 255 255   255 255 255   255 255 255   255 255 255   255 255 255   255 255 255   255 255 255   255 255 255   255 255 255   255 255 255   255 255 255   255 255 255   255 255 255   255 255 255   255 255 255   255 255 255   255 255 255   255 255 255   255 255 255   255 255 255   255 255 255   255 255 255   255 255 255   255 255 255   255 255 255   255 255 255   255 255 255   255 255 255   255 255 255   255 255 255   255 255 255   255 255 255   255 255 255   255 255 255   255 255 255   255 255 255   255 255 255   255 255 255   255 255 255   255 255 255   255 255 255   255 255 255   255 255 255   255 255 255   255 255 255   255 255 255   255 255 255   255 255 255   255 255 255   255 255 255   255 255 255   255 255 255   255 255 255   255 255 255   255 255 255   255 255 255   255 255 255   255 255 255   255 255 255   255 255 255   255 255 255   255 255 255   255 255 255   255 255 255   236 236 236    27  27  27     0   0   0   123 123 123   255 216   0   255 216   0   255 216   0   255 216   0   255 216   0   255 216   0   255 216   0   255 216   0   255 216   0   255 216   0   255 216   0   255 216   0   255 216   0   255 216   0   255 216   0   255 216   0   255 216   0   255 216   0   255 216   0   255 216   0   255 216   0   255 216   0   255 216   0   255 216   0   255 216   0   255 216   0   255 216   0   255 216   0   255 216   0   255 216   0   255 216   0   255 216   0   255 216   0   255 216   0   255 216   0   255 216   0   255 216   0   255 216   0   255 216   0   255 216   0   255 216   0   255 216   0   255 216   0   255 216   0   255 216   0   255 216   0   255 216   0   255 216   0   255 216   0   255 216   0   222 222 222    17  17  17     0   0   0   146 146 146   255 255 255   255 255 255   255 255 255   255 255 255   255 255 255   255 255 255   255 255 255   255 255 255   255 255 255   255 255 255   255 255 255   255 255 255   255 255 255   255 255 255   255 255 255   255 255 255   255 255 255   255 255 255   255 255 255   255 255 255   255 255 255   255 255 255   255 255 255   255 255 255   255 255 255   255 255 255   255 255 255   255 255 255   255 255 255   255 255 255   255 255 255   255 255 255   255 255 255   255 255 255   255 255 255   255 255 255   255 255 255   255 255 255   255 255 255   255 255 255   255 255 255   255 255 255   255 255 255   255 255 255   255 255 255   255 255 255   255 255 255   255 255 255   255 255 255   255 255 255   255 255 255   255 255 255   255 255 255   255 255 255   255 255 255   255 255 255   255 255 255   255 255 255   255 255 255   255 255 255   255 255 255   255 255 255   255 255 255   255 255 255   255 255 255   255 255 255   255 255 255   255 255 255   255 255 255   255 255 255   255 255 255   255 255 255   255 255 255   255 255 255   255 255 255   255 255 255   255 255 255   255 255 255   255 255 255   255 255 255   255 255 255   255 255 255   255 255 255   255 255 255   255 255 255   255 255 255   255 255 255   255 255 255   255 255 255   255 255 255   255 255 255   255 255 255   255 255 255   255 255 255   255 255 255   255 255 255   255 255 255   255 255 255   255 255 255   255 255 255   255 255 255   255 255 255   255 255 255   255 255 255   255 255 255   255 255 255   255 255 255   255 255 255   255 255 255   255 255 255   255 255 255   255 255 255   255 255 255   255 255 255   255 255 255   255 255 255   255 255 255   255 255 255   255 255 255   255 255 255   255 255 255   255 255 255   255 255 255   255 255 255
255 255 255   255 255 255   255 255 255   255 255 255   255 255 255   255 255 255   255 255 255   255 255 255   255 255 255   255 255 255   255 255 255   255 255 255   255 255 255   255 255 255   255 255 255   255 255 255   255 255 255   255 255 255   255 255 255   255 255 255   255 255 255   255 255 255   255 255 255   255 255 255   255 255 255   255 255 255   255 255 255   255 255 255   255 255 255   255 255 255   255 255 255   255 255 255   255 255 255   255 255 255   255 255 255   255 255 255   255 255 255   255 255 255   255 255 255   255 255 255   255 255 255   255 255 255   255 255 255   255 255 255   255 255 255   255 255 255   255 255 255   255 255 255   255 255 255   255 255 255   255 255 255   255 255 255   255 255 255   255 255 255   255 255 255   255 255 255   255 255 255   255 255 255   255 255 255   255 255 255   255 255 255   255 255 255   255 255 255   255 255 255   255 255 255   255 255 255   255 255 255   255 255 255   255 255 255   255 255 255   255 255 255   255 255 255   255 255 255   255 255 255    88  88  88     0   0   0    61  61  61   252 252 252   255 216   0   255 216   0   255 216   0   255 216   0   255 216   0   255 216   0   255 216   0   255 216   0   255 216   0   255 216   0   255 216   0   255 216   0   255 216   0   255 216   0   255 216   0   255 216   0   255 216   0   255 216   0   255 216   0   255 216   0   255 216   0   255 216   0   255 216   0   255 216   0   255 216   0   255 216   0   255 216   0   255 216   0   255 216   0   255 216   0   255 216   0   255 216   0   255 216   0   255 216   0   255 216   0   255 216   0   255 216   0   255 216   0   255 216   0   255 216   0   255 216   0   255 216   0   255 216   0   255 216   0   255 216   0   255 216   0   255 216   0   255 216   0   255 216   0   255 216   0   255 216   0   174 174 174     0   0   0     9   9   9   217 217 217   255 255 255   255 255 255   255 255 255   255 255 255   255 255 255   255 255 255   255 255 255   255 255 255   255 255 255   255 255 255   255 255 255   255 255 255   255 255 255   255 255 255   255 255 255   255 255 255   255 255 255   255 255 255   255 255 255   255 255 255   255 255 255   255 255 255   255 255 255   255 255 255   255 255 255   255 255 255   255 255 255   255 255 255   255 255 255   255 255 255   255 255 255   255 255 255   255 255 255   255 255 255   255 255 255   255 255 255   255 255 255   255 255 255   255 255 255   255 255 255   255 255 255   255 255 255   255 255 255   255 255 255   255 255 255   255 255 255   255 255 255   255 255 255   255 255 255   255 255 255   255 255 255   255 255 255   255 255 255   255 255 255   255 255 255   255 255 255   255 255 255   255 255 255   255 255 255   255 255 255   255 255 255   255 255 255   255 255 255   255 255 255   255 255 255   255 255 255   255 255 255   255 255 255   255 255 255   255 255 255   255 255 255   255 255 255   255 255 255   255 255 255   255 255 255   255 255 255   255 255 255   255 255 255   255 255 255   255 255 255   255 255 255   255 255 255   255 255 255   255 255 255   255 255 255   255 255 255   255 255 255   255 255 255   255 255 255   255 255 255   255 255 255   255 255 255   255 255 255   255 255 255   255 255 255   255 255 255   255 255 255   255 255 255   255 255 255   255 255 255   255 255 255   255 255 255   255 255 255   255 255 255   255 255 255   255 255 255   255 255 255   255 255 255   255 255 255   255 255 255   255 255 255   255 255 255   255 255 255   255 255 255   255 255 255   255 255 255   255 255 255   255 255 255   255 255 255   255 255 255   255 255 255   255 255 255   255 255 255
255 255 255   255 255 255   255 255 255   255 255 255   255 255 255   255 255 255   255 255 255   255 255 255   255 255 255   255 255 255   255 255 255   255 255 255   255 255 255   255 255 255   255 255 255   255 255 255   255 255 255   255 255 255   255 255 255   255 255 255   255 255 255   255 255 255   255 255 255   255 255 255   255 255 255   255 255 255   255 255 255   255 255 255   255 255 255   255 255 255   255 255 255   255 255 255   255 255 255   255 255 255   255 255 255   255 255 255   255 255 255   255 255 255   255 255 255   255 255 255   255 255 255   255 255 255   255 255 255   255 255 255   255 255 255   255 255 255   255 255 255   255 255 255   255 255 255   255 255 255   255 255 255   255 255 255   255 255 255   255 255 255   255 255 255   255 255 255   255 255 255   255 255 255   255 255 255   255 255 255   255 255 255   255 255 255   255 255 255   255 255 255   255 255 255   255 255 255   255 255 255   255 255 255   255 255 255   255 255 255   255 255 255   255 255 255   255 255 255   180 180 180     0   0   0    12  12  12   222 222 222   255 216   0   255 216   0   255 216   0   255 216   0   255 216   0   255 216   0   255 216   0   255 216   0   255 216   0   255 216   0   255 216   0   255 216   0   255 216   0   255 216   0   255 216   0   255 216   0   255 216   0   255 216   0   255 216   0   255 216   0   255 216   0   255 216   0   255 216   0   255 216   0   255 216   0   255 216   0   255 216   0   255 216   0   255 216   0   255 216   0   255 216   0   255 216   0   255 216   0   255 216   0   255 216   0   255 216   0   255 216   0   255 216   0   255 216   0   255 216   0   255 216   0   255 216   0   255 216   0   255 216   0   255 216   0   255 216   0   255 216   0   255 216   0   255 216   0   255 216   0   255 216   0   255 216   0   255 216   0    96  96  96     0   0   0    64  64  64   254 254 254   255 255 255   255 255 255   255 255 255   255 255 255   255 255 255   255 255 255   255 255 255   255 255 255   255 255 255   255 255 255   255 255 255   255 255 255   255 255 255   255 255 255   255 255 255   255 255 255   255 255 255   255 255 255   255 255 255   255 255 255   255 255 255   255 255 255   255 255 255   255 255 255   255 255 255   255 255 255   255 255 255   255 255 255   255 255 255   255 255 255   255 255 255   255 255 255   255 255 255   255 255 255   255 255 255   255 255 255   255 255 255   255 255 255   255 255 255   255 255 255   255 255 255   255 255 255   255 255 255   255 255 255   255 255 255   255 255 255   255 255 255   255 255 255   255 255 255   255 255 255   255 255 255   255 255 255   255 255 255   255 255 255   255 255 255   255 255 255   255 255 255   255 255 255   255 255 255   255 255 255   255 255 255   255 255 255   255 255 255   255 255 255   255 255 255   255 255 255   255 255 255   255 255 255   255 255 255   255 255 255   255 255 255   255 255 255   255 255 255   255 255 255   255 255 255   255 255 255   255 255 255   255 255 255   255 255 255   255 255 255   255 255 255   255 255 255   255 255 255   255 255 255   255 255 255   255 255 255   255 255 255   255 255 255   255 255 255   255 255 255   255 255 255   255 255 255   255 255 255   255 255 255   255 255 255   255 255 255   255 255 255   255 255 255   255 255 255   255 255 255   255 255 255   255 255 255   255 255 255   255 255 255   255 255 255   255 255 255   255 255 255   255 255 255   255 255 255   255 255 255   255 255 255   255 255 255   255 255 255   255 255 255   255 255 255   255 255 255   255 255 255   255 255 255   255 255 255   255 255 255   255 255 255   255 255 255
255 255 255   255 255 255   255 255 255   255 255 255   255 255 255   255 255 255   255 255 255   255 255 255   255 255 255   255 255 255   255 255 255   255 255 255   255 255 255   255 255 255   255 255 255   255 255 255   255 255 255   255 255 255   255 255 255   255 255 255   255 255 255   255 255 255   255 255 255   255 255 255   255 255 255   255 255 255   255 255 255   255 255 255   255 255 255   255 255 255   255 255 255   255 255 255   255 255 255   255 255 255   255 255 255   255 255 255   255 255 255   255 255 255   255 255 255   255 255 255   255 255 255   255 255 255   255 255 255   255 255 255   255 255 255   255 255 255   255 255 255   255 255 255   255 255 255   255 255 255   255 255 255   255 255 255   255 255 255   255 255 255   255 255 255   255 255 255   255 255 255   255 255 255   255 255 255   255 255 255   255 255 255   255 255 255   255 255 255   255 255 255   255 255 255   255 255 255   255 255 255   255 255 255   255 255 255   255 255 255   255 255 255   255 255 255   248 248 248    35  35  35     0   0   0   144 144 144   255 216   0   255 216   0   255 216   0   255 216   0   255 216   0   255 216   0   255 216   0   255 216   0   255 216   0   255 216   0   255 216   0   255 216   0   255 216   0   255 216   0   255 216   0   255 216   0   255 216   0   255 216   0   255 216   0   255 216   0   255 216   0   255 216   0   255 216   0   255 216   0   255 216   0   255 216   0   255 216   0   255 216   0   255 216   0   255 216   0   255 216   0   255 216   0   255 216   0   255 216   0   255 216   0   255 216   0   255 216   0   255 216   0   255 216   0   255 216   0   255 216   0   255 216   0   255 216   0   255 216   0   255 216   0   255 216   0   255 216   0   255 216   0   255 216   0   255 216   0   255 216   0   255 216   0   255 216   0   255 216   0   238 238 238    22  22  22     0   0   0   166 166 166   255 255 255   255 255 255   255 255 255   255 255 255   255 255 255   255 255 255   255 255 255   255 255 255   255 255 255   255 255 255   255 255 255   255 255 255   255 255 255   255 255 255   255 255 255   255 255 255   255 255 255   255 255 255   255 255 255   255 255 255   255 255 255   255 255 255   255 255 255   255 255 255   255 255 255   255 255 255   255 255 255   255 255 255   255 255 255   255 255 255   255 255 255   255 255 255   255 255 255   255 255 255   255 255 255   255 255 255   255 255 255   255 255 255   255 255 255   255 255 255   255 255 255   255 255 255   255 255 255   255 255 255   255 255 255   255 255 255   255 255 255   255 255 255   255 255 255   255 255 255   255 255 255   255 255 255   255 255 255   255 255 255   255 255 255   255 255 255   255 255 255   255 255 255   255 255 255   255 255 255   255 255 255   255 255 255   255 255 255   255 255 255   255 255 255   255 255 255   255 255 255   255 255 255   255 255 255   255 255 255   255 255 255   255 255 255   255 255 255   255 255 255   255 255 255   255 255 255   255 255 255   255 255 255   255 255 255   255 255 255   255 255 255   255 255 255   255 255 255   255 255 255   255 255 255   255 255 255   255 255 255   255 255 255   255 255 255   255 255 255   255 255 255   255 255 255   255 255 255   255 255 255   255 255 255   255 255 255   255 255 255   255 255 255   255 255 255   255 255 255   255 255 255   255 255 255   255 255 255   255 255 255   255 255 255   255 255 255   255 255 255   255 255 255   255 255 255   255 255 255   255 255 255   255 255 255   255 255 255   255 255 255   255 255 255   255 255 255   255 255 255   255 255 255   255 255 255   255 255 255   255 255 255   255 255 255
255 255 255   255 255 255   255 255 255   255 255 255   255 255 255   255 255 255   255 255 255   255 255 255   255 255 255   255 255 255   255 255 255   255 255 255   255 255 255   255 255 255   255 255 255   255 255 255   255 255 255   255 255 255   255 255 255   255 255 255   255 255 255   255 255 255   255 255 255   255 255 255   255 255 255   255 255 255   255 255 255   255 255 255   255 255 255   255 255 255   255 255 255   255 255 255   255 255 255   255 255 255   255 255 255   255 255 255   255 255 255   255 255 255   255 255 255   255 255 255   255 255 255   255 255 255   255 255 255   255 255 255   255 255 255   255 255 255   255 255 255   255 255 255   255 255 255   255 255 255   255 255 255   255 255 255   255 255 255   255 255 255   255 255 255   255 255 255   255 255 255   255 255 255   255 255 255   255 255 255   255 255 255   255 255 255   255 255 255   255 255 255   255 255 255   255 255 255   255 255 255   255 255 255   255 255 255   255 255 255   255 255 255   255 255 255   141 141 141     0   0   0    44  44  44   251 251 251   255 216   0   255 216   0   255 216   0   255 216   0   255 216   0   255 216   0   255 216   0   255 216   0   255 216   0   255 216   0   255 216   0   255 216   0   255 216   0   255 216   0   255 216   0   255 216   0   255 216   0   255 216   0   255 216   0   255 216   0   255 216   0   255 216   0   255 216   0   255 216   0   255 216   0   255 216   0   255 216   0   255 216   0   255 216   0   255 216   0   255 216   0   255 216   0   255 216   0   255 216   0   255 216   0   255 216   0   255 216   0   255 216   0   255 216   0   255 216   0   255 216   0   255 216   0   255 216   0   255 216   0   255 216   0   255 216   0   255 216   0   255 216   0   255 216   0   255 216   0   255 216   0   255 216   0   255 216   0   255 216   0   255 216   0   157 157 157     0   0   0    31  31  31   248 248 248   255 255 255   255 255 255   255 255 255   255 255 255   255 255 255   255 255 255   255 255 255   255 255 255   255 255 255   255 255 255   255 255 255   255 255 255   255 255 255   255 255 255   255 255 255   255 255 255   255 255 255   255 255 255   255 255 255   255 255 255   255 255 255   255 255 255   255 255 255   255 255 255   255 255 255   255 255 255   255 255 255   255 255 255   255 255 255   255 255 255   255 255 255   255 255 255   255 255 255   255 255 255   255 255 255   255 255 255   255 255 255   255 255 255   255 255 255   255 255 255   255 255 255   255 255 255   255 255 255   255 255 255   255 255 255   255 255 255   255 255 255   255 255 255   255 255 255   255 255 255   255 255 255   255 255 255   255 255 255   255 255 255   255 255 255   255 255 255   255 255 255   255 255 255   255 255 255   255 255 255   255 255 255   255 255 255   255 255 255   255 255 255   255 255 255   255 255 255   255 255 255   255 255 255   255 255 255   255 255 255   255 255 255   255 255 255   255 255 255   255 255 255   255 255 255   255 255 255   255 255 255   255 255 255   255 255 255   255 255 255   255 255 255   255 255 255   255 255 255   255 255 255   255 255 255   255 255 255   255 255 255   255 255 255   255 255 255   255 255 255   255 255 255   255 255 255   255 255 255   255 255 255   255 255 255   255 255 255   255 255 255   255 255 255   255 255 255   255 255 255   255 255 255   255 255 255   255 255 255   255 255 255   255 255 255   255 255 255   255 255 255   255 255 255   255 255 255   255 255 255   255 255 255   255 255 255   255 255 255   255 255 255   255 255 255   255 255 255   255 255 255   255 255 255   255 255 255   255 255 255   255 255 255
255 255 255   255 255 255   255 255 255   255 255 255   255 255 255   255 255 255   255 255 255   255 255 255   255 255 255   255 255 255   255 255 255   255 255 255   255 255 255   255 255 255   255 255 255   255 255 255   255 255 255   255 255 255   255 255 255   255 255 255   255 255 255   255 255 255   255 255 255   255 255 255   255 255 255   255 255 255   255 255 255   255 255 255   255 255 255   255 255 255   255 255 255   255 255 255   255 255 255   255 255 255   255 255 255   255 255 255   255 255 255   255 255 255   255 255 255   255 255 255   255 255 255   255 255 255   255 255 255   255 255 255   255 255 255   255 255 255   255 255 255   255 255 255   255 255 255   255 255 255   255 255 255   255 255 255   255 255 255   255 255 255   255 255 255   255 255 255   255 255 255   255 255 255   255 255 255   255 255 255   255 255 255   255 255 255   255 255 255   255 255 255   255 255 255   255 255 255   255 255 255   255 255 255   255 255 255   255 255 255   255 255 255   243 243 243    21  21  21     0   0   0   182 182 182   255 216   0   255 216   0   255 216   0   255 216   0   255 216   0   255 216   0   255 216   0   255 216   0   255 216   0   255 216   0   255 216   0   255 216   0   255 216   0   255 216   0   255 216   0   255 216   0   255 216   0   255 216   0   255 216   0   255 216   0   255 216   0   255 216   0   255 216   0   255 216   0   255 216   0   255 216   0   255 216   0   255 216   0   255 216   0   255 216   0   255 216   0   255 216   0   255 216   0   255 216   0   255 216   0   255 216   0   255 216   0   255 216   0   255 216   0   255 216   0   255 216   0   255 216   0   255 216   0   255 216   0   255 216   0   255 216   0   255 216   0   255 216   0   255 216   0   255 216   0   255 216   0   255 216   0   255 216   0   255 216   0   255 216   0   255 216   0   253 253 253    46  46  46     0   0   0   147 147 147   255 255 255   255 255 255   255 255 255   255 255 255   255 255 255   255 255 255   255 255 255   255 255 255   255 255 255   255 255 255   255 255 255   255 255 255   255 255 255   255 255 255   255 255 255   255 255 255   255 255 255   255 255 255   255 255 255   255 255 255   255 255 255   255 255 255   255 255 255   255 255 255   255 255 255   255 255 255   255 255 255   255 255 255   255 255 255   255 255 255   255 255 255   255 255 255   255 255 255   255 255 255   255 255 255   255 255 255   255 255 255   255 255 255   255 255 255   255 255 255   255 255 255   255 255 255   255 255 255   255 255 255   255 255 255   255 255 255   255 255 255   255 255 255   255 255 255   255 255 255   255 255 255   255 255 255   255 255 255   255 255 255   255 255 255   255 255 255   255 255 255   255 255 255   255 255 255   255 255 255   255 255 255   255 255 255   255 255 255   255 255 255   255 255 255   255 255 255   255 255 255   255 255 255   255 255 255   255 255 255   255 255 255   255 255 255   255 255 255   255 255 255   255 255 255   255 255 255   255 255 255   255 255 255   255 255 255   255 255 255   255 255 255   255 255 255   255 255 255   255 255 255   255 255 255   255 255 255   255 255 255   255 255 255   255 255 255   255 255 255   255 255 255   255 255 255   255 255 255   255 255 255   255 255 255   255 255 255   255 255 255   255 255 255   255 255 255   255 255 255   255 255 255   255 255 255   255 255 255   255 255 255   255 255 255   255 255 255   255 255 255   255 255 255   255 255 255   255 255 255   255 255 255   255 255 255   255 255 255   255 255 255   255 255 255   255 255 255   255 255 255   255 255 255   255 255 255   255 255 255   255 255 255
255 255 255   255 255 255   255 255 255   255 255 255   255 255 255   255 255 255   255 255 255   255 255 255   255 255 255   255 255 255   255 255 255   255 255 255   255 255 255   255 255 255   255 255 255   255 255 255   255 255 255   255 255 255   255 255 255   255 255 255   255 255 255   255 255 255   255 255 255   255 255 255   255 255 255   255 255 255   255 255 255   255 255 255   255 255 255   255 255 255   255 255 255   255 255 255   255 255 255   255 255 255   255 255 255   255 255 255   255 255 255   255 255 255   255 255 255   255 255 255   255 255 255   255 255 255   255 255 255   255 255 255   255 255 255   255 255 255   255 255 255   255 255 255   255 255 255   255 255 255   255 255 255   255 255 255   255 255 255   255 255 255   255 255 255   255 255 255   255 255 255   255 255 255   255 255 255   255 255 255   255 255 255   255 255 255   255 255 255   255 255 255   255 255 255   255 255 255   255 255 255   255 255 255   255 255 255   255 255 255   255 255 255   140 140 140     0   0   0    59  59  59   255 216   0   255 216   0   255 216   0   255 216   0   255 216   0   255 216   0   255 216   0   255 216   0   255 216   0   255 216   0   255 216   0   255 216   0   255 216   0   255 216   0   255 216   0   255 216   0   255 216   0   255 216   0   255 216   0   255 216   0   255 216   0   255 216   0   255 216   0   255 216   0   255 216   0   255 216   0   255 216   0   255 216   0   255 216   0   255 216   0   255 216   0   255 216   0   255 216   0   255 216   0   255 216   0   255 216   0   255 216   0   255 216   0   255 216   0   255 216   0   255 216   0   255 216   0   255 216   0   255 216   0   255 216   0   255 216   0   255 216   0   255 216   0   255 216   0   255 216   0   255 216   0   255 216   0   255 216   0   255 216   0   255 216   0   255 216   0   255 216   0   255 216   0   175 175 175     0   0   0    30  30  30   250 250 250   255 255 255   255 255 255   255 255 255   255 255 255   255 255 255   255 255 255   255 255 255   255 255 255   255 255 255   255 255 255   255 255 255   255 255 255   255 255 255   255 255 255   255 255 255   255 255 255   255 255 255   255 255 255   255 255 255   255 255 255   255 255 255   255 255 255   255 255 255   255 255 255   255 255 255   255 255 255   255 255 255   255 255 255   255 255 255   255 255 255   255 255 255   255 255 255   255 255 255   255 255 255   255 255 255   255 255 255   255 255 255   255 255 255   255 255 255   255 255 255   255 255 255   255 255 255   255 255 255   255 255 255   255 255 255   255 255 255   255 255 255   255 255 255   255 255 255   255 255 255   255 255 255   255 255 255   255 255 255   255 255 255   255 255 255   255 255 255   255 255 255   255 255 255   255 255 255   255 255 255   255 255 255   255 255 255   255 255 255   255 255 255   255 255 255   255 255 255   255 255 255   255 255 255   255 255 255   255 255 255   255 255 255   255 255 255   255 255 255   255 255 255   255 255 255   255 255 255   255 255 255   255 255 255   255 255 255   255 255 255   255 255 255   255 255 255   255 255 255   255 255 255   255 255 255   255 255 255   255 255 255   255 255 255   255 255 255   255 255 255   255 255 255   255 255 255   255 255 255   255 255 255   255 255 255   255 255 255   255 255 255   255 255 255   255 255 255   255 255 255   255 255 255   255 255 255   255 255 255   255 255 255   255 255 255   255 255 255   255 255 255   255 255 255   255 255 255   255 255 255   255 255 255   255 255 255   255 255 255   255 255 255   255 255 255   255 255 255   255 255 255   255 255 255   255 255 255   255 255 255
255 255 255   255 255 255   255 255 255   255 255 255   255 255 255   255 255 255   255 255 255   255 255 255   255 255 255   255 255 255   255 255 255   255 255 255   255 255 255   255 255 255   255 255 255   255 255 255   255 255 255   255 255 255   255 255 255   255 255 255   255 255 255   255 255 255   255 255 255   255 255 255   255 255 255   255 255 255   255 255 255   255 255 255   255 255 255   255 255 255   255 255 255   255 255 255   255 255 255   255 255 255   255 255 255   255 255 255   255 255 255   255 255 255   255 255 255   255 255 255   255 255 255   255 255 255   255 255 255   255 255 255   255 255 255   255 255 255   255 255 255   255 255 255   255 255 255   255 255 255   255 255 255   255 255 255   255 255 255   255 255 255   255 255 255   255 255 255   255 255 255   255 255 255   255 255 255   255 255 255   255 255 255   255 255 255   255 255 255   255 255 255   255 255 255   255 255 255   255 255 255   255 255 255   255 255 255   255 255 255   251 251 251    30  30  30     0   0   0   180 180 180   255 216   0   255 216   0   255 216   0   255 216   0   255 216   0   255 216   0   255 216   0   255 216   0   255 216   0   255 216   0   255 216   0   255 216   0   255 216   0   255 216   0   255 216   0   255 216   0   255 216   0    60  51   0    13  11   0     0   0   0    60  51   0   255 216   0   255 216   0   255 216   0   255 216   0   255 216   0   255 216   0   255 216   0   255 216   0   255 216   0   255 216   0   255 216   0   255 216   0   255 216   0   255 216   0   255 216   0   255 216   0   255 216   0   255 216   0   255 216   0   255 216   0   255 216   0   255 216   0   255 216   0   255 216   0   255 216   0    60  51   0    60  51   0   255 216   0   255 216   0   255 216   0   255 216   0   255 216   0   255 216   0   255 216   0   255 216   0   255 216   0   255 216   0   254 254 254    42  42  42     0   0   0   166 166 166   255 255 255   255 255 255   255 255 255   255 255 255   255 255 255   255 255 255   255 255 255   255 255 255   255 255 255   255 255 255   255 255 255   255 255 255   255 255 255   255 255 255   255 255 255   255 255 255   255 255 255   255 255 255   255 255 255   255 255 255   255 255 255   255 255 255   255 255 255   255 255 255   255 255 255   255 255 255   255 255 255   255 255 255   255 255 255   255 255 255   255 255 255   255 255 255   255 255 255   255 255 255   255 255 255   255 255 255   255 255 255   255 255 255   255 255 255   255 255 255   255 255 255   255 255 255   255 255 255   255 255 255   255 255 255   255 255 255   255 255 255   255 255 255   255 255 255   255 255 255   255 255 255   255 255 255   255 255 255   255 255 255   255 255 255   255 255 255   255 255 255   255 255 255   255 255 255   255 255 255   255 255 255   255 255 255   255 255 255   255 255 255   255 255 255   255 255 255   255 255 255   255 255 255   255 255 255   255 255 255   255 255 255   255 255 255   255 255 255   255 255 255   255 255 255   255 255 255   255 255 255   255 255 255   255 255 255   255 255 255   255 255 255   255 255 255   255 255 255   255 255 255   255 255 255   255 255 255   255 255 255   255 255 255   255 255 255   255 255 255   255 255 255   255 255 255   255 255 255   255 255 255   255 255 255   255 255 255   255 255 255   255 255 255   255 255 255   255 255 255   255 255 255   255 255 255   255 255 255   255 255 255   255 255 255   255 255 255   255 255 255   255 255 255   255 255 255   255 255 255   255 255 255   255 255 255   255 255 255   255 255 255   255 255 255   255 255 255   255 255 255   255 255 255   255 255 255   255 255 255
255 255 255   255 255 255   255 255 255   255 255 255   255 255 255   255 255 255   255 255 255   255 255 255   255 255 255   255 255 255   255 255 255   255 255 255   255 255 255   255 255 255   255 255 255   255 255 255   255 255 255   255 255 255   255 255 255   255 255 255   255 255 255   255 255 255   255 255 255   255 255 255   255 255 255   255 255 255   255 255 255   255 255 255   255 255 255   255 255 255   255 255 255   255 255 255   255 255 255   255 255 255   255 255 255   255 255 255   255 255 255   255 255 255   255 255 255   255 255 255   255 255 255   255 255 255   255 255 255   255 255 255   255 255 255   255 255 255   255 255 255   255 255 255   255 255 255   255 255 255   255 255 255   255 255 255   255 255 255   255 255 255   255 255 255   255 255 255   255 255 255   255 255 255   255 255 255   255 255 255   255 255 255   255 255 255   255 255 255   255 255 255   255 255 255   255 255 255   255 255 255   255 255 255   255 255 255   255 255 255   177 177 177     0   0   0    39  39  39   254 254 254   255 216   0   255 216   0   255 216   0   255 216   0   255 216   0   255 216   0   255 216   0   255 216   0   255 216   0   255 216   0   255 216   0   255 216   0   255 216   0   255 216   0   255 216   0    60  51   0    60  51   0     0   0   0     0   0   0     0   0   0     0   0   0   233 197   0   255 216   0   255 216   0   255 216   0   255 216   0   255 216   0   255 216   0   255 216   0   255 216   0   255 216   0   255 216   0   255 216   0   255 216   0   255 216   0   255 216   0   255 216   0   255 216   0   255 216   0   255 216   0   255 216   0   255 216   0   255 216   0    60  51   0     0   0   0     0   0   0     0   0   0     0   0   0    60  51   0   255 216   0   255 216   0   255 216   0   255 216   0   255 216   0   255 216   0   255 216   0   255 216   0   255 216   0   255 216   0   153 153 153     0   0   0    60  60  60   255 255 255   255 255 255   255 255 255   255 255 255   255 255 255   255 255 255   255 255 255   255 255 255   255 255 255   255 255 255   255 255 255   255 255 255   255 255 255   255 255 255   255 255 255   255 255 255   255 255 255   255 255 255   255 255 255   255 255 255   255 255 255   255 255 255   255 255 255   255 255 255   255 255 255   255 255 255   255 255 255   255 255 255   255 255 255   255 255 255   255 255 255   255 255 255   255 255 255   255 255 255   255 255 255   255 255 255   255 255 255   255 255 255   255 255 255   255 255 255   255 255 255   255 255 255   255 255 255   255 255 255   255 255 255   255 255 255   255 255 255   255 255 255   255 255 255   255 255 255   255 255 255   255 255 255   255 255 255   255 255 255   255 255 255   255 255 255   255 255 255   255 255 255   255 255 255   255 255 255   255 255 255   255 255 255   255 255 255   255 255 255   255 255 255   255 255 255   255 255 255   255 255 255   255 255 255   255 255 255   255 255 255   255 255 255   255 255 255   255 255 255   255 255 255   255 255 255   255 255 255   255 255 255   255 255 255   255 255 255   255 255 255   255 255 255   255 255 255   255 255 255   255 255 255   255 255 255   255 255 255   255 255 255   255 255 255   255 255 255   255 255 255   255 255 255   255 255 255   255 255 255   255 255 255   255 255 255   255 255 255   255 255 255   255 255 255   255 255 255   255 255 255   255 255 255   255 255 255   255 255 255   255 255 255   255 255 255   255 255 255   255 255 255   255 255 255   255 255 255   255 255 255   255 255 255   255 255 255   255 255 255   255 255 255   255 255 255   255 255 255   255 255 255   255 255 255   255 255 255
255 255 255   255 255 255   255 255 255   255 255 255   255 255 255   255 255 255   255 255 255   255 255 255   255 255 255   255 255 255   255 255 255   255 255 255   255 255 255   255 255 255   255 255 255   255 255 255   255 255 255   255 255 255   255 255 255   255 255 255   255 255 255   255 255 255   255 255 255   255 255 255   255 255 255   255 255 255   255 255 255   255 255 255   255 255 255   255 255 255   255 255 255   255 255 255   255 255 255   255 255 255   255 255 255   255 255 255   255 255 255   255 255 255   255 255 255   255 255 255   255 255 255   255 255 255   255 255 255   255 255 255   255 255 255   255 255 255   255 255 255   255 255 255   255 255 255   255 255 255   255 255 255   255 255 255   255 255 255   255 255 255   255 255 255   255 255 255   255 255 255   255 255 255   255 255 255   255 255 255   255 255 255   255 255 255   255 255 255   255 255 255   255 255 255   255 255 255   255 255 255   255 255 255   255 255 255   255 255 255    80  80  80     0   0   0   140 140 140   255 216   0   255 216   0   255 216   0   255 216   0   255 216   0   255 216   0   255 216   0   255 216   0   255 216   0   255 216   0   255 216   0   255 216   0   255 216   0   255 216   0   255 216   0   255 216   0     0   0   0     0   0   0     0   0   0     0   0   0     7   6   0     0   0   0    59  50   0   255 216   0   255 216   0   255 216   0   255 216   0   255 216   0   255 216   0   255 216   0   255 216   0   255 216   0   255 216   0   255 216   0   255 216   0   255 216   0   255 216   0   255 216   0   255 216   0   255 216   0   255 216   0   255 216   0   255 216   0   255 216   0     0   0   0     0   0   0     0   0   0     0   0   0     0   0   0     0   0   0    60  51   0   255 216   0   255 216   0   255 216   0   255 216   0   255 216   0   255 216   0   255 216   0   255 216   0   255 216   0   243 243 243    13  13  13     0   0   0   218 218 218   255 255 255   255 255 255   255 255 255   255 255 255   255 255 255   255 255 255   255 255 255   255 255 255   255 255 255   255 255 255   255 255 255   255 255 255   255 255 255   255 255 255   255 255 255   255 255 255   255 255 255   255 255 255   255 255 255   255 255 255   255 255 255   255 255 255   255 255 255   255 255 255   255 255 255   255 255 255   255 255 255   255 255 255   255 255 255   255 255 255   255 255 255   255 255 255   255 255 255   255 255 255   255 255 255   255 255 255   255 255 255   255 255 255   255 255 255   255 255 255   255 255 255   255 255 255   255 255 255   255 255 255   255 255 255   255 255 255   255 255 255   255 255 255   255 255 255   255 255 255   255 255 255   255 255 255   255 255 255   255 255 255   255 255 255   255 255 255   255 255 255   255 255 255   255 255 255   255 255 255   255 255 255   255 255 255   255 255 255   255 255 255   255 255 255   255 255 255   255 255 255   255 255 255   255 255 255   255 255 255   255 255 255   255 255 255   255 255 255   255 255 255   255 255 255   255 255 255   255 255 255   255 255 255   255 255 255   255 255 255   255 255 255   255 255 255   255 255 255   255 255 255   255 255 255   255 255 255   255 255 255   255 255 255   255 255 255   255 255 255   255 255 255   255 255 255   255 255 255   255 255 255   255 255 255   255 255 255   255 255 255   255 255 255   255 255 255   255 255 255   255 255 255   255 255 255   255 255 255   255 255 255   255 255 255   255 255 255   255 255 255   255 255 255   255 255 255   255 255 255   255 255 255   255 255 255   255 255 255   255 255 255   255 255 255   255 255 255   255 255 255   255 255 255   255 255 255
255 255 255   255 255 255   255 255 255   255 255 255   255 255 255   255 255 255   255 255 255   255 255 255   255 255 255   255 255 255   255 255 255   255 255 255   255 255 255   255 255 255   255 255 255   255 255 255   255 255 255   255 255 255   255 255 255   255 255 255   255 255 255   255 255 255   255 255 255   255 255 255   255 255 255   255 255 255   255 255 255   255 255 255   255 255 255   255 255 255   255 255 255   255 255 255   255 255 255   255 255 255   255 255 255   255 255 255   255 255 255   255 255 255   255 255 255   255 255 255   255 255 255   255 255 255   255 255 255   255 255 255   255 255 255   255 255 255   255 255 255   255 255 255   255 255 255   255 255 255   255 255 255   255 255 255   255 255 255   255 255 255   255 255 255   255 255 255   255 255 255   255 255 255   255 255 255   255 255 255   255 255 255   255 255 255   255 255 255   255 255 255   255 255 255   255 255 255   255 255 255   255 255 255   255 255 255   240 240 240     7   7   7     3   3   3   231 231 231   255 216   0   255 216   0   255 216   0   255 216   0   255 216   0   255 216   0   255 216   0   255 216   0   255 216   0   255 216   0   255 216   0   255 216   0   255 216   0   255 216   0   255 216   0    60  51   0     0   0   0     0   0   0     0   0   0    60  51   0   233 197   0     0   0   0     0   0   0   255 216   0   255 216   0   255 216   0   255 216   0   255 216   0   255 216   0   255 216   0   255 216   0   255 216   0   255 216   0   255 216   0   255 216   0   255 216   0   255 216   0   255 216   0   255 216   0   255 216   0   255 216   0   255 216   0   255 216   0   255 216   0     0   0   0     0   0   0    60  51   0   255 216   0    15  13   0     0   0   0     0   0   0   255 216   0   255 216   0   255 216   0   255 216   0   255 216   0   255 216   0   255 216   0   255 216   0   255 216   0   255 216   0    96  96  96     0   0   0   130 130 130   255 255 255   255 255 255   255 255 255   255 255 255   255 255 255   255 255 255   255 255 255   255 255 255   255 255 255   255 255 255   255 255 255   255 255 255   255 255 255   255 255 255   255 255 255   255 255 255   255 255 255   255 255 255   255 255 255   255 255 255   255 255 255   255 255 255   255 255 255   255 255 255   255 255 255   255 255 255   255 255 255   255 255 255   255 255 255   255 255 255   255 255 255   255 255 255   255 255 255   255 255 255   255 255 255   255 255 255   255 255 255   255 255 255   255 255 255   255 255 255   255 255 255   255 255 255   255 255 255   255 255 255   255 255 255   255 255 255   255 255 255   255 255 255   255 255 255   255 255 255   255 255 255   255 255 255   255 255 255   255 255 255   255 255 255   255 255 255   255 255 255   255 255 255   255 255 255   255 255 255   255 255 255   255 255 255   255 255 255   255 255 255   255 255 255   255 255 255   255 255 255   255 255 255   255 255 255   255 255 255   255 255 255   255 255 255   255 255 255   255 255 255   255 255 255   255 255 255   255 255 255   255 255 255   255 255 255   255 255 255   255 255 255   255 255 255   255 255 255   255 255 255   255 255 255   255 255 255   255 255 255   255 255 255   255 255 255   255 255 255   255 255 255   255 255 255   255 255 255   255 255 255   255 255 255   255 255 255   255 255 255   255 255 255   255 255 255   255 255 255   255 255 255   255 255 255   255 255 255   255 255 255   255 255 255   255 255 255   255 255 255   255 255 255   255 255 255   255 255 255   255 255 255   255 255 255   255 255 255   255 255 255   255 255 255   255 255 255   255 255 255   255 255 255   255 255 255
255 255 255   255 255 255   255 255 255   255 255 255   255 255 255   255 255 255   255 255 255   255 255 255   255 255 255   255 255 255   255 255 255   255 255 255   255 255 255   255 255 255   255 255 255   255 255 255   255 255 255   255 255 255   255 255 255   255 255 255   255 255 255   255 255 255   255 255 255   255 255 255   255 255 255   255 255 255   255 255 255   255 255 255   255 255 255   255 255 255   255 255 255   255 255 255   255 255 255   255 255 255   255 255 255   255 255 255   255 255 255   255 255 255   255 255 255   255 255 255   255 255 255   255 255 255   255 255 255   255 255 255   255 255 255   255 255 255   255 255 255   255 255 255   255 255 255   255 255 255   255 255 255   255 255 255   255 255 255   255 255 255   255 255 255   255 255 255   255 255 255   255 255 255   255 255 255   255 255 255   255 255 255   255 255 255   255 255 255   255 255 255   255 255 255   255 255 255   255 255 255   255 255 255   255 255 255   165 165 165     0   0   0    66  66  66   255 216   0   255 216   0   255 216   0   255 216   0   255 216   0   255 216   0   255 216   0   255 216   0   255 216   0   255 216   0   255 216   0   255 216   0   255 216   0   255 216   0   255 216   0   255 216   0     0   0   0     0   0   0     0   0   0    59  50   0   233 197   0   255 216   0     0   0   0     0   0   0   255 216   0   255 216   0   255 216   0   255 216   0   255 216   0   255 216   0   255 216   0   255 216   0   255 216   0   255 216   0   255 216   0   255 216   0   255 216   0   255 216   0   255 216   0   255 216   0   255 216   0   255 216   0   255 216   0   255 216   0   255 216   0    60  51   0     0   0   0     0   0   0    60  51   0     0   0   0     0   0   0    60  51   0   255 216   0   255 216   0   255 216   0   255 216   0   255 216   0   255 216   0   255 216   0   255 216   0   255 216   0   255 216   0   182 182 182     0   0   0    49  49  49   255 255 255   255 255 255   255 255 255   255 255 255   255 255 255   255 255 255   255 255 255   255 255 255   255 255 255   255 255 255   255 255 255   255 255 255   255 255 255   255 255 255   255 255 255   255 255 255   255 255 255   255 255 255   255 255 255   255 255 255   255 255 255   255 255 255   255 255 255   255 255 255   255 255 255   255 255 255   255 255 255   255 255 255   255 255 255   255 255 255   255 255 255   255 255 255   255 255 255   255 255 255   255 255 255   255 255 255   255 255 255   255 255 255   255 255 255   255 255 255   255 255 255   255 255 255   255 255 255   255 255 255   255 255 255   255 255 255   255 255 255   255 255 255   255 255 255   255 255 255   255 255 255   255 255 255   255 255 255   255 255 255   255 255 255   255 255 255   255 255 255   255 255 255   255 255 255   255 255 255   255 255 255   255 255 255   255 255 255   255 255 255   255 255 255   255 255 255   255 255 255   255 255 255   255 255 255   255 255 255   255 255 255   255 255 255   255 255 255   255 255 255   255 255 255   255 255 255   255 255 255   255 255 255   255 255 255   255 255 255   255 255 255   255 255 255   255 255 255   255 255 255   255 255 255   255 255 255   255 255 255   255 255 255   255 255 255   255 255 255   255 255 255   255 255 255   255 255 255   255 255 255   255 255 255   255 255 255   255 255 255   255 255 255   255 255 255   255 255 255   255 255 255   255 255 255   255 255 255   255 255 255   255 255 255   255 255 255   255 255 255   255 255 255   255 255 255   255 255 255   255 255 255   255 255 255   255 255 255   255 255 255   255 255 255   255 255 255   255 255 255   255 255 255   255 255 255
255 255 255   255 255 255   255 255 255   255 255 255   255 255 255   255 255 255   255 255 255   255 255 255   255 255 255   255 255 255   255 255 255   255 255 255   255 255 255   255 255 255   255 255 255   255 255 255   255 255 255   255 255 255   255 255 255   255 255 255   255 255 255   255 255 255   255 255 255   255 255 255   255 255 255   255 255 255   255 255 255   255 255 255   255 255 255   255 255 255   255 255 255   255 255 255   255 255 255   255 255 255   255 255 255   255 255 255   255 255 255   255 255 255   255 255 255   255 255 255   255 255 255   255 255 255   255 255 255   255 255 255   255 255 255   255 255 255   255 255 255   255 255 255   255 255 255   255 255 255   255 255 255   255 255 255   255 255 255   255 255 255   255 255 255   255 255 255   255 255 255   255 255 255   255 255 255   255 255 255   255 255 255   255 255 255   255 255 255   255 255 255   255 255 255   255 255 255   255 255 255   255 255 255   255 255 255    92  92  92     0   0   0   144 144 144   255 216   0   255 216   0   255 216   0   255 216   0   255 216   0   255 216   0   255 216   0   255 216   0   255 216   0   255 216   0   255 216   0   255 216   0   255 216   0   255 216   0   255 216   0   255 216   0    60  51   0     0   0   0     0   0   0     0   0   0     0   0   0     0   0   0     0   0   0     0   0   0   255 216   0   255 216   0   255 216   0   255 216   0   255 216   0   255 216   0   255 216   0   255 216   0   255 216   0   255 216   0   255 216   0   255 216   0   255 216   0   255 216   0   255 216   0   255 216   0   255 216   0   255 216   0   255 216   0   255 216   0   255 216   0   255 216   0     0   0   0     0   0   0     0   0   0     0   0   0     0   0   0   255 216   0   255 216   0   255 216   0   255 216   0   255 216   0   255 216   0   255 216   0   255 216   0   255 216   0   255 216   0   255 216   0   248 248 248    12  12  12     1   1   1   230 230 230   255 255 255   255 255 255   255 255 255   255 255 255   255 255 255   255 255 255   255 255 255   255 255 255   255 255 255   255 255 255   255 255 255   255 255 255   255 255 255   255 255 255   255 255 255   255 255 255   255 255 255   255 255 255   255 255 255   255 255 255   255 255 255   255 255 255   255 255 255   255 255 255   255 255 255   255 255 255   255 255 255   255 255 255   255 255 255   255 255 255   255 255 255   255 255 255   255 255 255   255 255 255   255 255 255   255 255 255   255 255 255   255 255 255   255 255 255   255 255 255   255 255 255   255 255 255   255 255 255   255 255 255   255 255 255   255 255 255   255 255 255   255 255 255   255 255 255   255 255 255   255 255 255   255 255 255   255 255 255   255 255 255   255 255 255   255 255 255   255 255 255   255 255 255   255 255 255   255 255 255   255 255 255   255 255 255   255 255 255   255 255 255   255 255 255   255 255 255   255 255 255   255 255 255   255 255 255   255 255 255   255 255 255   255 255 255   255 255 255   255 255 255   255 255 255   255 255 255   255 255 255   255 255 255   255 255 255   255 255 255   255 255 255   255 255 255   255 255 255   255 255 255   255 255 255   255 255 255   255 255 255   255 255 255   255 255 255   255 255 255   255 255 255   255 255 255   255 255 255   255 255 255   255 255 255   255 255 255   255 255 255   255 255 255   255 255 255   255 255 255   255 255 255   255 255 255   255 255 255   255 255 255   255 255 255   255 255 255   255 255 255   255 255 255   255 255 255   255 255 255   255 255 255   255 255 255   255 255 255   255 255 255   255 255 255   255 255 255   255 255 255   255 255 255
255 255 255   255 255 255   255 255 255   255 255 255   255 255 255   255 255 255   255 255 255   255 255 255   255 255 255   255 255 255   255 255 255   255 255 255   255 255 255   255 255 255   255 255 255   255 255 255   255 255 255   255 255 255   255 255 255   255 255 255   255 255 255   255 255 255   255 255 255   255 255 255   255 255 255   255 255 255   255 255 255   255 255 255   255 255 255   255 255 255   255 255 255   255 255 255   255 255 255   255 255 255   255 255 255   255 255 255   255 255 255   255 255 255   255 255 255   255 255 255   255 255 255   255 255 255   255 255 255   255 255 255   255 255 255   255 255 255   255 255 255   255 255 255   255 255 255   255 255 255   255 255 255   255 255 255   255 255 255   255 255 255   255 255 255   255 255 255   255 255 255   255 255 255   255 255 255   255 255 255   255 255 255   255 255 255   255 255 255   255 255 255   255 255 255   255 255 255   255 255 255   255 255 255   255 255 255    26  26  26     0   0   0   214 214 214   255 216   0   255 216   0   255 216   0   255 216   0   255 216   0   255 216   0   255 216   0   255 216   0   255 216   0   255 216   0   255 216   0   255 216   0   255 216   0   255 216   0   255 216   0   255 216   0   255 216   0   255 216   0   233 197   0    59  50   0     0   0   0     0   0   0     0   0   0    60  51   0   255 216   0   255 216   0   255 216   0   255 216   0   255 216   0   255 216   0   255 216   0   255 216   0   255 216   0   255 216   0   255 216   0   255 216   0   255 216   0   255 216   0   255 216   0   255 216   0   255 216   0   255 216   0   255 216   0   255 216   0   255 216   0   255 216   0    60  51   0     0   0   0     0   0   0     0   0   0    60  51   0   255 216   0   255 216   0   255 216   0   255 216   0   255 216   0   255 216   0   255 216   0   255 216   0   255 216   0   255 216   0   255 216   0   255 216   0    76  76  76     0   0   0   164 164 164   255 255 255   255 255 255   255 255 255   255 255 255   255 255 255   255 255 255   255 255 255   255 255 255   255 255 255   255 255 255   255 255 255   255 255 255   255 255 255   255 255 255   255 255 255   255 255 255   255 255 255   255 255 255   255 255 255   255 255 255   255 255 255   255 255 255   255 255 255   255 255 255   255 255 255   255 255 255   255 255 255   255 255 255   255 255 255   255 255 255   255 255 255   255 255 255   255 255 255   255 255 255   255 255 255   255 255 255   255 255 255   255 255 255   255 255 255   255 255 255   255 255 255   255 255 255   255 255 255   255 255 255   255 255 255   255 255 255   255 255 255   255 255 255   255 255 255   255 255 255   255 255 255   255 255 255   255 255 255   255 255 255   255 255 255   255 255 255   255 255 255   255 255 255   255 255 255   255 255 255   255 255 255   255 255 255   255 255 255   255 255 255   255 255 255   255 255 255   255 255 255   255 255 255   255 255 255   255 255 255   255 255 255   255 255 255   255 255 255   255 255 255   255 255 255   255 255 255   255 255 255   255 255 255   255 255 255   255 255 255   255 255 255   255 255 255   255 255 255   255 255 255   255 255 255   255 255 255   255 255 255   255 255 255   255 255 255   255 255 255   255 255 255   255 255 255   255 255 255   255 255 255   255 255 255   255 255 255   255 255 255   255 255 255   255 255 255   255 255 255   255 255 255   255 255 255   255 255 255   255 255 255   255 255 255   255 255 255   255 255 255   255 255 255   255 255 255   255 255 255   255 255 255   255 255 255   255 255 255   255 255 255   255 255 255   255 255 255   255 255 255   255 255 255
255 255 255   255 255 255   255 255 255   255 255 255   255 255 255   255 255 255   255 255 255   255 255 255   255 255 255   255 255 255   255 255 255   255 255 255   255 255 255   255 255 255   255 255 255   255 255 255   255 255 255   255 255 255   255 255 255   255 255 255   255 255 255   255 255 255   255 255 255   255 255 255   255 255 255   255 255 255   255 255 255   255 255 255   255 255 255   255 255 255   255 255 255   255 255 255   255 255 255   255 255 255   255 255 255   255 255 255   255 255 255   255 255 255   255 255 255   255 255 255   255 255 255   255 255 255   255 255 255   255 255 255   255 255 255   255 255 255   255 255 255   255 255 255   255 255 255   255 255 255   255 255 255   255 255 255   255 255 255   255 255 255   255 255 255   255 255 255   255 255 255   255 255 255   255 255 255   255 255 255   255 255 255   255 255 255   255 255 255   255 255 255   255 255 255   255 255 255   255 255 255   255 255 255   221 221 221     0   0   0    22  22  22   254 254 254   255 216   0   255 216   0   255 216   0   255 216   0   255 216   0   255 216   0   255 216   0   255 216   0   255 216   0   255 216   0   255 216   0   255 216   0   255 216   0   255 216   0   255 216   0   255 216   0   255 216   0   255 216   0   255 216   0   255 216   0   255 216   0   255 216   0   255 216   0   255 216   0   255 216   0   255 216   0   255 216   0   255 216   0   255 216   0   255 216   0   255 216   0   255 216   0   255 216   0   255 216   0   255 216   0   255 216   0   255 216   0   255 216   0   255 216   0   255 216   0   255 216   0   255 216   0   255 216   0   255 216   0   255 216   0   255 216   0   255 216   0   255 216   0   255 216   0   255 216   0   255 216   0   255 216   0   255 216   0   255 216   0   255 216   0   255 216   0   255 216   0   255 216   0   255 216   0   255 216   0   255 216   0   255 216   0   255 216   0   138 138 138     0   0   0   105 105 105   255 255 255   255 255 255   255 255 255   255 255 255   255 255 255   255 255 255   255 255 255   255 255 255   255 255 255   255 255 255   255 255 255   255 255 255   255 255 255   255 255 255   255 255 255   255 255 255   255 255 255   255 255 255   255 255 255   255 255 255   255 255 255   255 255 255   255 255 255   255 255 255   255 255 255   255 255 255   255 255 255   255 255 255   255 255 255   255 255 255   255 255 255   255 255 255   255 255 255   255 255 255   255 255 255   255 255 255   255 255 255   255 255 255   255 255 255   255 255 255   255 255 255   255 255 255   255 255 255   255 255 255   255 255 255   255 255 255   255 255 255   255 255 255   255 255 255   255 255 255   255 255 255   255 255 255   255 255 255   255 255 255   255 255 255   255 255 255   255 255 255   255 255 255   255 255 255   255 255 255   255 255 255   255 255 255   255 255 255   255 255 255   255 255 255   255 255 255   255 255 255   255 255 255   255 255 255   255 255 255   255 255 255   255 255 255   255 255 255   255 255 255   255 255 255   255 255 255   255 255 255   255 255 255   255 255 255   255 255 255   255 255 255   255 255 255   255 255 255   255 255 255   255 255 255   255 255 255   255 255 255   255 255 255   255 255 255   255 255 255   255 255 255   255 255 255   255 255 255   255 255 255   255 255 255   255 255 255   255 255 255   255 255 255   255 255 255   255 255 255   255 255 255   255 255 255   255 255 255   255 255 255   255 255 255   255 255 255   255 255 255   255 255 255   255 255 255   255 255 255   255 255 255   255 255 255   255 255 255   255 255 255   255 255 255   255 255 255   255 255 255   255 255 255
255 255 255   255 255 255   255 255 255   255 255 255   255 255 255   255 255 255   255 255 255   255 255 255   255 255 255   255 255 255   255 255 255   255 255 255   255 255 255   255 255 255   255 255 255   255 255 255   255 255 255   255 255 255   255 255 255   255 255 255   255 255 255   255 255 255   255 255 255   255 255 255   255 255 255   255 255 255   255 255 255   255 255 255   255 255 255   255 255 255   255 255 255   255 255 255   255 255 255   255 255 255   255 255 255   255 255 255   255 255 255   255 255 255   255 255 255   255 255 255   255 255 255   255 255 255   255 255 255   255 255 255   255 255 255   255 255 255   255 255 255   255 255 255   255 255 255   255 255 255   255 255 255   255 255 255   255 255 255   255 255 255   255 255 255   255 255 255   255 255 255   255 255 255   255 255 255   255 255 255   255 255 255   255 255 255   255 255 255   255 255 255   255 255 255   255 255 255   255 255 255   255 255 255   169 169 169     0   0   0    77  77  77   255 216   0   255 216   0   255 216   0   255 216   0   255 216   0   255 216   0   255 216   0   255 216   0   255 216   0   255 216   0   255 216   0   255 216   0   255 216   0   255 216   0   255 216   0   255 216   0   255 216   0   255 216   0   255 216   0   255 216   0   255 216   0   255 216   0   255 216   0   255 216   0   255 216   0   255 216   0   255 216   0   255 216   0   255 216   0   255 216   0   255 216   0   255 216   0   255 216   0   255 216   0   255 216   0   255 216   0   255 216   0   255 216   0   255 216   0   255 216   0   255 216   0   255 216   0   255 216   0   255 216   0   255 216   0   255 216   0   255 216   0   255 216   0   255 216   0   255 216   0   255 216   0   255 216   0   255 216   0   255 216   0   255 216   0   255 216   0   255 216   0   255 216   0   255 216   0   255 216   0   255 216   0   255 216   0   255 216   0   255 216   0   193 193 193     0   0   0    52  52  52   255 255 255   255 255 255   255 255 255   255 255 255   255 255 255   255 255 255   255 255 255   255 255 255   255 255 255   255 255 255   255 255 255   255 255 255   255 255 255   255 255 255   255 255 255   255 255 255   255 255 255   255 255 255   255 255 255   255 255 255   255 255 255   255 255 255   255 255 255   255 255 255   255 255 255   255 255 255   255 255 255   255 255 255   255 255 255   255 255 255   255 255 255   255 255 255   255 255 255   255 255 255   255 255 255   255 255 255   255 255 255   255 255 255   255 255 255   255 255 255   255 255 255   255 255 255   255 255 255   255 255 255   255 255 255   255 255 255   255 255 255   255 255 255   255 255 255   255 255 255   255 255 255   255 255 255   255 255 255   255 255 255   255 255 255   255 255 255   255 255 255   255 255 255   255 255 255   255 255 255   255 255 255   255 255 255   255 255 255   255 255 255   255 255 255   255 255 255   255 255 255   255 255 255   255 255 255   255 255 255   255 255 255   255 255 255   255 255 255   255 255 255   255 255 255   255 255 255   255 255 255   255 255 255   255 255 255   255 255 255   255 255 255   255 255 255   255 255 255   255 255 255   255 255 255   255 255 255   255 255 255   255 255 255   255 255 255   255 255 255   255 255 255   255 255 255   255 255 255   255 255 255   255 255 255   255 255 255   255 255 255   255 255 255   255 255 255   255 255 255   255 255 255   255 255 255   255 255 255   255 255 255   255 255 255   255 255 255   255 255 255   255 255 255   255 255 255   255 255 255   255 255 255   255 255 255   255 255 255   255 255 255   255 255 255   255 255 255   255 255 255   255 255 255
255 255 255   255 255 255   255 255 255   255 255 255   255 255 255   255 255 255   255 255 255   255 255 255   255 255 255   255 255 255   255 255 255   255 255 255   255 255 255   255 255 255   255 255 255   255 255 255   255 255 255   255 255 255   255 255 255   255 255 255   255 255 255   255 255 255   255 255 255   255 255 255   255 255 255   255 255 255   255 255 255   255 255 255   255 255 255   255 255 255   255 255 255   255 255 255   255 255 255   255 255 255   255 255 255   255 255 255   255 255 255   255 255 255   255 255 255   255 255 255   255 255 255   255 255 255   255 255 255   255 255 255   255 255 255   255 255 255   255 255 255   255 255 255   255 255 255   255 255 255   255 255 255   255 255 255   255 255 255   255 255 255   255 255 255   255 255 255   255 255 255   255 255 255   255 255 255   255 255 255   255 255 255   255 255 255   255 255 255   255 255 255   255 255 255   255 255 255   255 255 255   255 255 255   123 123 123     0   0   0   125 125 125   255 216   0   255 216   0   255 216   0   255 216   0   255 216   0   255 216   0   255 216   0   255 216   0   255 216   0   255 216   0   255 216   0   255 216   0   255 216   0   255 216   0   255 216   0   255 216   0   255 216   0   255 216   0   255 216   0   255 216   0   255 216   0   255 216   0   255 216   0   255 216   0   255 216   0   255 216   0   255 216   0   255 216   0   255 216   0   255 216   0   255 216   0   255 216   0   255 216   0   255 216   0   255 216   0   255 216   0   255 216   0   255 216   0   255 216   0   255 216   0   255 216   0   255 216   0   255 216   0   255 216   0   255 216   0   255 216   0   255 216   0   255 216   0   255 216   0   255 216   0   255 216   0   255 216   0   255 216   0   255 216   0   255 216   0   255 216   0   255 216   0   255 216   0   255 216   0   255 216   0   255 216   0   255 216   0   255 216   0   255 216   0   240 240 240     1   1   1     9   9   9   252 252 252   255 255 255   255 255 255   255 255 255   255 255 255   255 255 255   255 255 255   255 255 255   255 255 255   255 255 255   255 255 255   255 255 255   255 255 255   255 255 255   255 255 255   255 255 255   255 255 255   255 255 255   255 255 255   255 255 255   255 255 255   255 255 255   255 255 255   255 255 255   255 255 255   255 255 255   255 255 255   255 255 255   255 255 255   255 255 255   255 255 255   255 255 255   255 255 255   255 255 255   255 255 255   255 255 255   255 255 255   255 255 255   255 255 255   255 255 255   255 255 255   255 255 255   255 255 255   255 255 255   255 255 255   255 255 255   255 255 255   255 255 255   255 255 255   255 255 255   255 255 255   255 255 255   255 255 255   255 255 255   255 255 255   255 255 255   255 255 255   255 255 255   255 255 255   255 255 255   255 255 255   255 255 255   255 255 255   255 255 255   255 255 255   255 255 255   255 255 255   255 255 255   255 255 255   255 255 255   255 255 255   255 255 255   255 255 255   255 255 255   255 255 255   255 255 255   255 255 255   255 255 255   255 255 255   255 255 255   255 255 255   255 255 255   255 255 255   255 255 255   255 255 255   255 255 255   255 255 255   255 255 255   255 255 255   255 255 255   255 255 255   255 255 255   255 255 255   255 255 255   255 255 255   255 255 255   255 255 255   255 255 255   255 255 255   255 255 255   255 255 255   255 255 255   255 255 255   255 255 255   255 255 255   255 255 255   255 255 255   255 255 255   255 255 255   255 255 255   255 255 255   255 255 255   255 255 255   255 255 255   255 255 255   255 255 255   255 255 255   255 255 255
255 255 255   255 255 255   255 255 255   255 255 255   255 255 255   255 255 255   255 255 255   255 255 255   255 255 255   255 255 255   255 255 255   255 255 255   255 255 255   255 255 255   255 255 255   255 255 255   255 255 255   255 255 255   255 255 255   255 255 255   255 255 255   255 255 255   255 255 255   255 255 255   255 255 255   255 255 255   255 255 255   255 255 255   255 255 255   255 255 255   255 255 255   255 255 255   255 255 255   255 255 255   255 255 255   255 255 255   255 255 255   255 255 255   255 255 255   255 255 255   255 255 255   255 255 255   255 255 255   255 255 255   255 255 255   255 255 255   255 255 255   255 255 255   255 255 255   255 255 255   255 255 255   255 255 255   255 255 255   255 255 255   255 255 255   255 255 255   255 255 255   255 255 255   255 255 255   255 255 255   255 255 255   255 255 255   255 255 255   255 255 255   255 255 255   255 255 255   255 255 255   255 255 255    84  84  84     0   0   0   166 166 166   255 216   0   255 216   0   255 216   0   255 216   0   255 216   0   255 216   0   255 216   0   255 216   0   255 216   0   255 216   0   255 216   0   255 216   0   255 216   0   255 216   0   255 216   0   255 216   0   255 216   0   255 216   0   255 216   0   255 216   0   255 216   0   255 216   0   255 216   0   255 216   0   255 216   0   255 216   0   255 216   0   255 216   0   255 216   0   255 216   0   255 216   0   255 216   0   255 216   0   255 216   0   255 216   0   255 216   0   255 216   0   255 216   0   255 216   0   255 216   0   255 216   0   255 216   0   255 216   0   255 216   0   255 216   0   255 216   0   255 216   0   255 216   0   255 216   0   255 216   0   255 216   0   255 216   0   255 216   0   255 216   0   255 216   0   255 216   0   255 216   0   255 216   0   255 216   0   255 216   0   255 216   0   255 216   0   255 216   0   255 216   0   255 216   0    26  26  26     0   0   0   223 223 223   255 255 255   255 255 255   255 255 255   255 255 255   255 255 255   255 255 255   255 255 255   255 255 255   255 255 255   255 255 255   255 255 255   255 255 255   255 255 255   255 255 255   255 255 255   255 255 255   255 255 255   255 255 255   255 255 255   255 255 255   255 255 255   255 255 255   255 255 255   255 255 255   255 255 255   255 255 255   255 255 255   255 255 255   255 255 255   255 255 255   255 255 255   255 255 255   255 255 255   255 255 255   255 255 255   255 255 255   255 255 255   255 255 255   255 255 255   255 255 255   255 255 255   255 255 255   255 255 255   255 255 255   255 255 255   255 255 255   255 255 255   255 255 255   255 255 255   255 255 255   255 255 255   255 255 255   255 255 255   255 255 255   255 255 255   255 255 255   255 255 255   255 255 255   255 255 255   255 255 255   255 255 255   255 255 255   255 255 255   255 255 255   255 255 255   255 255 255   255 255 255   255 255 255   255 255 255   255 255 255   255 255 255   255 255 255   255 255 255   255 255 255   255 255 255   255 255 255   255 255 255   255 255 255   255 255 255   255 255 255   255 255 255   255 255 255   255 255 255   255 255 255   255 255 255   255 255 255   255 255 255   255 255 255   255 255 255   255 255 255   255 255 255   255 255 255   255 255 255   255 255 255   255 255 255   255 255 255   255 255 255   255 255 255   255 255 255   255 255 255   255 255 255   255 255 255   255 255 255   255 255 255   255 255 255   255 255 255   255 255 255   255 255 255   255 255 255   255 255 255   255 255 255   255 255 255   255 255 255   255 255 255   255 255 255   255 255 255   255 255 255
255 255 255   255 255 255   255 255 255   255 255 255   255 255 255   255 255 255   255 255 255   255 255 255   255 255 255   255 255 255   255 255 255   255 255 255   255 255 255   255 255 255   255 255 255   255 255 255   255 255 255   255 255 255   255 255 255   255 255 255   255 255 255   255 255 255   255 255 255   255 255 255   255 255 255   255 255 255   255 255 255   255 255 255   255 255 255   255 255 255   255 255 255   255 255 255   255 255 255   255 255 255   255 255 255   255 255 255   255 255 255   255 255 255   255 255 255   255 255 255   255 255 255   255 255 255   255 255 255   255 255 255   255 255 255   255 255 255   255 255 255   255 255 255   255 255 255   255 255 255   255 255 255   255 255 255   255 255 255   255 255 255   255 255 255   255 255 255   255 255 255   255 255 255   255 255 255   255 255 255   255 255 255   255 255 255   255 255 255   255 255 255   255 255 255   255 255 255   255 255 255   255 255 255    52  52  52     0   0   0   199 199 199   255 216   0   255 216   0   255 216   0   255 216   0   255 216   0   255 216   0   255 216   0   255 216   0   255 216   0   255 216   0   255 216   0   255 216   0   255 216   0   255 216   0   255 216   0   255 216   0   255 216   0   255 216   0   255 216   0   255 216   0   255 216   0   255 216   0   255 216   0   255 216   0   255 216   0   255 216   0   255 216   0   255 216   0   255 216   0   255 216   0   255 216   0   255 216   0   255 216   0   255 216   0   255 216   0   255 216   0   255 216   0   255 216   0   255 216   0   255 216   0   255 216   0   255 216   0   255 216   0   255 216   0   255 216   0   255 216   0   255 216   0   255 216   0   255 216   0   255 216   0   255 216   0   255 216   0   255 216   0   255 216   0   255 216   0   255 216   0   255 216   0   255 216   0   255 216   0   255 216   0   255 216   0   255 216   0   255 216   0   255 216   0   255 216   0    60  60  60     0   0   0   191 191 191   255 255 255   255 255 255   255 255 255   255 255 255   255 255 255   255 255 255   255 255 255   255 255 255   255 255 255   255 255 255   255 255 255   255 255 255   255 255 255   255 255 255   255 255 255   255 255 255   255 255 255   255 255 255   255 255 255   255 255 255   255 255 255   255 255 255   255 255 255   255 255 255   255 255 255   255 255 255   255 255 255   255 255 255   255 255 255   255 255 255   255 255 255   255 255 255   255 255 255   255 255 255   255 255 255   255 255 255   255 255 255   255 255 255   255 255 255   255 255 255   255 255 255   255 255 255   255 255 255   255 255 255   255 255 255   255 255 255   255 255 255   255 255 255   255 255 255   255 255 255   255 255 255   255 255 255   255 255 255   255 255 255   255 255 255   255 255 255   255 255 255   255 255 255   255 255 255   255 255 255   255 255 255   255 255 255   255 255 255   255 255 255   255 255 255   255 255 255   255 255 255   255 255 255   255 255 255   255 255 255   255 255 255   255 255 255   255 255 255   255 255 255   255 255 255   255 255 255   255 255 255   255 255 255   255 255 255   255 255 255   255 255 255   255 255 255   255 255 255   255 255 255   255 255 255   255 255 255   255 255 255   255 255 255   255 255 255   255 255 255   255 255 255   255 255 255   255 255 255   255 255 255   255 255 255   255 255 255   255 255 255   255 255 255   255 255 255   255 255 255   255 255 255   255 255 255   255 255 255   255 255 255   255 255 255   255 255 255   255 255 255   255 255 255   255 255 255   255 255 255   255 255 255   255 255 255   255 255 255   255 255 255   255 255 255   255 255 255   255 255 255
255 255 255   255 255 255   255 255 255   255 255 255   255 255 255   255 255 255   255 255 255   255 255 255   255 255 255   255 255 255   255 255 255   255 255 255   255 255 255   255 255 255   255 255 255   255 255 255   255 255 255   255 255 255   255 255 255   255 255 255   255 255 255   255 255 255   255 255 255   255 255 255   255 255 255   255 255 255   255 255 255   255 255 255   255 255 255   255 255 255   255 255 255   255 255 255   255 255 255   255 255 255   255 255 255   255 255 255   255 255 255   255 255 255   255 255 255   255 255 255   255 255 255   255 255 255   255 255 255   255 255 255   255 255 255   255 255 255   255 255 255   255 255 255   255 255 255   255 255 255   255 255 255   255 255 255   255 255 255   255 255 255   255 255 255   255 255 255   255 255 255   255 255 255   255 255 255   255 255 255   255 255 255   255 255 255   255 255 255   255 255 255   255 255 255   255 255 255   255 255 255   255 255 255    27  27  27     0   0   0   226 226 226   255 216   0   255 216   0   255 216   0   255 216   0   255 216   0   255 216   0   255 216   0   255 216   0   255 216   0   255 216   0   255 216   0   255 216   0   255 216   0   255 216   0   255 216   0   255 216   0   255 216   0   255 216   0   255 216   0   255 216   0   255 216   0   255 216   0   255 216   0   255 216   0   255 216   0   255 216   0   255 216   0   255 216   0   255 216   0   255 216   0   255 216   0   255 216   0   255 216   0   255 216   0   255 216   0   255 216   0   255 216   0   255 216   0   255 216   0   255 216   0   255 216   0   255 216   0   255 216   0   255 216   0   255 216   0   255 216   0   255 216   0   255 216   0   255 216   0   255 216   0   255 216   0   255 216   0   255 216   0   255 216   0   255 216   0   255 216   0   255 216   0   255 216   0   255 216   0   255 216   0   255 216   0   255 216   0   255 216   0   255 216   0   255 216   0    87  87  87     0   0   0   166 166 166   255 255 255   255 255 255   255 255 255   255 255 255   255 255 255   255 255 255   255 255 255   255 255 255   255 255 255   255 255 255   255 255 255   255 255 255   255 255 255   255 255 255   255 255 255   255 255 255   255 255 255   255 255 255   255 255 255   255 255 255   255 255 255   255 255 255   255 255 255   255 255 255   255 255 255   255 255 255   255 255 255   255 255 255   255 255 255   255 255 255   255 255 255   255 255 255   255 255 255   255 255 255   255 255 255   255 255 255   255 255 255   255 255 255   255 255 255   255 255 255   255 255 255   255 255 255   255 255 255   255 255 255   255 255 255   255 255 255   255 255 255   255 255 255   255 255 255   255 255 255   255 255 255   255 255 255   255 255 255   255 255 255   255 255 255   255 255 255   255 255 255   255 255 255   255 255 255   255 255 255   255 255 255   255 255 255   255 255 255   255 255 255   255 255 255   255 255 255   255 255 255   255 255 255   255 255 255   255 255 255   255 255 255   255 255 255   255 255 255   255 255 255   255 255 255   255 255 255   255 255 255   255 255 255   255 255 255   255 255 255   255 255 255   255 255 255   255 255 255   255 255 255   255 255 255   255 255 255   255 255 255   255 255 255   255 255 255   255 255 255   255 255 255   255 255 255   255 255 255   255 255 255   255 255 255   255 255 255   255 255 255   255 255 255   255 255 255   255 255 255   255 255 255   255 255 255   255 255 255   255 255 255   255 255 255   255 255 255   255 255 255   255 255 255   255 255 255   255 255 255   255 255 255   255 255 255   255 255 255   255 255 255   255 255 255   255 255 255   255 255 255
255 255 255   255 255 255   255 255 255   255 255 255   255 255 255   255 255 255   255 255 255   255 255 255   255 255 255   255 255 255   255 255 255   255 255 255   255 255 255   255 255 255   255 255 255   255 255 255   255 255 255   255 255 255   255 255 255   255 255 255   255 255 255   255 255 255   255 255 255   255 255 255   255 255 255   255 255 255   255 255 255   255 255 255   255 255 255   255 255 255   255 255 255   255 255 255   255 255 255   255 255 255   255 255 255   255 255 255   255 255 255   255 255 255   255 255 255   255 255 255   255 255 255   255 255 255   255 255 255   255 255 255   255 255 255   255 255 255   255 255 255   255 255 255   255 255 255   255 255 255   255 255 255   255 255 255   255 255 255   255 255 255   255 255 255   255 255 255   255 255 255   255 255 255   255 255 255   255 255 255   255 255 255   255 255 255   255 255 255   255 255 255   255 255 255   255 255 255   255 255 255   255 255 255     8   8   8     0   0   0   246 246 246   255 216   0   255 216   0   255 216   0   255 216   0   255 216   0   255 216   0   255 216   0   255 216   0   255 216   0   255 216   0   255 216   0   255 216   0   255 216   0   255 216   0   255 216   0   255 216   0   255 216   0   255 216   0   255 216   0   255 216   0   255 216   0   255 216   0   255 216   0   255 216   0   255 216   0   255 216   0   255 216   0   255 216   0   255 216   0   255 216   0   255 216   0   255 216   0   255 216   0   255 216   0   255 216   0   255 216   0   255 216   0   255 216   0   255 216   0   255 216   0   255 216   0   255 216   0   255 216   0   255 216   0   255 216   0   255 216   0   255 216   0   255 216   0   255 216   0   255 216   0   255 216   0   255 216   0   255 216   0   255 216   0   255 216   0    60  51   0    60  51   0   255 216   0   255 216   0   255 216   0   255 216   0   255 216   0   255 216   0   255 216   0   255 216   0   108 108 108     0   0   0   146 146 146   255 255 255   255 255 255   255 255 255   255 255 255   255 255 255   255 255 255   255 255 255   255 255 255   255 255 255   255 255 255   255 255 255   255 255 255   255 255 255   255 255 255   255 255 255   255 255 255   255 255 255   255 255 255   255 255 255   255 255 255   255 255 255   255 255 255   255 255 255   255 255 255   255 255 255   255 255 255   255 255 255   255 255 255   255 255 255   255 255 255   255 255 255   255 255 255   255 255 255   255 255 255   255 255 255   255 255 255   255 255 255   255 255 255   255 255 255   255 255 255   255 255 255   255 255 255   255 255 255   255 255 255   255 255 255   255 255 255   255 255 255   255 255 255   255 255 255   255 255 255   255 255 255   255 255 255   255 255 255   255 255 255   255 255 255   255 255 255   255 255 255   255 255 255   255 255 255   255 255 255   255 255 255   255 255 255   255 255 255   255 255 255   255 255 255   255 255 255   255 255 255   255 255 255   255 255 255   255 255 255   255 255 255   255 255 255   255 255 255   255 255 255   255 255 255   255 255 255   255 255 255   255 255 255   255 255 255   255 255 255   255 255 255   255 255 255   255 255 255   255 255 255   255 255 255   255 255 255   255 255 255   255 255 255   255 255 255   255 255 255   255 255 255   255 255 255   255 255 255   255 255 255   255 255 255   255 255 255   255 255 255   255 255 255   255 255 255   255 255 255   255 255 255   255 255 255   255 255 255   255 255 255   255 255 255   255 255 255   255 255 255   255 255 255   255 255 255   255 255 255   255 255 255   255 255 255   255 255 255   255 255 255   255 255 255   255 255 255   255 255 255
255 255 255   255 255 255   255 255 255   255 255 255   255 255 255   255 255 255   255 255 255   255 255 255   255 255 255   255 255 255   255 255 255   255 255 255   255 255 255   255 255 255   255 255 255   255 255 255   255 255 255   255 255 255   255 255 255   255 255 255   255 255 255   255 255 255   255 255 255   255 255 255   255 255 255   255 255 255   255 255 255   255 255 255   255 255 255   255 255 255   255 255 255   255 255 255   255 255 255   255 255 255   255 255 255   255 255 255   255 255 255   255 255 255   255 255 255   255 255 255   255 255 255   255 255 255   255 255 255   255 255 255   255 255 255   255 255 255   255 255 255   255 255 255   255 255 255   255 255 255   255 255 255   255 255 255   255 255 255   255 255 255   255 255 255   255 255 255   255 255 255   255 255 255   255 255 255   255 255 255   255 255 255   255 255 255   255 255 255   255 255 255   255 255 255   255 255 255   255 255 255   250 250 250     0   0   0     4   4   4   255 216   0   255 216   0   255 216   0   255 216   0   255 216   0   255 216   0   255 216   0   255 216   0   255 216   0   255 216   0   255 216   0   255 216   0   255 216   0   255 216   0   255 216   0   255 216   0   255 216   0   255 216   0   255 216   0   255 216   0   255 216   0   255 216   0   255 216   0   255 216   0   255 216   0   255 216   0   255 216   0   255 216   0   255 216   0   255 216   0   255 216   0   255 216   0   255 216   0   255 216   0   255 216   0   255 216   0   255 216   0   255 216   0   255 216   0   255 216   0   255 216   0   255 216   0   255 216   0   255 216   0   255 216   0   255 216   0   255 216   0   255 216   0   255 216   0   255 216   0   255 216   0   255 216   0   255 216   0   255 216   0   255 216   0   255 216   0     0   0   0     0   0   0   252 213   0   255 216   0   255 216   0   255 216   0   255 216   0   255 216   0   255 216   0   255 216   0   121 121 121     0   0   0   133 133 133   255 255 255   255 255 255   255 255 255   255 255 255   255 255 255   255 255 255   255 255 255   255 255 255   255 255 255   255 255 255   255 255 255   255 255 255   255 255 255   255 255 255   255 255 255   255 255 255   255 255 255   255 255 255   255 255 255   255 255 255   255 255 255   255 255 255   255 255 255   255 255 255   255 255 255   255 255 255   255 255 255   255 255 255   255 255 255   255 255 255   255 255 255   255 255 255   255 255 255   255 255 255   255 255 255   255 255 255   255 255 255   255 255 255   255 255 255   255 255 255   255 255 255   255 255 255   255 255 255   255 255 255   255 255 255   255 255 255   255 255 255   255 255 255   255 255 255   255 255 255   255 255 255   255 255 255   255 255 255   255 255 255   255 255 255   255 255 255   255 255 255   255 255 255   255 255 255   255 255 255   255 255 255   255 255 255   255 255 255   255 255 255   255 255 255   255 255 255   255 255 255   255 255 255   255 255 255   255 255 255   255 255 255   255 255 255   255 255 255   255 255 255   255 255 255   255 255 255   255 255 255   255 255 255   255 255 255   255 255 255   255 255 255   255 255 255   255 255 255   255 255 255   255 255 255   255 255 255   255 255 255   255 255 255   255 255 255   255 255 255   255 255 255   255 255 255   255 255 255   255 255 255   255 255 255   255 255 255   255 255 255   255 255 255   255 255 255   255 255 255   255 255 255   255 255 255   255 255 255   255 255 255   255 255 255   255 255 255   255 255 255   255 255 255   255 255 255   255 255 255   255 255 255   255 255 255   255 255 255   255 255 255   255 255 255   255 255 255   255 255 255
255 255 255   255 255 255   255 255 255   255 255 255   255 255 255   255 255 255   255 255 255   255 255 255   255 255 255   255 255 255   255 255 255   255 255 255   255 255 255   255 255 255   255 255 255   255 255 255   255 255 255   255 255 255   255 255 255   255 255 255   255 255 255   255 255 255   255 255 255   255 255 255   255 255 255   255 255 255   255 255 255   255 255 255   255 255 255   255 255 255   255 255 255   255 255 255   255 255 255   255 255 255   255 255 255   255 255 255   255 255 255   255 255 255   255 255 255   255 255 255   255 255 255   255 255 255   255 255 255   255 255 255   255 255 255   255 255 255   255 255 255   255 255 255   255 255 255   255 255 255   255 255 255   255 255 255   255 255 255   255 255 255   255 255 255   255 255 255   255 255 255   255 255 255   255 255 255   255 255 255   255 255 255   255 255 255   255 255 255   255 255 255   255 255 255   255 255 255   255 255 255   244 244 244     0   0   0    11  11  11   255 216   0   255 216   0   255 216   0   255 216   0   255 216   0   255 216   0   255 216   0   255 216   0   255 216   0   255 216   0   255 216   0   255 216   0   255 216   0   255 216   0   255 216   0   255 216   0   255 216   0   255 216   0   255 216   0   255 216   0   255 216   0   255 216   0   255 216   0   255 216   0   255 216   0   255 216   0   255 216   0   255 216   0   255 216   0   255 216   0   255 216   0   255 216   0   255 216   0   255 216   0   255 216   0   255 216   0   255 216   0   255 216   0   255 216   0   255 216   0   255 216   0   255 216   0   255 216   0   255 216   0   255 216   0   255 216   0   255 216   0   255 216   0   255 216   0   255 216   0   255 216   0   255 216   0   255 216   0   255 216   0   255 216   0   255 216   0    40  34   0     0   0   0   161 136   0   255 216   0   255 216   0   255 216   0   255 216   0   255 216   0   255 216   0   255 216   0   125 125 125     0   0   0   128 128 128   255 255 255   255 255 255   255 255 255   255 255 255   255 255 255   255 255 255   255 255 255   255 255 255   255 255 255   255 255 255   255 255 255   255 255 255   255 255 255   255 255 255   255 255 255   255 255 255   255 255 255   255 255 255   255 255 255   255 255 255   255 255 255   255 255 255   255 255 255   255 255 255   255 255 255   255 255 255   255 255 255   255 255 255   255 255 255   255 255 255   255 255 255   255 255 255   255 255 255   255 255 255   255 255 255   255 255 255   255 255 255   255 255 255   255 255 255   255 255 255   255 255 255   255 255 255   255 255 255   255 255 255   255 255 255   255 255 255   255 255 255   255 255 255   255 255 255   255 255 255   255 255 255   255 255 255   255 255 255   255 255 255   255 255 255   255 255 255   255 255 255   255 255 255   255 255 255   255 255 255   255 255 255   255 255 255   255 255 255   255 255 255   255 255 255   255 255 255   255 255 255   255 255 255   255 255 255   255 255 255   255 255 255   255 255 255   255 255 255   255 255 255   255 255 255   255 255 255   255 255 255   255 255 255   255 255 255   255 255 255   255 255 255   255 255 255   255 255 255   255 255 255   255 255 255   255 255 255   255 255 255   255 255 255   255 255 255   255 255 255   255 255 255   255 255 255   255 255 255   255 255 255   255 255 255   255 255 255   255 255 255   255 255 255   255 255 255   255 255 255   255 255 255   255 255 255   255 255 255   255 255 255   255 255 255   255 255 255   255 255 255   255 255 255   255 255 255   255 255 255   255 255 255   255 255 255   255 255 255   255 255 255   255 255 255   255 255 255   255 255 255
255 255 255   255 255 255   255 255 255   255 255 255   255 255 255   255 255 255   255 255 255   255 255 255   255 255 255   255 255 255   255 255 255   255 255 255   255 255 255   255 255 255   255 255 255   255 255 255   255 255 255   255 255 255   255 255 255   255 255 255   255 255 255   255 255 255   255 255 255   255 255 255   255 255 255   255 255 255   255 255 255   255 255 255   255 255 255   255 255 255   255 255 255   255 255 255   255 255 255   255 255 255   255 255 255   255 255 255   255 255 255   255 255 255   255 255 255   255 255 255   255 255 255   255 255 255   255 255 255   255 255 255   255 255 255   255 255 255   255 255 255   255 255 255   255 255 255   255 255 255   255 255 255   255 255 255   255 255 255   255 255 255   255 255 255   255 255 255   255 255 255   255 255 255   255 255 255   255 255 255   255 255 255   255 255 255   255 255 255   255 255 255   255 255 255   255 255 255   255 255 255   245 245 245     0   0   0    10  10  10   255 216   0   255 216   0   255 216   0   255 216   0   255 216   0   255 216   0   255 216   0   255 216   0   255 216   0   255 216   0   255 216   0   255 216   0   255 216   0   255 216   0   255 216   0   255 216   0   255 216   0   255 216   0   255 216   0   255 216   0   255 216   0   255 216   0   255 216   0   255 216   0   255 216   0   255 216   0   255 216   0   255 216   0   255 216   0   255 216   0   255 216   0   255 216   0   255 216   0   255 216   0   255 216   0   255 216   0   255 216   0   255 216   0   255 216   0   255 216   0   255 216   0   255 216   0   255 216   0   255 216   0   255 216   0   255 216   0   255 216   0   255 216   0   255 216   0   255 216   0   255 216   0   255 216   0   255 216   0   255 216   0   255 216   0   255 216   0   161 136   0     0   0   0    41  35   0   255 216   0   255 216   0   255 216   0   255 216   0   255 216   0   255 216   0   255 216   0   125 125 125     0   0   0   130 130 130   255 255 255   255 255 255   255 255 255   255 255 255   255 255 255   255 255 255   255 255 255   255 255 255   255 255 255   255 255 255   255 255 255   255 255 255   255 255 255   255 255 255   255 255 255   255 255 255   255 255 255   255 255 255   255 255 255   255 255 255   255 255 255   255 255 255   255 255 255   255 255 255   255 255 255   255 255 255   255 255 255   255 255 255   255 255 255   255 255 255   255 255 255   255 255 255   255 255 255   255 255 255   255 255 255   255 255 255   255 255 255   255 255 255   255 255 255   255 255 255   255 255 255   255 255 255   255 255 255   255 255 255   255 255 255   255 255 255   255 255 255   255 255 255   255 255 255   255 255 255   255 255 255   255 255 255   255 255 255   255 255 255   255 255 255   255 255 255   255 255 255   255 255 255   255 255 255   255 255 255   255 255 255   255 255 255   255 255 255   255 255 255   255 255 255   255 255 255   255 255 255   255 255 255   255 255 255   255 255 255   255 255 255   255 255 255   255 255 255   255 255 255   255 255 255   255 255 255   255 255 255   255 255 255   255 255 255   255 255 255   255 255 255   255 255 255   255 255 255   255 255 255   255 255 255   255 255 255   255 255 255   255 255 255   255 255 255   255 255 255   255 255 255   255 255 255   255 255 255   255 255 255   255 255 255   255 255 255   255 255 255   255 255 255   255 255 255   255 255 255   255 255 255   255 255 255   255 255 255   255 255 255   255 255 255   255 255 255   255 255 255   255 255 255   255 255 255   255 255 255   255 255 255   255 255 255   255 255 255   255 255 255   255 255 255   255 255 255   255 255 255
255 255 255   255 255 255   255 255 255   255 255 255   255 255 255   255 255 255   255 255 255   255 255 255   255 255 255   255 255 255   255 255 255   255 255 255   255 255 255   255 255 255   255 255 255   255 255 255   255 255 255   255 255 255   255 255 255   255 255 255   255 255 255   255 255 255   255 255 255   255 255 255   255 255 255   255 255 255   255 255 255   255 255 255   255 255 255   255 255 255   255 255 255   255 255 255   255 255 255   255 255 255   255 255 255   255 255 255   255 255 255   255 255 255   255 255 255   255 255 255   255 255 255   255 255 255   255 255 255   255 255 255   255 255 255   255 255 255   255 255 255   255 255 255   255 255 255   255 255 255   255 255 255   255 255 255   255 255 255   255 255 255   255 255 255   255 255 255   255 255 255   255 255 255   255 255 255   255 255 255   255 255 255   255 255 255   255 255 255   255 255 255   255 255 255   255 255 255   255 255 255   250 250 250     0   0   0     4   4   4   255 216   0   255 216   0   255 216   0   255 216   0   255 216   0   255 216   0   255 216   0   255 216   0   255 216   0   255 216   0   255 216   0   255 216   0   255 216   0   255 216   0   255 216   0   255 216   0   255 216   0   255 216   0   255 216   0   255 216   0   255 216   0   255 216   0   255 216   0   255 216   0   255 216   0   255 216   0   255 216   0   255 216   0   255 216   0   255 216   0   255 216   0   255 216   0   255 216   0   255 216   0   255 216   0   255 216   0   255 216   0   255 216   0   255 216   0   255 216   0   255 216   0   255 216   0   255 216   0   255 216   0   255 216   0   255 216   0   255 216   0   255 216   0   255 216   0   255 216   0   255 216   0   255 216   0   255 216   0   255 216   0   255 216   0   255 216   0   252 213   0     0   0   0     0   0   0   255 216   0   255 216   0   255 216   0   255 216   0   255 216   0   255 216   0   255 216   0   120 120 120     0   0   0   134 134 134   255 255 255   255 255 255   255 255 255   255 255 255   255 255 255   255 255 255   255 255 255   255 255 255   255 255 255   255 255 255   255 255 255   255 255 255   255 255 255   255 255 255   255 255 255   255 255 255   255 255 255   255 255 255   255 255 255   255 255 255   255 255 255   255 255 255   255 255 255   255 255 255   255 255 255   255 255 255   255 255 255   255 255 255   255 255 255   255 255 255   255 255 255   255 255 255   255 255 255   255 255 255   255 255 255   255 255 255   255 255 255   255 255 255   255 255 255   255 255 255   255 255 255   255 255 255   255 255 255   255 255 255   255 255 255   255 255 255   255 255 255   255 255 255   255 255 255   255 255 255   255 255 255   255 255 255   255 255 255   255 255 255   255 255 255   255 255 255   255 255 255   255 255 255   255 255 255   255 255 255   255 255 255   255 255 255   255 255 255   255 255 255   255 255 255   255 255 255   255 255 255   255 255 255   255 255 255   255 255 255   255 255 255   255 255 255   255 255 255   255 255 255   255 255 255   255 255 255   255 255 255   255 255 255   255 255 255   255 255 255   255 255 255   255 255 255   255 255 255   255 255 255   255 255 255   255 255 255   255 255 255   255 255 255   255 255 255   255 255 255   255 255 255   255 255 255   255 255 255   255 255 255   255 255 255   255 255 255   255 255 255   255 255 255   255 255 255   255 255 255   255 255 255   255 255 255   255 255 255   255 255 255   255 255 255   255 255 255   255 255 255   255 255 255   255 255 255   255 255 255   255 255 255   255 255 255   255 255 255   255 255 255   255 255 255   255 255 255   255 255 255
255 255 255   255 255 255   255 255 255   255 255 255   255 255 255   255 255 255   255 255 255   255 255 255   255 255 255   255 255 255   255 255 255   255 255 255   255 255 255   255 255 255   255 255 255   255 255 255   255 255 255   255 255 255   255 255 255   255 255 255   255 255 255   255 255 255   255 255 255   255 255 255   255 255 255   255 255 255   255 255 255   255 255 255   255 255 255   255 255 255   255 255 255   255 255 255   255 255 255   255 255 255   255 255 255   255 255 255   255 255 255   255 255 255   255 255 255   255 255 255   255 255 255   255 255 255   255 255 255   255 255 255   255 255 255   255 255 255   255 255 255   255 255 255   255 255 255   255 255 255   255 255 255   255 255 255   255 255 255   255 255 255   255 255 255   255 255 255   255 255 255   255 255 255   255 255 255   255 255 255   255 255 255   255 255 255   255 255 255   255 255 255   255 255 255   255 255 255   255 255 255   255 255 255     8   8   8     0   0   0   246 246 246   255 216   0   255 216   0   255 216   0   255 216   0   255 216   0   255 216   0   255 216   0   255 216   0   255 216   0   255 216   0   255 216   0   255 216   0   255 216   0   255 216   0   255 216   0   255 216   0   255 216   0   255 216   0   255 216   0   255 216   0   255 216   0   255 216   0   255 216   0   255 216   0   255 216   0   255 216   0   255 216   0   255 216   0   255 216   0   255 216   0   255 216   0   255 216   0   255 216   0   255 216   0   255 216   0   255 216   0   255 216   0   255 216   0   255 216   0   255 216   0   255 216   0   255 216   0   255 216   0   255 216   0   255 216   0   255 216   0   255 216   0   255 216   0   255 216   0   255 216   0   255 216   0   255 216   0   255 216   0   255 216   0   255 216   0   255 216   0     0   0   0     0   0   0   255 216   0   255 216   0   255 216   0   255 216   0   255 216   0   255 216   0   255 216   0   107 107 107     0   0   0   147 147 147   255 255 255   255 255 255   255 255 255   255 255 255   255 255 255   255 255 255   255 255 255   255 255 255   255 255 255   255 255 255   255 255 255   255 255 255   255 255 255   255 255 255   255 255 255   255 255 255   255 255 255   255 255 255   255 255 255   255 255 255   255 255 255   255 255 255   255 255 255   255 255 255   255 255 255   255 255 255   255 255 255   255 255 255   255 255 255   255 255 255   255 255 255   255 255 255   255 255 255   255 255 255   255 255 255   255 255 255   255 255 255   255 255 255   255 255 255   255 255 255   255 255 255   255 255 255   255 255 255   255 255 255   255 255 255   255 255 255   255 255 255   255 255 255   255 255 255   255 255 255   255 255 255   255 255 255   255 255 255   255 255 255   255 255 255   255 255 255   255 255 255   255 255 255   255 255 255   255 255 255   255 255 255   255 255 255   255 255 255   255 255 255   255 255 255   255 255 255   255 255 255   255 255 255   255 255 255   255 255 255   255 255 255   255 255 255   255 255 255   255 255 255   255 255 255   255 255 255   255 255 255   255 255 255   255 255 255   255 255 255   255 255 255   255 255 255   255 255 255   255 255 255   255 255 255   255 255 255   255 255 255   255 255 255   255 255 255   255 255 255   255 255 255   255 255 255   255 255 255   255 255 255   255 255 255   255 255 255   255 255 255   255 255 255   255 255 255   255 255 255   255 255 255   255 255 255   255 255 255   255 255 255   255 255 255   255 255 255   255 255 255   255 255 255   255 255 255   255 255 255   255 255 255   255 255 255   255 255 255   255 255 255   255 255 255   255 255 255   255 255 255
255 255 255   255 255 255   255 255 255   255 255 255   255 255 255   255 255 255   255 255 255   255 255 255   255 255 255   255 255 255   255 255 255   255 255 255   255 255 255   255 255 255   255 255 255   255 255 255   255 255 255   255 255 255   255 255 255   255 255 255   255 255 255   255 255 255   255 255 255   255 255 255   255 255 255   255 255 255   255 255 255   255 255 255   255 255 255   255 255 255   255 255 255   255 255 255   255 255 255   255 255 255   255 255 255   255 255 255   255 255 255   255 255 255   255 255 255   255 255 255   255 255 255   255 255 255   255 255 255   255 255 255   255 255 255   255 255 255   255 255 255   255 255 255   255 255 255   255 255 255   255 255 255   255 255 255   255 255 255   255 255 255   255 255 255   255 255 255   255 255 255   255 255 255   255 255 255   255 255 255   255 255 255   255 255 255   255 255 255   255 255 255   255 255 255   255 255 255   255 255 255   255 255 255    28  28  28     0   0   0   225 225 225   255 216   0   255 216   0   255 216   0   255 216   0   255 216   0   255 216   0   255 216   0   255 216   0   255 216   0   255 216   0   255 216   0   255 216   0   255 216   0   255 216   0   255 216   0   255 216   0   255 216   0   255 216   0   255 216   0   255 216   0   255 216   0   255 216   0   255 216   0   255 216   0   255 216   0   255 216   0   255 216   0   255 216   0   255 216   0   255 216   0   255 216   0   255 216   0   255 216   0   255 216   0   255 216   0   255 216   0   255 216   0   255 216   0   255 216   0   255 216   0   255 216   0   255 216   0   255 216   0   255 216   0   255 216   0   255 216   0   255 216   0   255 216   0   255 216   0   255 216   0   255 216   0   255 216   0   255 216   0   255 216   0   255 216   0   255 216   0     0   0   0     0   0   0   255 216   0   255 216   0   255 216   0   255 216   0   255 216   0   255 216   0   255 216   0    86  86  86     0   0   0   167 167 167   255 255 255   255 255 255   255 255 255   255 255 255   255 255 255   255 255 255   255 255 255   255 255 255   255 255 255   255 255 255   255 255 255   255 255 255   255 255 255   255 255 255   255 255 255   255 255 255   255 255 255   255 255 255   255 255 255   255 255 255   255 255 255   255 255 255   255 255 255   255 255 255   255 255 255   255 255 255   255 255 255   255 255 255   255 255 255   255 255 255   255 255 255   255 255 255   255 255 255   255 255 255   255 255 255   255 255 255   255 255 255   255 255 255   255 255 255   255 255 255   255 255 255   255 255 255   255 255 255   255 255 255   255 255 255   255 255 255   255 255 255   255 255 255   255 255 255   255 255 255   255 255 255   255 255 255   255 255 255   255 255 255   255 255 255   255 255 255   255 255 255   255 255 255   255 255 255   255 255 255   255 255 255   255 255 255   255 255 255   255 255 255   255 255 255   255 255 255   255 255 255   255 255 255   255 255 255   255 255 255   255 255 255   255 255 255   255 255 255   255 255 255   255 255 255   255 255 255   255 255 255   255 255 255   255 255 255   255 255 255   255 255 255   255 255 255   255 255 255   255 255 255   255 255 255   255 255 255   255 255 255   255 255 255   255 255 255   255 255 255   255 255 255   255 255 255   255 255 255   255 255 255   255 255 255   255 255 255   255 255 255   255 255 255   255 255 255   255 255 255   255 255 255   255 255 255   255 255 255   255 255 255   255 255 255   255 255 255   255 255 255   255 255 255   255 255 255   255 255 255   255 255 255   255 255 255   255 255 255   255 255 255   255 255 255   255 255 255   255 255 255
255 255 255   255 255 255   255 255 255   255 255 255   255 255 255   255 255 255   255 255 255   255 255 255   255 255 255   255 255 255   255 255 255   255 255 255   255 255 255   255 255 255   255 255 255   255 255 255   255 255 255   255 255 255   255 255 255   255 255 255   255 255 255   255 255 255   255 255 255   255 255 255   255 255 255   255 255 255   255 255 255   255 255 255   255 255 255   255 255 255   255 255 255   255 255 255   255 255 255   255 255 255   255 255 255   255 255 255   255 255 255   255 255 255   255 255 255   255 255 255   255 255 255   255 255 255   255 255 255   255 255 255   255 255 255   255 255 255   255 255 255   255 255 255   255 255 255   255 255 255   255 255 255   255 255 255   255 255 255   255 255 255   255 255 255   255 255 255   255 255 255   255 255 255   255 255 255   255 255 255   255 255 255   255 255 255   255 255 255   255 255 255   255 255 255   255 255 255   255 255 255   255 255 255    53  53  53     0   0   0   198 198 198   255 216   0   255 216   0   255 216   0   255 216   0   255 216   0   255 216   0   255 216   0   255 216   0   255 216   0   255 216   0   255 216   0   255 216   0   255 216   0   255 216   0   255 216   0   255 216   0   255 216   0   255 216   0   255 216   0   255 216   0   255 216   0   255 216   0   255 216   0   255 216   0   255 216   0   255 216   0   255 216   0   255 216   0   255 216   0   255 216   0   255 216   0   255 216   0   255 216   0   255 216   0   255 216   0   255 216   0   255 216   0   255 216   0   255 216   0   255 216   0   255 216   0   255 216   0   255 216   0   255 216   0   255 216   0   255 216   0   255 216   0   255 216   0   255 216   0   255 216   0   255 216   0   255 216   0   255 216   0   255 216   0   255 216   0   255 216   0     0   0   0     0   0   0   255 216   0   255 216   0   255 216   0   255 216   0   255 216   0   255 216   0   255 216   0    59  59  59     0   0   0   192 192 192   255 255 255   255 255 255   255 255 255   255 255 255   255 255 255   255 255 255   255 255 255   255 255 255   255 255 255   255 255 255   255 255 255   255 255 255   255 255 255   255 255 255   255 255 255   255 255 255   255 255 255   255 255 255   255 255 255   255 255 255   255 255 255   255 255 255   255 255 255   255 255 255   255 255 255   255 255 255   255 255 255   255 255 255   255 255 255   255 255 255   255 255 255   255 255 255   255 255 255   255 255 255   255 255 255   255 255 255   255 255 255   255 255 255   255 255 255   255 255 255   255 255 255   255 255 255   255 255 255   255 255 255   255 255 255   255 255 255   255 255 255   255 255 255   255 255 255   255 255 255   255 255 255   255 255 255   255 255 255   255 255 255   255 255 255   255 255 255   255 255 255   255 255 255   255 255 255   255 255 255   255 255 255   255 255 255   255 255 255   255 255 255   255 255 255   255 255 255   255 255 255   255 255 255   255 255 255   255 255 255   255 255 255   255 255 255   255 255 255   255 255 255   255 255 255   255 255 255   255 255 255   255 255 255   255 255 255   255 255 255   255 255 255   255 255 255   255 255 255   255 255 255   255 255 255   255 255 255   255 255 255   255 255 255   255 255 255   255 255 255   255 255 255   255 255 255   255 255 255   255 255 255   255 255 255   255 255 255   255 255 255   255 255 255   255 255 255   255 255 255   255 255 255   255 255 255   255 255 255   255 255 255   255 255 255   255 255 255   255 255 255   255 255 255   255 255 255   255 255 255   255 255 255   255 255 255   255 255 255   255 255 255   255 255 255   255 255 255   255 255 255
255 255 255   255 255 255   255 255 255   255 255 255   255 255 255   255 255 255   255 255 255   255 255 255   255 255 255   255 255 255   255 255 255   255 255 255   255 255 255   255 255 255   255 255 255   255 255 255   255 255 255   255 255 255   255 255 255   255 255 255   255 255 255   255 255 255   255 255 255   255 255 255   255 255 255   255 255 255   255 255 255   255 255 255   255 255 255   255 255 255   255 255 255   255 255 255   255 255 255   255 255 255   255 255 255   255 255 255   255 255 255   255 255 255   255 255 255   255 255 255   255 255 255   255 255 255   255 255 255   255 255 255   255 255 255   255 255 255   255 255 255   255 255 255   255 255 255   255 255 255   255 255 255   255 255 255   255 255 255   255 255 255   255 255 255   255 255 255   255 255 255   255 255 255   255 255 255   255 255 255   255 255 255   255 255 255   255 255 255   255 255 255   255 255 255   255 255 255   255 255 255   255 255 255    85  85  85     0   0   0   164 164 164   255 216   0   255 216   0   255 216   0   255 216   0   255 216   0   255 216   0   255 216   0   255 216   0   255 216   0   255 216   0   255 216   0   255 216   0   255 216   0   255 216   0   255 216   0   255 216   0   255 216   0   255 216   0    60  51   0     0   0   0    59  50   0   233 197   0   255 216   0   255 216   0   255 216   0   255 216   0   255 216   0   255 216   0   255 216   0   255 216   0   255 216   0   255 216   0   255 216   0   255 216   0   255 216   0   255 216   0   255 216   0   255 216   0   255 216   0   255 216   0   255 216   0   255 216   0   255 216   0   255 216   0   255 216   0   255 216   0   255 216   0   255 216   0   255 216   0   255 216   0   255 216   0   255 216   0   255 216   0   255 216   0   255 216   0   255 216   0     0   0   0     0   0   0   255 216   0   255 216   0   255 216   0   255 216   0   255 216   0   255 216   0   255 216   0    25  25  25     0   0   0   225 225 225   255 255 255   255 255 255   255 255 255   255 255 255   255 255 255   255 255 255   255 255 255   255 255 255   255 255 255   255 255 255   255 255 255   255 255 255   255 255 255   255 255 255   255 255 255   255 255 255   255 255 255   255 255 255   255 255 255   255 255 255   255 255 255   255 255 255   255 255 255   255 255 255   255 255 255   255 255 255   255 255 255   255 255 255   255 255 255   255 255 255   255 255 255   255 255 255   255 255 255   255 255 255   255 255 255   255 255 255   255 255 255   255 255 255   255 255 255   255 255 255   255 255 255   255 255 255   255 255 255   255 255 255   255 255 255   255 255 255   255 255 255   255 255 255   255 255 255   255 255 255   255 255 255   255 255 255   255 255 255   255 255 255   255 255 255   255 255 255   255 255 255   255 255 255   255 255 255   255 255 255   255 255 255   255 255 255   255 255 255   255 255 255   255 255 255   255 255 255   255 255 255   255 255 255   255 255 255   255 255 255   255 255 255   255 255 255   255 255 255   255 255 255   255 255 255   255 255 255   255 255 255   255 255 255   255 255 255   255 255 255   255 255 255   255 255 255   255 255 255   255 255 255   255 255 255   255 255 255   255 255 255   255 255 255   255 255 255   255 255 255   255 255 255   255 255 255   255 255 255   255 255 255   255 255 255   255 255 255   255 255 255   255 255 255   255 255 255   255 255 255   255 255 255   255 255 255   255 255 255   255 255 255   255 255 255   255 255 255   255 255 255   255 255 255   255 255 255   255 255 255   255 255 255   255 255 255   255 255 255   255 255 255   255 255 255   255 255 255   255 255 255
255 255 255   255 255 255   255 255 255   255 255 255   255 255 255   255 255 255   255 255 255   255 255 255   255 255 255   255 255 255   255 255 255   255 255 255   255 255 255   255 255 255   255 255 255   255 255 255   255 255 255   255 255 255   255 255 255   255 255 255   255 255 255   255 255 255   255 255 255   255 255 255   255 255 255   255 255 255   255 255 255   255 255 255   255 255 255   255 255 255   255 255 255   255 255 255   255 255 255   255 255 255   255 255 255   255 255 255   255 255 255   255 255 255   255 255 255   255 255 255   255 255 255   255 255 255   255 255 255   255 255 255   255 255 255   255 255 255   255 255 255   255 255 255   255 255 255   255 255 255   255 255 255   255 255 255   255 255 255   255 255 255   255 255 255   255 255 255   255 255 255   255 255 255   255 255 255   255 255 255   255 255 255   255 255 255   255 255 255   255 255 255   255 255 255   255 255 255   255 255 255   255 255 255   125 125 125     0   0   0   123 123 123   255 216   0   255 216   0   255 216   0   255 216   0   255 216   0   255 216   0   255 216   0   255 216   0   255 216   0   255 216   0   255 216   0   255 216   0   255 216   0   255 216   0   255 216   0   255 216   0   255 216   0   255 216   0    60  51   0     0   0   0     0   0   0    44  37   0   233 197   0   255 216   0   255 216   0   255 216   0   255 216   0   255 216   0   255 216   0   255 216   0   255 216   0   255 216   0   255 216   0   255 216   0   255 216   0   255 216   0   255 216   0   255 216   0   255 216   0   255 216   0   255 216   0   255 216   0   255 216   0   255 216   0   255 216   0   255 216   0   255 216   0   255 216   0   255 216   0   255 216   0   255 216   0   255 216   0   255 216   0   255 216   0   255 216   0   255 216   0     0   0   0     0   0   0   255 216   0   255 216   0   255 216   0   255 216   0   255 216   0   255 216   0   239 239 239     0   0   0    10  10  10   253 253 253   255 255 255   255 255 255   255 255 255   255 255 255   255 255 255   255 255 255   255 255 255   255 255 255   255 255 255   255 255 255   255 255 255   255 255 255   255 255 255   255 255 255   255 255 255   255 255 255   255 255 255   255 255 255   255 255 255   255 255 255   255 255 255   255 255 255   255 255 255   255 255 255   255 255 255   255 255 255   255 255 255   255 255 255   255 255 255   255 255 255   255 255 255   255 255 255   255 255 255   255 255 255   255 255 255   255 255 255   255 255 255   255 255 255   255 255 255   255 255 255   255 255 255   255 255 255   255 255 255   255 255 255   255 255 255   255 255 255   255 255 255   255 255 255   255 255 255   255 255 255   255 255 255   255 255 255   255 255 255   255 255 255   255 255 255   255 255 255   255 255 255   255 255 255   255 255 255   255 255 255   255 255 255   255 255 255   255 255 255   255 255 255   255 255 255   255 255 255   255 255 255   255 255 255   255 255 255   255 255 255   255 255 255   255 255 255   255 255 255   255 255 255   255 255 255   255 255 255   255 255 255   255 255 255   255 255 255   255 255 255   255 255 255   255 255 255   255 255 255   255 255 255   255 255 255   255 255 255   255 255 255   255 255 255   255 255 255   255 255 255   255 255 255   255 255 255   255 255 255   255 255 255   255 255 255   255 255 255   255 255 255   255 255 255   255 255 255   255 255 255   255 255 255   255 255 255   255 255 255   255 255 255   255 255 255   255 255 255   255 255 255   255 255 255   255 255 255   255 255 255   255 255 255   255 255 255   255 255 255   255 255 255   255 255 255   255 255 255   255 255 255
255 255 255   255 255 255   255 255 255   255 255 255   255 255 255   255 255 255   255 255 255   255 255 255   255 255 255   255 255 255   255 255 255   255 255 255   255 255 255   255 255 255   255 255 255   255 255 255   255 255 255   255 255 255   255 255 255   255 255 255   255 255 255   255 255 255   255 255 255   255 255 255   255 255 255   255 255 255   255 255 255   255 255 255   255 255 255   255 255 255   255 255 255   255 255 255   255 255 255   255 255 255   255 255 255   255 255 255   255 255 255   255 255 255   255 255 255   255 255 255   255 255 255   255 255 255   255 255 255   255 255 255   255 255 255   255 255 255   255 255 255   255 255 255   255 255 255   255 255 255   255 255 255   255 255 255   255 255 255   255 255 255   255 255 255   255 255 255   255 255 255   255 255 255   255 255 255   255 255 255   255 255 255   255 255 255   255 255 255   255 255 255   255 255 255   255 255 255   255 255 255   255 255 255   170 170 170     0   0   0    75  75  75   255 216   0   255 216   0   255 216   0   255 216   0   255 216   0   255 216   0   255 216   0   255 216   0   255 216   0   255 216   0   255 216   0   255 216   0   255 216   0   255 216   0   255 216   0   255 216   0   255 216   0   255 216   0   255 216   0   233 197   0    44  37   0     0   0   0    59  50   0   255 216   0   255 216   0   255 216   0   255 216   0   255 216   0   255 216   0   255 216   0   255 216   0   255 216   0   255 216   0   255 216   0   255 216   0   255 216   0   255 216   0   255 216   0   255 216   0   255 216   0   255 216   0   255 216   0   255 216   0   255 216   0   255 216   0   255 216   0   255 216   0   255 216   0   255 216   0   255 216   0   255 216   0   255 216   0   255 216   0   255 216   0   255 216   0   233 197   0     0   0   0     0   0   0   255 216   0   255 216   0   255 216   0   255 216   0   255 216   0   255 216   0   191 191 191     0   0   0    54  54  54   255 255 255   255 255 255   255 255 255   255 255 255   255 255 255   255 255 255   255 255 255   255 255 255   255 255 255   255 255 255   255 255 255   255 255 255   255 255 255   255 255 255   255 255 255   255 255 255   255 255 255   255 255 255   255 255 255   255 255 255   255 255 255   255 255 255   255 255 255   255 255 255   255 255 255   255 255 255   255 255 255   255 255 255   255 255 255   255 255 255   255 255 255   255 255 255   255 255 255   255 255 255   255 255 255   255 255 255   255 255 255   255 255 255   255 255 255   255 255 255   255 255 255   255 255 255   255 255 255   255 255 255   255 255 255   255 255 255   255 255 255   255 255 255   255 255 255   255 255 255   255 255 255   255 255 255   255 255 255   255 255 255   255 255 255   255 255 255   255 255 255   255 255 255   255 255 255   255 255 255   255 255 255   255 255 255   255 255 255   255 255 255   255 255 255   255 255 255   255 255 255   255 255 255   255 255 255   255 255 255   255 255 255   255 255 255   255 255 255   255 255 255   255 255 255   255 255 255   255 255 255   255 255 255   255 255 255   255 255 255   255 255 255   255 255 255   255 255 255   255 255 255   255 255 255   255 255 255   255 255 255   255 255 255   255 255 255   255 255 255   255 255 255   255 255 255   255 255 255   255 255 255   255 255 255   255 255 255   255 255 255   255 255 255   255 255 255   255 255 255   255 255 255   255 255 255   255 255 255   255 255 255   255 255 255   255 255 255   255 255 255   255 255 255   255 255 255   255 255 255   255 255 255   255 255 255   255 255 255   255 255 255   255 255 255   255 255 255   255 255 255   255 255 255
255 255 255   255 255 255   255 255 255   255 255 255   255 255 255   255 255 255   255 255 255   255 255 255   255 255 255   255 255 255   255 255 255   255 255 255   255 255 255   255 255 255   255 255 255   255 255 255   255 255 255   255 255 255   255 255 255   255 255 255   255 255 255   255 255 255   255 255 255   255 255 255   255 255 255   255 255 255   255 255 255   255 255 255   255 255 255   255 255 255   255 255 255   255 255 255   255 255 255   255 255 255   255 255 255   255 255 255   255 255 255   255 255 255   255 255 255   255 255 255   255 255 255   255 255 255   255 255 255   255 255 255   255 255 255   255 255 255   255 255 255   255 255 255   255 255 255   255 255 255   255 255 255   255 255 255   255 255 255   255 255 255   255 255 255   255 255 255   255 255 255   255 255 255   255 255 255   255 255 255   255 255 255   255 255 255   255 255 255   255 255 255   255 255 255   255 255 255   255 255 255   255 255 255   223 223 223     0   0   0    21  21  21   254 254 254   255 216   0   255 216   0   255 216   0   255 216   0   255 216   0   255 216   0   255 216   0   255 216   0   255 216   0   255 216   0   255 216   0   255 216   0   255 216   0   255 216   0   255 216   0   255 216   0   255 216   0   255 216   0   255 216   0   233 197   0     0   0   0     0   0   0   255 216   0   255 216   0   255 216   0   255 216   0   255 216   0   255 216   0   255 216   0   255 216   0   255 216   0   255 216   0   255 216   0   255 216   0   255 216   0   255 216   0   255 216   0   255 216   0   255 216   0   255 216   0   255 216   0   255 216   0   255 216   0   255 216   0   255 216   0   255 216   0   255 216   0   255 216   0   255 216   0   255 216   0   255 216   0   255 216   0   255 216   0   233 197   0    44  37   0     0   0   0    59  50   0   255 216   0   255 216   0   255 216   0   255 216   0   255 216   0   255 216   0   136 136 136     0   0   0   107 107 107   255 255 255   255 255 255   255 255 255   255 255 255   255 255 255   255 255 255   255 255 255   255 255 255   255 255 255   255 255 255   255 255 255   255 255 255   255 255 255   255 255 255   255 255 255   255 255 255   255 255 255   255 255 255   255 255 255   255 255 255   255 255 255   255 255 255   255 255 255   255 255 255   255 255 255   255 255 255   255 255 255   255 255 255   255 255 255   255 255 255   255 255 255   255 255 255   255 255 255   255 255 255   255 255 255   255 255 255   255 255 255   255 255 255   255 255 255   255 255 255   255 255 255   255 255 255   255 255 255   255 255 255   255 255 255   255 255 255   255 255 255   255 255 255   255 255 255   255 255 255   255 255 255   255 255 255   255 255 255   255 255 255   255 255 255   255 255 255   255 255 255   255 255 255   255 255 255   255 255 255   255 255 255   255 255 255   255 255 255   255 255 255   255 255 255   255 255 255   255 255 255   255 255 255   255 255 255   255 255 255   255 255 255   255 255 255   255 255 255   255 255 255   255 255 255   255 255 255   255 255 255   255 255 255   255 255 255   255 255 255   255 255 255   255 255 255   255 255 255   255 255 255   255 255 255   255 255 255   255 255 255   255 255 255   255 255 255   255 255 255   255 255 255   255 255 255   255 255 255   255 255 255   255 255 255   255 255 255   255 255 255   255 255 255   255 255 255   255 255 255   255 255 255   255 255 255   255 255 255   255 255 255   255 255 255   255 255 255   255 255 255   255 255 255   255 255 255   255 255 255   255 255 255   255 255 255   255 255 255   255 255 255   255 255 255   255 255 255   255 255 255   255 255 255
255 255 255   255 255 255   255 255 255   255 255 255   255 255 255   255 255 255   255 255 255   255 255 255   255 255 255   255 255 255   255 255 255   255 255 255   255 255 255   255 255 255   255 255 255   255 255 255   255 255 255   255 255 255   255 255 255   255 255 255   255 255 255   255 255 255   255 255 255   255 255 255   255 255 255   255 255 255   255 255 255   255 255 255   255 255 255   255 255 255   255 255 255   255 255 255   255 255 255   255 255 255   255 255 255   255 255 255   255 255 255   255 255 255   255 255 255   255 255 255   255 255 255   255 255 255   255 255 255   255 255 255   255 255 255   255 255 255   255 255 255   255 255 255   255 255 255   255 255 255   255 255 255   255 255 255   255 255 255   255 255 255   255 255 255   255 255 255   255 255 255   255 255 255   255 255 255   255 255 255   255 255 255   255 255 255   255 255 255   255 255 255   255 255 255   255 255 255   255 255 255   255 255 255   255 255 255    28  28  28     0   0   0   212 212 212   255 216   0   255 216   0   255 216   0   255 216   0   255 216   0   255 216   0   255 216   0   255 216   0   255 216   0   255 216   0   255 216   0   255 216   0   255 216   0   255 216   0   255 216   0   255 216   0   255 216   0   255 216   0   255 216   0   255 216   0     0   0   0     0   0   0   254 215   0   255 216   0   255 216   0   255 216   0   255 216   0   255 216   0   255 216   0   255 216   0   255 216   0   255 216   0   255 216   0   255 216   0   255 216   0   255 216   0   255 216   0   255 216   0   255 216   0   255 216   0   255 216   0   255 216   0   255 216   0   255 216   0   255 216   0   255 216   0   255 216   0   255 216   0   255 216   0   255 216   0   255 216   0   255 216   0   255 216   0    59  50   0     0   0   0    44  37   0   233 197   0   255 216   0   255 216   0   255 216   0   255 216   0   255 216   0   255 216   0    73  73  73     0   0   0   166 166 166   255 255 255   255 255 255   255 255 255   255 255 255   255 255 255   255 255 255   255 255 255   255 255 255   255 255 255   255 255 255   255 255 255   255 255 255   255 255 255   255 255 255   255 255 255   255 255 255   255 255 255   255 255 255   255 255 255   255 255 255   255 255 255   255 255 255   255 255 255   255 255 255   255 255 255   255 255 255   255 255 255   255 255 255   255 255 255   255 255 255   255 255 255   255 255 255   255 255 255   255 255 255   255 255 255   255 255 255   255 255 255   255 255 255   255 255 255   255 255 255   255 255 255   255 255 255   255 255 255   255 255 255   255 255 255   255 255 255   255 255 255   255 255 255   255 255 255   255 255 255   255 255 255   255 255 255   255 255 255   255 255 255   255 255 255   255 255 255   255 255 255   255 255 255   255 255 255   255 255 255   255 255 255   255 255 255   255 255 255   255 255 255   255 255 255   255 255 255   255 255 255   255 255 255   255 255 255   255 255 255   255 255 255   255 255 255   255 255 255   255 255 255   255 255 255   255 255 255   255 255 255   255 255 255   255 255 255   255 255 255   255 255 255   255 255 255   255 255 255   255 255 255   255 255 255   255 255 255   255 255 255   255 255 255   255 255 255   255 255 255   255 255 255   255 255 255   255 255 255   255 255 255   255 255 255   255 255 255   255 255 255   255 255 255   255 255 255   255 255 255   255 255 255   255 255 255   255 255 255   255 255 255   255 255 255   255 255 255   255 255 255   255 255 255   255 255 255   255 255 255   255 255 255   255 255 255   255 255 255   255 255 255   255 255 255   255 255 255   255 255 255   255 255 255
255 255 255   255 255 255   255 255 255   255 255 255   255 255 255   255 255 255   255 255 255   255 255 255   255 255 255   255 255 255   255 255 255   255 255 255   255 255 255   255 255 255   255 255 255   255 255 255   255 255 255   255 255 255   255 255 255   255 255 255   255 255 255   255 255 255   255 255 255   255 255 255   255 255 255   255 255 255   255 255 255   255 255 255   255 255 255   255 255 255   255 255 255   255 255 255   255 255 255   255 255 255   255 255 255   255 255 255   255 255 255   255 255 255   255 255 255   255 255 255   255 255 255   255 255 255   255 255 255   255 255 255   255 255 255   255 255 255   255 255 255   255 255 255   255 255 255   255 255 255   255 255 255   255 255 255   255 255 255   255 255 255   255 255 255   255 255 255   255 255 255   255 255 255   255 255 255   255 255 255   255 255 255   255 255 255   255 255 255   255 255 255   255 255 255   255 255 255   255 255 255   255 255 255   255 255 255    95  95  95     0   0   0   141 141 141   255 216   0   255 216   0   255 216   0   255 216   0   255 216   0   255 216   0   255 216   0   255 216   0   255 216   0   255 216   0   255 216   0   255 216   0   255 216   0   255 216   0   255 216   0   255 216   0   255 216   0   255 216   0   255 216   0   255 216   0    31  26   0     0   0   0   199 169   0   255 216   0   255 216   0   255 216   0   255 216   0   255 216   0   255 216   0   255 216   0   255 216   0   255 216   0   255 216   0   255 216   0   255 216   0   255 216   0   255 216   0   255 216   0   255 216   0   255 216   0   255 216   0   255 216   0   255 216   0   255 216   0   255 216   0   255 216   0   255 216   0   255 216   0   255 216   0   255 216   0   255 216   0   255 216   0   233 197   0     0   0   0     0   0   0   233 197   0   255 216   0   255 216   0   255 216   0   255 216   0   255 216   0   255 216   0   247 247 247    11  11  11     1   1   1   232 232 232   255 255 255   255 255 255   255 255 255   255 255 255   255 255 255   255 255 255   255 255 255   255 255 255   255 255 255   255 255 255   255 255 255   255 255 255   255 255 255   255 255 255   255 255 255   255 255 255   255 255 255   255 255 255   255 255 255   255 255 255   255 255 255   255 255 255   255 255 255   255 255 255   255 255 255   255 255 255   255 255 255   255 255 255   255 255 255   255 255 255   255 255 255   255 255 255   255 255 255   255 255 255   255 255 255   255 255 255   255 255 255   255 255 255   255 255 255   255 255 255   255 255 255   255 255 255   255 255 255   255 255 255   255 255 255   255 255 255   255 255 255   255 255 255   255 255 255   255 255 255   255 255 255   255 255 255   255 255 255   255 255 255   255 255 255   255 255 255   255 255 255   255 255 255   255 255 255   255 255 255   255 255 255   255 255 255   255 255 255   255 255 255   255 255 255   255 255 255   255 255 255   255 255 255   255 255 255   255 255 255   255 255 255   255 255 255   255 255 255   255 255 255   255 255 255   255 255 255   255 255 255   255 255 255   255 255 255   255 255 255   255 255 255   255 255 255   255 255 255   255 255 255   255 255 255   255 255 255   255 255 255   255 255 255   255 255 255   255 255 255   255 255 255   255 255 255   255 255 255   255 255 255   255 255 255   255 255 255   255 255 255   255 255 255   255 255 255   255 255 255   255 255 255   255 255 255   255 255 255   255 255 255   255 255 255   255 255 255   255 255 255   255 255 255   255 255 255   255 255 255   255 255 255   255 255 255   255 255 255   255 255 255   255 255 255   255 255 255   255 255 255   255 255 255
255 255 255   255 255 255   255 255 255   255 255 255   255 255 255   255 255 255   255 255 255   255 255 255   255 255 255   255 255 255   255 255 255   255 255 255   255 255 255   255 255 255   255 255 255   255 255 255   255 255 255   255 255 255   255 255 255   255 255 255   255 255 255   255 255 255   255 255 255   255 255 255   255 255 255   255 255 255   255 255 255   255 255 255   255 255 255   255 255 255   255 255 255   255 255 255   255 255 255   255 255 255   255 255 255   255 255 255   255 255 255   255 255 255   255 255 255   255 255 255   255 255 255   255 255 255   255 255 255   255 255 255   255 255 255   255 255 255   255 255 255   255 255 255   255 255 255   255 255 255   255 255 255   255 255 255   255 255 255   255 255 255   255 255 255   255 255 255   255 255 255   255 255 255   255 255 255   255 255 255   255 255 255   255 255 255   255 255 255   255 255 255   255 255 255   255 255 255   255 255 255   255 255 255   255 255 255   169 169 169     0   0   0    63  63  63   255 216   0   255 216   0   255 216   0   255 216   0   255 216   0   255 216   0   255 216   0   255 216   0   255 216   0   255 216   0   255 216   0   255 216   0   255 216   0   255 216   0   255 216   0   255 216   0   255 216   0   255 216   0   255 216   0   255 216   0   114  97   0     0   0   0   114  97   0   255 216   0   255 216   0   255 216   0   255 216   0   255 216   0   255 216   0   255 216   0   255 216   0   255 216   0   255 216   0   255 216   0   255 216   0   255 216   0   255 216   0   255 216   0   255 216   0   255 216   0   255 216   0   255 216   0   255 216   0   255 216   0   255 216   0   255 216   0   255 216   0   255 216   0   255 216   0   255 216   0   255 216   0   233 197   0    44  37   0     0   0   0    59  50   0   255 216   0   255 216   0   255 216   0   255 216   0   255 216   0   255 216   0   255 216   0   179 179 179     0   0   0    52  52  52   255 255 255   255 255 255   255 255 255   255 255 255   255 255 255   255 255 255   255 255 255   255 255 255   255 255 255   255 255 255   255 255 255   255 255 255   255 255 255   255 255 255   255 255 255   255 255 255   255 255 255   255 255 255   255 255 255   255 255 255   255 255 255   255 255 255   255 255 255   255 255 255   255 255 255   255 255 255   255 255 255   255 255 255   255 255 255   255 255 255   255 255 255   255 255 255   255 255 255   255 255 255   255 255 255   255 255 255   255 255 255   255 255 255   255 255 255   255 255 255   255 255 255   255 255 255   255 255 255   255 255 255   255 255 255   255 255 255   255 255 255   255 255 255   255 255 255   255 255 255   255 255 255   255 255 255   255 255 255   255 255 255   255 255 255   255 255 255   255 255 255   255 255 255   255 255 255   255 255 255   255 255 255   255 255 255   255 255 255   255 255 255   255 255 255   255 255 255   255 255 255   255 255 255   255 255 255   255 255 255   255 255 255   255 255 255   255 255 255   255 255 255   255 255 255   255 255 255   255 255 255   255 255 255   255 255 255   255 255 255   255 255 255   255 255 255   255 255 255   255 255 255   255 255 255   255 255 255   255 255 255   255 255 255   255 255 255   255 255 255   255 255 255   255 255 255   255 255 255   255 255 255   255 255 255   255 255 255   255 255 255   255 255 255   255 255 255   255 255 255   255 255 255   255 255 255   255 255 255   255 255 255   255 255 255   255 255 255   255 255 255   255 255 255   255 255 255   255 255 255   255 255 255   255 255 255   255 255 255   255 255 255   255 255 255   255 255 255   255 255 255   255 255 255   255 255 255
255 255 255   255 255 255   255 255 255   255 255 255   255 255 255   255 255 255   255 255 255   255 255 255   255 255 255   255 255 255   255 255 255   255 255 255   255 255 255   255 255 255   255 255 255   255 255 255   255 255 255   255 255 255   255 255 255   255 255 255   255 255 255   255 255 255   255 255 255   255 255 255   255 255 255   255 255 255   255 255 255   255 255 255   255 255 255   255 255 255   255 255 255   255 255 255   255 255 255   255 255 255   255 255 255   255 255 255   255 255 255   255 255 255   255 255 255   255 255 255   255 255 255   255 255 255   255 255 255   255 255 255   255 255 255   255 255 255   255 255 255   255 255 255   255 255 255   255 255 255   255 255 255   255 255 255   255 255 255   255 255 255   255 255 255   255 255 255   255 255 255   255 255 255   255 255 255   255 255 255   255 255 255   255 255 255   255 255 255   255 255 255   255 255 255   255 255 255   255 255 255   255 255 255   255 255 255   242 242 242     8   8   8     2   2   2   228 228 228   255 216   0   255 216   0   255 216   0   255 216   0   255 216   0   255 216   0   255 216   0   255 216   0   255 216   0   255 216   0   255 216   0   255 216   0   255 216   0   255 216   0   255 216   0   255 216   0   255 216   0   255 216   0   255 216   0   199 169   0     0   0   0    31  26   0   255 216   0   255 216   0   255 216   0   255 216   0   255 216   0   255 216   0   255 216   0   255 216   0   255 216   0   255 216   0   255 216   0   255 216   0   255 216   0   255 216   0   255 216   0   255 216   0   255 216   0   255 216   0   255 216   0   255 216   0   255 216   0   255 216   0   255 216   0   255 216   0   255 216   0   255 216   0   255 216   0   233 197   0    44  37   0     0   0   0    44  37   0   233 197   0   255 216   0   255 216   0   255 216   0   255 216   0   255 216   0   255 216   0   255 216   0    92  92  92     0   0   0   133 133 133   255 255 255   255 255 255   255 255 255   255 255 255   255 255 255   255 255 255   255 255 255   255 255 255   255 255 255   255 255 255   255 255 255   255 255 255   255 255 255   255 255 255   255 255 255   255 255 255   255 255 255   255 255 255   255 255 255   255 255 255   255 255 255   255 255 255   255 255 255   255 255 255   255 255 255   255 255 255   255 255 255   255 255 255   255 255 255   255 255 255   255 255 255   255 255 255   255 255 255   255 255 255   255 255 255   255 255 255   255 255 255   255 255 255   255 255 255   255 255 255   255 255 255   255 255 255   255 255 255   255 255 255   255 255 255   255 255 255   255 255 255   255 255 255   255 255 255   255 255 255   255 255 255   255 255 255   255 255 255   255 255 255   255 255 255   255 255 255   255 255 255   255 255 255   255 255 255   255 255 255   255 255 255   255 255 255   255 255 255   255 255 255   255 255 255   255 255 255   255 255 255   255 255 255   255 255 255   255 255 255   255 255 255   255 255 255   255 255 255   255 255 255   255 255 255   255 255 255   255 255 255   255 255 255   255 255 255   255 255 255   255 255 255   255 255 255   255 255 255   255 255 255   255 255 255   255 255 255   255 255 255   255 255 255   255 255 255   255 255 255   255 255 255   255 255 255   255 255 255   255 255 255   255 255 255   255 255 255   255 255 255   255 255 255   255 255 255   255 255 255   255 255 255   255 255 255   255 255 255   255 255 255   255 255 255   255 255 255   255 255 255   255 255 255   255 255 255   255 255 255   255 255 255   255 255 255   255 255 255   255 255 255   255 255 255   255 255 255   255 255 255   255 255 255   255 255 255
255 255 255   255 255 255   255 255 255   255 255 255   255 255 255   255 255 255   255 255 255   255 255 255   255 255 255   255 255 255   255 255 255   255 255 255   255 255 255   255 255 255   255 255 255   255 255 255   255 255 255   255 255 255   255 255 255   255 255 255   255 255 255   255 255 255   255 255 255   255 255 255   255 255 255   255 255 255   255 255 255   255 255 255   255 255 255   255 255 255   255 255 255   255 255 255   255 255 255   255 255 255   255 255 255   255 255 255   255 255 255   255 255 255   255 255 255   255 255 255   255 255 255   255 255 255   255 255 255   255 255 255   255 255 255   255 255 255   255 255 255   255 255 255   255 255 255   255 255 255   255 255 255   255 255 255   255 255 255   255 255 255   255 255 255   255 255 255   255 255 255   255 255 255   255 255 255   255 255 255   255 255 255   255 255 255   255 255 255   255 255 255   255 255 255   255 255 255   255 255 255   255 255 255   255 255 255   255 255 255    83  83  83     0   0   0   136 136 136   255 216   0   255 216   0   255 216   0   255 216   0   255 216   0   255 216   0   255 216   0   255 216   0   255 216   0   255 216   0   255 216   0   255 216   0   255 216   0   255 216   0   255 216   0   255 216   0   255 216   0   255 216   0   255 216   0   254 215   0     0   0   0     0   0   0   255 216   0   255 216   0   255 216   0   255 216   0   255 216   0   255 216   0   255 216   0   255 216   0   255 216   0   255 216   0   255 216   0   255 216   0   255 216   0   255 216   0   255 216   0   255 216   0   255 216   0   255 216   0   255 216   0   255 216   0   255 216   0   255 216   0   255 216   0   255 216   0   255 216   0   255 216   0   252 213   0    49  42   0     0   0   0    44  37   0   233 197   0   255 216   0   255 216   0   255 216   0   255 216   0   255 216   0   255 216   0   255 216   0   241 241 241    11  11  11     1   1   1   221 221 221   255 255 255   255 255 255   255 255 255   255 255 255   255 255 255   255 255 255   255 255 255   255 255 255   255 255 255   255 255 255   255 255 255   255 255 255   255 255 255   255 255 255   255 255 255   255 255 255   255 255 255   255 255 255   255 255 255   255 255 255   255 255 255   255 255 255   255 255 255   255 255 255   255 255 255   255 255 255   255 255 255   255 255 255   255 255 255   255 255 255   255 255 255   255 255 255   255 255 255   255 255 255   255 255 255   255 255 255   255 255 255   255 255 255   255 255 255   255 255 255   255 255 255   255 255 255   255 255 255   255 255 255   255 255 255   255 255 255   255 255 255   255 255 255   255 255 255   255 255 255   255 255 255   255 255 255   255 255 255   255 255 255   255 255 255   255 255 255   255 255 255   255 255 255   255 255 255   255 255 255   255 255 255   255 255 255   255 255 255   255 255 255   255 255 255   255 255 255   255 255 255   255 255 255   255 255 255   255 255 255   255 255 255   255 255 255   255 255 255   255 255 255   255 255 255   255 255 255   255 255 255   255 255 255   255 255 255   255 255 255   255 255 255   255 255 255   255 255 255   255 255 255   255 255 255   255 255 255   255 255 255   255 255 255   255 255 255   255 255 255   255 255 255   255 255 255   255 255 255   255 255 255   255 255 255   255 255 255   255 255 255   255 255 255   255 255 255   255 255 255   255 255 255   255 255 255   255 255 255   255 255 255   255 255 255   255 255 255   255 255 255   255 255 255   255 255 255   255 255 255   255 255 255   255 255 255   255 255 255   255 255 255   255 255 255   255 255 255   255 255 255   255 255 255   255 255 255
255 255 255   255 255 255   255 255 255   255 255 255   255 255 255   255 255 255   255 255 255   255 255 255   255 255 255   255 255 255   255 255 255   255 255 255   255 255 255   255 255 255   255 255 255   255 255 255   255 255 255   255 255 255   255 255 255   255 255 255   255 255 255   255 255 255   255 255 255   255 255 255   255 255 255   255 255 255   255 255 255   255 255 255   255 255 255   255 255 255   255 255 255   255 255 255   255 255 255   255 255 255   255 255 255   255 255 255   255 255 255   255 255 255   255 255 255   255 255 255   255 255 255   255 255 255   255 255 255   255 255 255   255 255 255   255 255 255   255 255 255   255 255 255   255 255 255   255 255 255   255 255 255   255 255 255   255 255 255   255 255 255   255 255 255   255 255 255   255 255 255   255 255 255   255 255 255   255 255 255   255 255 255   255 255 255   255 255 255   255 255 255   255 255 255   255 255 255   255 255 255   255 255 255   255 255 255   255 255 255   181 181 181     0   0   0    35  35  35   253 253 253   255 216   0   255 216   0   255 216   0   255 216   0   255 216   0   255 216   0   255 216   0   255 216   0   255 216   0   255 216   0   255 216   0   255 216   0   255 216   0   255 216   0   255 216   0   255 216   0   255 216   0   255 216   0   255 216   0     0   0   0     0   0   0   233 197   0   255 216   0   255 216   0   255 216   0   255 216   0   255 216   0   255 216   0   255 216   0   255 216   0   255 216   0   255 216   0   255 216   0   255 216   0   255 216   0   255 216   0   255 216   0   255 216   0   255 216   0   255 216   0   255 216   0   255 216   0   255 216   0   255 216   0   255 216   0   255 216   0   255 216   0   161 136   0     0   0   0    33  28   0   233 197   0   255 216   0   255 216   0   255 216   0   255 216   0   255 216   0   255 216   0   255 216   0   255 216   0   149 149 149     0   0   0    64  64  64   255 255 255   255 255 255   255 255 255   255 255 255   255 255 255   255 255 255   255 255 255   255 255 255   255 255 255   255 255 255   255 255 255   255 255 255   255 255 255   255 255 255   255 255 255   255 255 255   255 255 255   255 255 255   255 255 255   255 255 255   255 255 255   255 255 255   255 255 255   255 255 255   255 255 255   255 255 255   255 255 255   255 255 255   255 255 255   255 255 255   255 255 255   255 255 255   255 255 255   255 255 255   255 255 255   255 255 255   255 255 255   255 255 255   255 255 255   255 255 255   255 255 255   255 255 255   255 255 255   255 255 255   255 255 255   255 255 255   255 255 255   255 255 255   255 255 255   255 255 255   255 255 255   255 255 255   255 255 255   255 255 255   255 255 255   255 255 255   255 255 255   255 255 255   255 255 255   255 255 255   255 255 255   255 255 255   255 255 255   255 255 255   255 255 255   255 255 255   255 255 255   255 255 255   255 255 255   255 255 255   255 255 255   255 255 255   255 255 255   255 255 255   255 255 255   255 255 255   255 255 255   255 255 255   255 255 255   255 255 255   255 255 255   255 255 255   255 255 255   255 255 255   255 255 255   255 255 255   255 255 255   255 255 255   255 255 255   255 255 255   255 255 255   255 255 255   255 255 255   255 255 255   255 255 255   255 255 255   255 255 255   255 255 255   255 255 255   255 255 255   255 255 255   255 255 255   255 255 255   255 255 255   255 255 255   255 255 255   255 255 255   255 255 255   255 255 255   255 255 255   255 255 255   255 255 255   255 255 255   255 255 255   255 255 255   255 255 255   255 255 255   255 255 255   255 255 255   255 255 255
255 255 255   255 255 255   255 255 255   255 255 255   255 255 255   255 255 255   255 255 255   255 255 255   255 255 255   255 255 255   255 255 255   255 255 255   255 255 255   255 255 255   255 255 255   255 255 255   255 255 255   255 255 255   255 255 255   255 255 255   255 255 255   255 255 255   255 255 255   255 255 255   255 255 255   255 255 255   255 255 255   255 255 255   255 255 255   255 255 255   255 255 255   255 255 255   255 255 255   255 255 255   255 255 255   255 255 255   255 255 255   255 255 255   255 255 255   255 255 255   255 255 255   255 255 255   255 255 255   255 255 255   255 255 255   255 255 255   255 255 255   255 255 255   255 255 255   255 255 255   255 255 255   255 255 255   255 255 255   255 255 255   255 255 255   255 255 255   255 255 255   255 255 255   255 255 255   255 255 255   255 255 255   255 255 255   255 255 255   255 255 255   255 255 255   255 255 255   255 255 255   255 255 255   255 255 255   255 255 255   252 252 252    33  33  33     0   0   0   176 176 176   255 216   0   255 216   0   255 216   0   255 216   0   255 216   0   255 216   0   255 216   0   255 216   0   255 216   0   255 216   0   255 216   0   255 216   0   255 216   0   255 216   0   255 216   0   255 216   0   255 216   0   255 216   0   255 216   0    59  50   0     0   0   0    44  37   0   233 197   0   255 216   0   255 216   0   255 216   0   255 216   0   255 216   0   255 216   0   255 216   0   255 216   0   255 216   0   255 216   0   255 216   0   255 216   0   255 216   0   255 216   0   255 216   0   255 216   0   255 216   0   255 216   0   255 216   0   255 216   0   255 216   0   255 216   0   255 216   0   200 169   0    29  25   0     0   0   0   161 136   0   255 216   0   255 216   0   255 216   0   255 216   0   255 216   0   255 216   0   255 216   0   255 216   0   253 253 253    39  39  39     0   0   0   170 170 170   255 255 255   255 255 255   255 255 255   255 255 255   255 255 255   255 255 255   255 255 255   255 255 255   255 255 255   255 255 255   255 255 255   255 255 255   255 255 255   255 255 255   255 255 255   255 255 255   255 255 255   255 255 255   255 255 255   255 255 255   255 255 255   255 255 255   255 255 255   255 255 255   255 255 255   255 255 255   255 255 255   255 255 255   255 255 255   255 255 255   255 255 255   255 255 255   255 255 255   255 255 255   255 255 255   255 255 255   255 255 255   255 255 255   255 255 255   255 255 255   255 255 255   255 255 255   255 255 255   255 255 255   255 255 255   255 255 255   255 255 255   255 255 255   255 255 255   255 255 255   255 255 255   255 255 255   255 255 255   255 255 255   255 255 255   255 255 255   255 255 255   255 255 255   255 255 255   255 255 255   255 255 255   255 255 255   255 255 255   255 255 255   255 255 255   255 255 255   255 255 255   255 255 255   255 255 255   255 255 255   255 255 255   255 255 255   255 255 255   255 255 255   255 255 255   255 255 255   255 255 255   255 255 255   255 255 255   255 255 255   255 255 255   255 255 255   255 255 255   255 255 255   255 255 255   255 255 255   255 255 255   255 255 255   255 255 255   255 255 255   255 255 255   255 255 255   255 255 255   255 255 255   255 255 255   255 255 255   255 255 255   255 255 255   255 255 255   255 255 255   255 255 255   255 255 255   255 255 255   255 255 255   255 255 255   255 255 255   255 255 255   255 255 255   255 255 255   255 255 255   255 255 255   255 255 255   255 255 255   255 255 255   255 255 255   255 255 255   255 255 255   255 255 255   255 255 255   255 255 255
255 255 255   255 255 255   255 255 255   255 255 255   255 255 255   255 255 255   255 255 255   255 255 255   255 255 255   255 255 255   255 255 255   255 255 255   255 255 255   255 255 255   255 255 255   255 255 255   255 255 255   255 255 255   255 255 255   255 255 255   255 255 255   255 255 255   255 255 255   255 255 255   255 255 255   255 255 255   255 255 255   255 255 255   255 255 255   255 255 255   255 255 255   255 255 255   255 255 255   255 255 255   255 255 255   255 255 255   255 255 255   255 255 255   255 255 255   255 255 255   255 255 255   255 255 255   255 255 255   255 255 255   255 255 255   255 255 255   255 255 255   255 255 255   255 255 255   255 255 255   255 255 255   255 255 255   255 255 255   255 255 255   255 255 255   255 255 255   255 255 255   255 255 255   255 255 255   255 255 255   255 255 255   255 255 255   255 255 255   255 255 255   255 255 255   255 255 255   255 255 255   255 255 255   255 255 255   255 255 255   255 255 255   145 145 145     0   0   0    54  54  54   255 216   0   255 216   0   255 216   0   255 216   0   255 216   0   255 216   0   255 216   0   255 216   0   255 216   0   255 216   0   255 216   0   255 216   0   255 216   0   255 216   0   255 216   0   255 216   0   255 216   0   255 216   0   255 216   0   233 197   0    44  37   0     0   0   0    49  42   0   252 213   0   255 216   0   255 216   0   255 216   0   255 216   0   255 216   0   255 216   0   255 216   0   255 216   0   255 216   0   255 216   0   255 216   0   255 216   0   255 216   0   255 216   0   255 216   0   255 216   0   255 216   0   255 216   0   255 216   0   255 216   0   247 209   0   119 101   0     3   3   0     0   0   0    54  46   0   252 213   0   255 216   0   255 216   0   255 216   0   255 216   0   255 216   0   255 216   0   255 216   0   255 216   0   171 171 171     0   0   0    33  33  33   251 251 251   255 255 255   255 255 255   255 255 255   255 255 255   255 255 255   255 255 255   255 255 255   255 255 255   255 255 255   255 255 255   255 255 255   255 255 255   255 255 255   255 255 255   255 255 255   255 255 255   255 255 255   255 255 255   255 255 255   255 255 255   255 255 255   255 255 255   255 255 255   255 255 255   255 255 255   255 255 255   255 255 255   255 255 255   255 255 255   255 255 255   255 255 255   255 255 255   255 255 255   255 255 255   255 255 255   255 255 255   255 255 255   255 255 255   255 255 255   255 255 255   255 255 255   255 255 255   255 255 255   255 255 255   255 255 255   255 255 255   255 255 255   255 255 255   255 255 255   255 255 255   255 255 255   255 255 255   255 255 255   255 255 255   255 255 255   255 255 255   255 255 255   255 255 255   255 255 255   255 255 255   255 255 255   255 255 255   255 255 255   255 255 255   255 255 255   255 255 255   255 255 255   255 255 255   255 255 255   255 255 255   255 255 255   255 255 255   255 255 255   255 255 255   255 255 255   255 255 255   255 255 255   255 255 255   255 255 255   255 255 255   255 255 255   255 255 255   255 255 255   255 255 255   255 255 255   255 255 255   255 255 255   255 255 255   255 255 255   255 255 255   255 255 255   255 255 255   255 255 255   255 255 255   255 255 255   255 255 255   255 255 255   255 255 255   255 255 255   255 255 255   255 255 255   255 255 255   255 255 255   255 255 255   255 255 255   255 255 255   255 255 255   255 255 255   255 255 255   255 255 255   255 255 255   255 255 255   255 255 255   255 255 255   255 255 255   255 255 255   255 255 255   255 255 255   255 255 255   255 255 255
255 255 255   255 255 255   255 255 255   255 255 255   255 255 255   255 255 255   255 255 255   255 255 255   255 255 255   255 255 255   255 255 255   255 255 255   255 255 255   255 255 255   255 255 255   255 255 255   255 255 255   255 255 255   255 255 255   255 255 255   255 255 255   255 255 255   255 255 255   255 255 255   255 255 255   255 255 255   255 255 255   255 255 255   255 255 255   255 255 255   255 255 255   255 255 255   255 255 255   255 255 255   255 255 255   255 255 255   255 255 255   255 255 255   255 255 255   255 255 255   255 255 255   255 255 255   255 255 255   255 255 255   255 255 255   255 255 255   255 255 255   255 255 255   255 255 255   255 255 255   255 255 255   255 255 255   255 255 255   255 255 255   255 255 255   255 255 255   255 255 255   255 255 255   255 255 255   255 255 255   255 255 255   255 255 255   255 255 255   255 255 255   255 255 255   255 255 255   255 255 255   255 255 255   255 255 255   255 255 255   255 255 255   245 245 245    24  24  24     0   0   0   177 177 177   255 216   0   255 216   0   255 216   0   255 216   0   255 216   0   255 216   0   255 216   0   255 216   0   255 216   0   255 216   0   255 216   0   255 216   0   255 216   0   255 216   0   255 216   0   255 216   0   255 216   0   255 216   0   255 216   0   233 197   0    33  28   0     0   0   0   161 136   0   255 216   0   255 216   0   255 216   0   255 216   0   255 216   0   255 216   0   255 216   0   255 216   0   255 216   0   255 216   0   255 216   0   255 216   0   255 216   0   255 216   0   255 216   0   255 216   0   255 216   0   255 216   0   255 216   0   233 197   0    47  40   0     0   0   0     3   3   0   118 100   0   247 209   0   255 216   0   255 216   0   255 216   0   255 216   0   255 216   0   255 216   0   255 216   0   255 216   0   252 252 252    42  42  42     0   0   0   152 152 152   255 255 255   255 255 255   255 255 255   255 255 255   255 255 255   255 255 255   255 255 255   255 255 255   255 255 255   255 255 255   255 255 255   255 255 255   255 255 255   255 255 255   255 255 255   255 255 255   255 255 255   255 255 255   255 255 255   255 255 255   255 255 255   255 255 255   255 255 255   255 255 255   255 255 255   255 255 255   255 255 255   255 255 255   255 255 255   255 255 255   255 255 255   255 255 255   255 255 255   255 255 255   255 255 255   255 255 255   255 255 255   255 255 255   255 255 255   255 255 255   255 255 255   255 255 255   255 255 255   255 255 255   255 255 255   255 255 255   255 255 255   255 255 255   255 255 255   255 255 255   255 255 255   255 255 255   255 255 255   255 255 255   255 255 255   255 255 255   255 255 255   255 255 255   255 255 255   255 255 255   255 255 255   255 255 255   255 255 255   255 255 255   255 255 255   255 255 255   255 255 255   255 255 255   255 255 255   255 255 255   255 255 255   255 255 255   255 255 255   255 255 255   255 255 255   255 255 255   255 255 255   255 255 255   255 255 255   255 255 255   255 255 255   255 255 255   255 255 255   255 255 255   255 255 255   255 255 255   255 255 255   255 255 255   255 255 255   255 255 255   255 255 255   255 255 255   255 255 255   255 255 255   255 255 255   255 255 255   255 255 255   255 255 255   255 255 255   255 255 255   255 255 255   255 255 255   255 255 255   255 255 255   255 255 255   255 255 255   255 255 255   255 255 255   255 255 255   255 255 255   255 255 255   255 255 255   255 255 255   255 255 255   255 255 255   255 255 255   255 255 255   255 255 255   255 255 255   255 255 255   255 255 255
255 255 255   255 255 255   255 255 255   255 255 255   255 255 255   255 255 255   255 255 255   255 255 255   255 255 255   255 255 255   255 255 255   255 255 255   255 255 255   255 255 255   255 255 255   255 255 255   255 255 255   255 255 255   255 255 255   255 255 255   255 255 255   255 255 255   255 255 255   255 255 255   255 255 255   255 255 255   255 255 255   255 255 255   255 255 255   255 255 255   255 255 255   255 255 255   255 255 255   255 255 255   255 255 255   255 255 255   255 255 255   255 255 255   255 255 255   255 255 255   255 255 255   255 255 255   255 255 255   255 255 255   255 255 255   255 255 255   255 255 255   255 255 255   255 255 255   255 255 255   255 255 255   255 255 255   255 255 255   255 255 255   255 255 255   255 255 255   255 255 255   255 255 255   255 255 255   255 255 255   255 255 255   255 255 255   255 255 255   255 255 255   255 255 255   255 255 255   255 255 255   255 255 255   255 255 255   255 255 255   255 255 255   255 255 255   146 146 146     0   0   0    41  41  41   250 250 250   255 216   0   255 216   0   255 216   0   255 216   0   255 216   0   255 216   0   255 216   0   255 216   0   255 216   0   255 216   0   255 216   0   255 216   0   255 216   0   255 216   0   255 216   0   255 216   0   255 216   0   255 216   0   255 216   0   161 136   0     0   0   0    33  28   0   233 197   0   255 216   0   255 216   0   255 216   0   255 216   0   255 216   0   255 216   0   255 216   0   255 216   0   255 216   0   255 216   0   255 216   0   255 216   0   255 216   0   255 216   0   255 216   0   255 216   0   255 216   0   233 197   0    44  37   0     0   0   0    38  32   0   200 169   0   255 216   0   255 216   0   255 216   0   255 216   0   255 216   0   255 216   0   255 216   0   255 216   0   255 216   0   255 216   0   152 152 152     0   0   0    35  35  35   249 249 249   255 255 255   255 255 255   255 255 255   255 255 255   255 255 255   255 255 255   255 255 255   255 255 255   255 255 255   255 255 255   255 255 255   255 255 255   255 255 255   255 255 255   255 255 255   255 255 255   255 255 255   255 255 255   255 255 255   255 255 255   255 255 255   255 255 255   255 255 255   255 255 255   255 255 255   255 255 255   255 255 255   255 255 255   255 255 255   255 255 255   255 255 255   255 255 255   255 255 255   255 255 255   255 255 255   255 255 255   255 255 255   255 255 255   255 255 255   255 255 255   255 255 255   255 255 255   255 255 255   255 255 255   255 255 255   255 255 255   255 255 255   255 255 255   255 255 255   255 255 255   255 255 255   255 255 255   255 255 255   255 255 255   255 255 255   255 255 255   255 255 255   255 255 255   255 255 255   255 255 255   255 255 255   255 255 255   255 255 255   255 255 255   255 255 255   255 255 255   255 255 255   255 255 255   255 255 255   255 255 255   255 255 255   255 255 255   255 255 255   255 255 255   255 255 255   255 255 255   255 255 255   255 255 255   255 255 255   255 255 255   255 255 255   255 255 255   255 255 255   255 255 255   255 255 255   255 255 255   255 255 255   255 255 255   255 255 255   255 255 255   255 255 255   255 255 255   255 255 255   255 255 255   255 255 255   255 255 255   255 255 255   255 255 255   255 255 255   255 255 255   255 255 255   255 255 255   255 255 255   255 255 255   255 255 255   255 255 255   255 255 255   255 255 255   255 255 255   255 255 255   255 255 255   255 255 255   255 255 255   255 255 255   255 255 255   255 255 255   255 255 255   255 255 255   255 255 255   255 255 255   255 255 255
255 255 255   255 255 255   255 255 255   255 255 255   255 255 255   255 255 255   255 255 255   255 255 255   255 255 255   255 255 255   255 255 255   255 255 255   255 255 255   255 255 255   255 255 255   255 255 255   255 255 255   255 255 255   255 255 255   255 255 255   255 255 255   255 255 255   255 255 255   255 255 255   255 255 255   255 255 255   255 255 255   255 255 255   255 255 255   255 255 255   255 255 255   255 255 255   255 255 255   255 255 255   255 255 255   255 255 255   255 255 255   255 255 255   255 255 255   255 255 255   255 255 255   255 255 255   255 255 255   255 255 255   255 255 255   255 255 255   255 255 255   255 255 255   255 255 255   255 255 255   255 255 255   255 255 255   255 255 255   255 255 255   255 255 255   255 255 255   255 255 255   255 255 255   255 255 255   255 255 255   255 255 255   255 255 255   255 255 255   255 255 255   255 255 255   255 255 255   255 255 255   255 255 255   255 255 255   255 255 255   255 255 255   255 255 255   249 249 249    39  39  39     0   0   0   138 138 138   255 216   0   255 216   0   255 216   0   255 216   0   255 216   0   255 216   0   255 216   0   255 216   0   255 216   0   255 216   0   255 216   0   255 216   0   255 216   0   255 216   0   255 216   0   255 216   0   255 216   0   255 216   0   255 216   0   252 213   0    49  42   0     0   0   0    44  37   0   233 197   0   255 216   0   255 216   0   255 216   0   255 216   0   255 216   0   255 216   0   255 216   0   255 216   0   255 216   0   255 216   0   255 216   0   255 216   0   252 213   0   161 136   0    40  34   0     0   0   0     0   0   0     0   0   0    44  37   0   233 197   0   255 216   0   255 216   0   255 216   0   255 216   0   255 216   0   255 216   0   255 216   0   255 216   0   255 216   0   255 216   0   235 235 235    19  19  19     0   0   0   172 172 172   255 255 255   255 255 255   255 255 255   255 255 255   255 255 255   255 255 255   255 255 255   255 255 255   255 255 255   255 255 255   255 255 255   255 255 255   255 255 255   255 255 255   255 255 255   255 255 255   255 255 255   255 255 255   255 255 255   255 255 255   255 255 255   255 255 255   255 255 255   255 255 255   255 255 255   255 255 255   255 255 255   255 255 255   255 255 255   255 255 255   255 255 255   255 255 255   255 255 255   255 255 255   255 255 255   255 255 255   255 255 255   255 255 255   255 255 255   255 255 255   255 255 255   255 255 255   255 255 255   255 255 255   255 255 255   255 255 255   255 255 255   255 255 255   255 255 255   255 255 255   255 255 255   255 255 255   255 255 255   255 255 255   255 255 255   255 255 255   255 255 255   255 255 255   255 255 255   255 255 255   255 255 255   255 255 255   255 255 255   255 255 255   255 255 255   255 255 255   255 255 255   255 255 255   255 255 255   255 255 255   255 255 255   255 255 255   255 255 255   255 255 255   255 255 255   255 255 255   255 255 255   255 255 255   255 255 255   255 255 255   255 255 255   255 255 255   255 255 255   255 255 255   255 255 255   255 255 255   255 255 255   255 255 255   255 255 255   255 255 255   255 255 255   255 255 255   255 255 255   255 255 255   255 255 255   255 255 255   255 255 255   255 255 255   255 255 255   255 255 255   255 255 255   255 255 255   255 255 255   255 255 255   255 255 255   255 255 255   255 255 255   255 255 255   255 255 255   255 255 255   255 255 255   255 255 255   255 255 255   255 255 255   255 255 255   255 255 255   255 255 255   255 255 255   255 255 255   255 255 255   255 255 255   255 255 255
255 255 255   255 255 255   255 255 255   255 255 255   255 255 255   255 255 255   255 255 255   255 255 255   255 255 255   255 255 255   255 255 255   255 255 255   255 255 255   255 255 255   255 255 255   255 255 255   255 255 255   255 255 255   255 255 255   255 255 255   255 255 255   255 255 255   255 255 255   255 255 255   255 255 255   255 255 255   255 255 255   255 255 255   255 255 255   255 255 255   255 255 255   255 255 255   255 255 255   255 255 255   255 255 255   255 255 255   255 255 255   255 255 255   255 255 255   255 255 255   255 255 255   255 255 255   255 255 255   255 255 255   255 255 255   255 255 255   255 255 255   255 255 255   255 255 255   255 255 255   255 255 255   255 255 255   255 255 255   255 255 255   255 255 255   255 255 255   255 255 255   255 255 255   255 255 255   255 255 255   255 255 255   255 255 255   255 255 255   255 255 255   255 255 255   255 255 255   255 255 255   255 255 255   255 255 255   255 255 255   255 255 255   255 255 255   255 255 255   186 186 186     0   0   0    10  10  10   218 218 218   255 216   0   255 216   0   255 216   0   255 216   0   255 216   0   255 216   0   255 216   0   255 216   0   255 216   0   255 216   0   255 216   0   255 216   0   255 216   0   255 216   0   255 216   0   255 216   0   255 216   0   255 216   0   255 216   0   233 197   0    44  37   0     0   0   0     0   0   0    40  34   0   161 136   0   252 213   0   255 216   0   255 216   0   255 216   0   255 216   0   255 216   0   255 216   0   255 216   0   252 213   0   161 136   0    37  31   0     0   0   0     0   0   0     0   0   0     0   0   0    59  50   0   233 197   0   255 216   0   255 216   0   255 216   0   255 216   0   255 216   0   255 216   0   255 216   0   255 216   0   255 216   0   255 216   0   255 216   0    89  89  89     0   0   0    70  70  70   255 255 255   255 255 255   255 255 255   255 255 255   255 255 255   255 255 255   255 255 255   255 255 255   255 255 255   255 255 255   255 255 255   255 255 255   255 255 255   255 255 255   255 255 255   255 255 255   255 255 255   255 255 255   255 255 255   255 255 255   255 255 255   255 255 255   255 255 255   255 255 255   255 255 255   255 255 255   255 255 255   255 255 255   255 255 255   255 255 255   255 255 255   255 255 255   255 255 255   255 255 255   255 255 255   255 255 255   255 255 255   255 255 255   255 255 255   255 255 255   255 255 255   255 255 255   255 255 255   255 255 255   255 255 255   255 255 255   255 255 255   255 255 255   255 255 255   255 255 255   255 255 255   255 255 255   255 255 255   255 255 255   255 255 255   255 255 255   255 255 255   255 255 255   255 255 255   255 255 255   255 255 255   255 255 255   255 255 255   255 255 255   255 255 255   255 255 255   255 255 255   255 255 255   255 255 255   255 255 255   255 255 255   255 255 255   255 255 255   255 255 255   255 255 255   255 255 255   255 255 255   255 255 255   255 255 255   255 255 255   255 255 255   255 255 255   255 255 255   255 255 255   255 255 255   255 255 255   255 255 255   255 255 255   255 255 255   255 255 255   255 255 255   255 255 255   255 255 255   255 255 255   255 255 255   255 255 255   255 255 255   255 255 255   255 255 255   255 255 255   255 255 255   255 255 255   255 255 255   255 255 255   255 255 255   255 255 255   255 255 255   255 255 255   255 255 255   255 255 255   255 255 255   255 255 255   255 255 255   255 255 255   255 255 255   255 255 255   255 255 255   255 255 255   255 255 255   255 255 255   255 255 255   255 255 255   255 255 255
255 255 255   255 255 255   255 255 255   255 255 255   255 255 255   255 255 255   255 255 255   255 255 255   255 255 255   255 255 255   255 255 255   255 255 255   255 255 255   255 255 255   255 255 255   255 255 255   255 255 255   255 255 255   255 255 255   255 255 255   255 255 255   255 255 255   255 255 255   255 255 255   255 255 255   255 255 255   255 255 255   255 255 255   255 255 255   255 255 255   255 255 255   255 255 255   255 255 255   255 255 255   255 255 255   255 255 255   255 255 255   255 255 255   255 255 255   255 255 255   255 255 255   255 255 255   255 255 255   255 255 255   255 255 255   255 255 255   255 255 255   255 255 255   255 255 255   255 255 255   255 255 255   255 255 255   255 255 255   255 255 255   255 255 255   255 255 255   255 255 255   255 255 255   255 255 255   255 255 255   255 255 255   255 255 255   255 255 255   255 255 255   255 255 255   255 255 255   255 255 255   255 255 255   255 255 255   255 255 255   255 255 255   255 255 255   255 255 255   255 255 255    93  93  93     0   0   0    55  55  55   250 250 250   255 216   0   255 216   0   255 216   0   255 216   0   255 216   0   255 216   0   255 216   0   255 216   0   255 216   0   255 216   0   255 216   0   255 216   0   255 216   0   255 216   0   255 216   0   255 216   0   255 216   0   255 216   0   255 216   0   233 197   0    59  50   0     0   0   0     0   0   0     0   0   0     0   0   0     0   0   0    40  34   0   161 136   0   252 213   0   255 216   0   252 213   0   161 136   0    37  31   0     0   0   0     0   0   0    37  31   0   161 136   0   252 213   0   255 216   0   255 216   0   255 216   0   255 216   0   255 216   0   255 216   0   255 216   0   255 216   0   255 216   0   255 216   0   255 216   0   255 216   0   255 216   0   167 167 167     0   0   0    11  11  11   221 221 221   255 255 255   255 255 255   255 255 255   255 255 255   255 255 255   255 255 255   255 255 255   255 255 255   255 255 255   255 255 255   255 255 255   255 255 255   255 255 255   255 255 255   255 255 255   255 255 255   255 255 255   255 255 255   255 255 255   255 255 255   255 255 255   255 255 255   255 255 255   255 255 255   255 255 255   255 255 255   255 255 255   255 255 255   255 255 255   255 255 255   255 255 255   255 255 255   255 255 255   255 255 255   255 255 255   255 255 255   255 255 255   255 255 255   255 255 255   255 255 255   255 255 255   255 255 255   255 255 255   255 255 255   255 255 255   255 255 255   255 255 255   255 255 255   255 255 255   255 255 255   255 255 255   255 255 255   255 255 255   255 255 255   255 255 255   255 255 255   255 255 255   255 255 255   255 255 255   255 255 255   255 255 255   255 255 255   255 255 255   255 255 255   255 255 255   255 255 255   255 255 255   255 255 255   255 255 255   255 255 255   255 255 255   255 255 255   255 255 255   255 255 255   255 255 255   255 255 255   255 255 255   255 255 255   255 255 255   255 255 255   255 255 255   255 255 255   255 255 255   255 255 255   255 255 255   255 255 255   255 255 255   255 255 255   255 255 255   255 255 255   255 255 255   255 255 255   255 255 255   255 255 255   255 255 255   255 255 255   255 255 255   255 255 255   255 255 255   255 255 255   255 255 255   255 255 255   255 255 255   255 255 255   255 255 255   255 255 255   255 255 255   255 255 255   255 255 255   255 255 255   255 255 255   255 255 255   255 255 255   255 255 255   255 255 255   255 255 255   255 255 255   255 255 255   255 255 255   255 255 255   255 255 255   255 255 255   255 255 255
255 255 255   255 255 255   255 255 255   255 255 255   255 255 255   255 255 255   255 255 255   255 255 255   255 255 255   255 255 255   255 255 255   255 255 255   255 255 255   255 255 255   255 255 255   255 255 255   255 255 255   255 255 255   255 255 255   255 255 255   255 255 255   255 255 255   255 255 255   255 255 255   255 255 255   255 255 255   255 255 255   255 255 255   255 255 255   255 255 255   255 255 255   255 255 255   255 255 255   255 255 255   255 255 255   255 255 255   255 255 255   255 255 255   255 255 255   255 255 255   255 255 255   255 255 255   255 255 255   255 255 255   255 255 255   255 255 255   255 255 255   255 255 255   255 255 255   255 255 255   255 255 255   255 255 255   255 255 255   255 255 255   255 255 255   255 255 255   255 255 255   255 255 255   255 255 255   255 255 255   255 255 255   255 255 255   255 255 255   255 255 255   255 255 255   255 255 255   255 255 255   255 255 255   255 255 255   255 255 255   255 255 255   255 255 255   255 255 255   255 255 255   239 239 239    31  31  31     0   0   0   115 115 115   255 216   0   255 216   0   255 216   0   255 216   0   255 216   0   255 216   0   255 216   0   255 216   0   255 216   0   255 216   0   255 216   0   255 216   0   255 216   0   255 216   0   255 216   0   255 216   0   255 216   0   255 216   0   255 216   0   255 216   0   255 216   0   252 213   0   161 136   0    40  34   0     0   0   0     0   0   0     0   0   0     0   0   0     0   0   0     0   0   0     0   0   0     0   0   0     0   0   0    37  31   0   161 136   0   252 213   0   255 216   0   255 216   0   255 216   0   255 216   0   255 216   0   255 216   0   255 216   0   255 216   0   255 216   0   255 216   0   255 216   0   255 216   0   255 216   0   255 216   0   218 218 218    14  14  14     0   0   0   153 153 153   255 255 255   255 255 255   255 255 255   255 255 255   255 255 255   255 255 255   255 255 255   255 255 255   255 255 255   255 255 255   255 255 255   255 255 255   255 255 255   255 255 255   255 255 255   255 255 255   255 255 255   255 255 255   255 255 255   255 255 255   255 255 255   255 255 255   255 255 255   255 255 255   255 255 255   255 255 255   255 255 255   255 255 255   255 255 255   255 255 255   255 255 255   255 255 255   255 255 255   255 255 255   255 255 255   255 255 255   255 255 255   255 255 255   255 255 255   255 255 255   255 255 255   255 255 255   255 255 255   255 255 255   255 255 255   255 255 255   255 255 255   255 255 255   255 255 255   255 255 255   255 255 255   255 255 255   255 255 255   255 255 255   255 255 255   255 255 255   255 255 255   255 255 255   255 255 255   255 255 255   255 255 255   255 255 255   255 255 255   255 255 255   255 255 255   255 255 255   255 255 255   255 255 255   255 255 255   255 255 255   255 255 255   255 255 255   255 255 255   255 255 255   255 255 255   255 255 255   255 255 255   255 255 255   255 255 255   255 255 255   255 255 255   255 255 255   255 255 255   255 255 255   255 255 255   255 255 255   255 255 255   255 255 255   255 255 255   255 255 255   255 255 255   255 255 255   255 255 255   255 255 255   255 255 255   255 255 255   255 255 255   255 255 255   255 255 255   255 255 255   255 255 255   255 255 255   255 255 255   255 255 255   255 255 255   255 255 255   255 255 255   255 255 255   255 255 255   255 255 255   255 255 255   255 255 255   255 255 255   255 255 255   255 255 255   255 255 255   255 255 255   255 255 255   255 255 255   255 255 255   255 255 255   255 255 255   255 255 255   255 255 255
255 255 255   255 255 255   255 255 255   255 255 255   255 255 255   255 255 255   255 255 255   255 255 255   255 255 255   255 255 255   255 255 255   255 255 255   255 255 255   255 255 255   255 255 255   255 255 255   255 255 255   255 255 255   255 255 255   255 255 255   255 255 255   255 255 255   255 255 255   255 255 255   255 255 255   255 255 255   255 255 255   255 255 255   255 255 255   255 255 255   255 255 255   255 255 255   255 255 255   255 255 255   255 255 255   255 255 255   255 255 255   255 255 255   255 255 255   255 255 255   255 255 255   255 255 255   255 255 255   255 255 255   255 255 255   255 255 255   255 255 255   255 255 255   255 255 255   255 255 255   255 255 255   255 255 255   255 255 255   255 255 255   255 255 255   255 255 255   255 255 255   255 255 255   255 255 255   255 255 255   255 255 255   255 255 255   255 255 255   255 255 255   255 255 255   255 255 255   255 255 255   255 255 255   255 255 255   255 255 255   255 255 255   255 255 255   255 255 255   255 255 255   255 255 255   197 197 197     5   5   5     1   1   1   165 165 165   255 216   0   255 216   0   255 216   0   255 216   0   255 216   0   255 216   0   255 216   0   255 216   0   255 216   0   255 216   0   255 216   0   255 216   0   255 216   0   255 216   0   255 216   0   255 216   0   255 216   0   255 216   0   255 216   0   255 216   0   255 216   0   255 216   0   255 216   0   255 216   0   252 213   0   161 136   0    40  34   0     0   0   0     0   0   0     0   0   0    40  34   0   161 136   0   252 213   0   255 216   0   255 216   0   255 216   0   255 216   0   255 216   0   255 216   0   255 216   0   255 216   0   255 216   0   255 216   0   255 216   0   255 216   0   255 216   0   255 216   0   255 216   0   240 240 240    42  42  42     0   0   0    87  87  87   255 255 255   255 255 255   255 255 255   255 255 255   255 255 255   255 255 255   255 255 255   255 255 255   255 255 255   255 255 255   255 255 255   255 255 255   255 255 255   255 255 255   255 255 255   255 255 255   255 255 255   255 255 255   255 255 255   255 255 255   255 255 255   255 255 255   255 255 255   255 255 255   255 255 255   255 255 255   255 255 255   255 255 255   255 255 255   255 255 255   255 255 255   255 255 255   255 255 255   255 255 255   255 255 255   255 255 255   255 255 255   255 255 255   255 255 255   255 255 255   255 255 255   255 255 255   255 255 255   255 255 255   255 255 255   255 255 255   255 255 255   255 255 255   255 255 255   255 255 255   255 255 255   255 255 255   255 255 255   255 255 255   255 255 255   255 255 255   255 255 255   255 255 255   255 255 255   255 255 255   255 255 255   255 255 255   255 255 255   255 255 255   255 255 255   255 255 255   255 255 255   255 255 255   255 255 255   255 255 255   255 255 255   255 255 255   255 255 255   255 255 255   255 255 255   255 255 255   255 255 255   255 255 255   255 255 255   255 255 255   255 255 255   255 255 255   255 255 255   255 255 255   255 255 255   255 255 255   255 255 255   255 255 255   255 255 255   255 255 255   255 255 255   255 255 255   255 255 255   255 255 255   255 255 255   255 255 255   255 255 255   255 255 255   255 255 255   255 255 255   255 255 255   255 255 255   255 255 255   255 255 255   255 255 255   255 255 255   255 255 255   255 255 255   255 255 255   255 255 255   255 255 255   255 255 255   255 255 255   255 255 255   255 255 255   255 255 255   255 255 255   255 255 255   255 255 255   255 255 255   255 255 255   255 255 255   255 255 255   255 255 255   255 255 255
255 255 255   255 255 255   255 255 255   255 255 255   255 255 255   255 255 255   255 255 255   255 255 255   255 255 255   255 255 255   255 255 255   255 255 255   255 255 255   255 255 255   255 255 255   255 255 255   255 255 255   255 255 255   255 255 255   255 255 255   255 255 255   255 255 255   255 255 255   255 255 255   255 255 255   255 255 255   255 255 255   255 255 255   255 255 255   255 255 255   255 255 255   255 255 255   255 255 255   255 255 255   255 255 255   255 255 255   255 255 255   255 255 255   255 255 255   255 255 255   255 255 255   255 255 255   255 255 255   255 255 255   255 255 255   255 255 255   255 255 255   255 255 255   255 255 255   255 255 255   255 255 255   255 255 255   255 255 255   255 255 255   255 255 255   255 255 255   255 255 255   255 255 255   255 255 255   255 255 255   255 255 255   255 255 255   255 255 255   255 255 255   255 255 255   255 255 255   255 255 255   255 255 255   255 255 255   255 255 255   255 255 255   255 255 255   255 255 255   255 255 255   255 255 255   255 255 255   148 148 148     0   0   0     8   8   8   191 191 191   255 216   0   255 216   0   255 216   0   255 216   0   255 216   0   255 216   0   255 216   0   255 216   0   255 216   0   255 216   0   255 216   0   255 216   0   255 216   0   255 216   0   255 216   0   255 216   0   255 216   0   255 216   0   255 216   0   255 216   0   255 216   0   255 216   0   255 216   0   255 216   0   255 216   0   255 216   0   255 216   0   255 216   0   255 216   0   255 216   0   255 216   0   255 216   0   255 216   0   255 216   0   255 216   0   255 216   0   255 216   0   255 216   0   255 216   0   255 216   0   255 216   0   255 216   0   255 216   0   255 216   0   255 216   0   255 216   0   248 248 248    67  67  67     0   0   0    45  45  45   243 243 243   255 255 255   255 255 255   255 255 255   255 255 255   255 255 255   255 255 255   255 255 255   255 255 255   255 255 255   255 255 255   255 255 255   255 255 255   255 255 255   255 255 255   255 255 255   255 255 255   255 255 255   255 255 255   255 255 255   255 255 255   255 255 255   255 255 255   255 255 255   255 255 255   255 255 255   255 255 255   255 255 255   255 255 255   255 255 255   255 255 255   255 255 255   255 255 255   255 255 255   255 255 255   255 255 255   255 255 255   255 255 255   255 255 255   255 255 255   255 255 255   255 255 255   255 255 255   255 255 255   255 255 255   255 255 255   255 255 255   255 255 255   255 255 255   255 255 255   255 255 255   255 255 255   255 255 255   255 255 255   255 255 255   255 255 255   255 255 255   255 255 255   255 255 255   255 255 255   255 255 255   255 255 255   255 255 255   255 255 255   255 255 255   255 255 255   255 255 255   255 255 255   255 255 255   255 255 255   255 255 255   255 255 255   255 255 255   255 255 255   255 255 255   255 255 255   255 255 255   255 255 255   255 255 255   255 255 255   255 255 255   255 255 255   255 255 255   255 255 255   255 255 255   255 255 255   255 255 255   255 255 255   255 255 255   255 255 255   255 255 255   255 255 255   255 255 255   255 255 255   255 255 255   255 255 255   255 255 255   255 255 255   255 255 255   255 255 255   255 255 255   255 255 255   255 255 255   255 255 255   255 255 255   255 255 255   255 255 255   255 255 255   255 255 255   255 255 255   255 255 255   255 255 255   255 255 255   255 255 255   255 255 255   255 255 255   255 255 255   255 255 255   255 255 255   255 255 255   255 255 255   255 255 255   255 255 255   255 255 255   255 255 255   255 255 255
255 255 255   255 255 255   255 255 255   255 255 255   255 255 255   255 255 255   255 255 255   255 255 255   255 255 255   255 255 255   255 255 255   255 255 255   255 255 255   255 255 255   255 255 255   255 255 255   255 255 255   255 255 255   255 255 255   255 255 255   255 255 255   255 255 255   255 255 255   255 255 255   255 255 255   255 255 255   255 255 255   255 255 255   255 255 255   255 255 255   255 255 255   255 255 255   255 255 255   255 255 255   255 255 255   255 255 255   255 255 255   255 255 255   255 255 255   255 255 255   255 255 255   255 255 255   255 255 255   255 255 255   255 255 255   255 255 255   255 255 255   255 255 255   255 255 255   255 255 255   255 255 255   255 255 255   255 255 255   255 255 255   255 255 255   255 255 255   255 255 255   255 255 255   255 255 255   255 255 255   255 255 255   255 255 255   255 255 255   255 255 255   255 255 255   255 255 255   255 255 255   255 255 255   255 255 255   255 255 255   255 255 255   255 255 255   255 255 255   255 255 255   255 255 255   255 255 255   255 255 255   110 110 110     0   0   0    14  14  14   201 201 201   255 216   0   255 216   0   255 216   0   255 216   0   255 216   0   255 216   0   255 216   0   255 216   0   255 216   0   255 216   0   255 216   0   255 216   0   255 216   0   255 216   0   255 216   0   255 216   0   255 216   0   255 216   0   255 216   0   255 216   0   255 216   0   255 216   0   255 216   0   255 216   0   255 216   0   255 216   0   255 216   0   255 216   0   255 216   0   255 216   0   255 216   0   255 216   0   255 216   0   255 216   0   255 216   0   255 216   0   255 216   0   255 216   0   255 216   0   255 216   0   255 216   0   255 216   0   255 216   0   255 216   0   250 250 250    81  81  81     0   0   0    25  25  25   224 224 224   255 255 255   255 255 255   255 255 255   255 255 255   255 255 255   255 255 255   255 255 255   255 255 255   255 255 255   255 255 255   255 255 255   255 255 255   255 255 255   255 255 255   255 255 255   255 255 255   255 255 255   255 255 255   255 255 255   255 255 255   255 255 255   255 255 255   255 255 255   255 255 255   255 255 255   255 255 255   255 255 255   255 255 255   255 255 255   255 255 255   255 255 255   255 255 255   255 255 255   255 255 255   255 255 255   255 255 255   255 255 255   255 255 255   255 255 255   255 255 255   255 255 255   255 255 255   255 255 255   255 255 255   255 255 255   255 255 255   255 255 255   255 255 255   255 255 255   255 255 255   255 255 255   255 255 255   255 255 255   255 255 255   255 255 255   255 255 255   255 255 255   255 255 255   255 255 255   255 255 255   255 255 255   255 255 255   255 255 255   255 255 255   255 255 255   255 255 255   255 255 255   255 255 255   255 255 255   255 255 255   255 255 255   255 255 255   255 255 255   255 255 255   255 255 255   255 255 255   255 255 255   255 255 255   255 255 255   255 255 255   255 255 255   255 255 255   255 255 255   255 255 255   255 255 255   255 255 255   255 255 255   255 255 255   255 255 255   255 255 255   255 255 255   255 255 255   255 255 255   255 255 255   255 255 255   255 255 255   255 255 255   255 255 255   255 255 255   255 255 255   255 255 255   255 255 255   255 255 255   255 255 255   255 255 255   255 255 255   255 255 255   255 255 255   255 255 255   255 255 255   255 255 255   255 255 255   255 255 255   255 255 255   255 255 255   255 255 255   255 255 255   255 255 255   255 255 255   255 255 255   255 255 255   255 255 255   255 255 255   255 255 255   255 255 255   255 255 255
255 255 255   255 255 255   255 255 255   255 255 255   255 255 255   255 255 255   255 255 255   255 255 255   255 255 255   255 255 255   255 255 255   255 255 255   255 255 255   255 255 255   255 255 255   255 255 255   255 255 255   255 255 255   255 255 255   255 255 255   255 255 255   255 255 255   255 255 255   255 255 255   255 255 255   255 255 255   255 255 255   255 255 255   255 255 255   255 255 255   255 255 255   255 255 255   255 255 255   255 255 255   255 255 255   255 255 255   255 255 255   255 255 255   255 255 255   255 255 255   255 255 255   255 255 255   255 255 255   255 255 255   255 255 255   255 255 255   255 255 255   255 255 255   255 255 255   255 255 255   255 255 255   255 255 255   255 255 255   255 255 255   255 255 255   255 255 255   255 255 255   255 255 255   255 255 255   255 255 255   255 255 255   255 255 255   255 255 255   255 255 255   255 255 255   255 255 255   255 255 255   255 255 255   255 255 255   255 255 255   255 255 255   255 255 255   255 255 255   255 255 255   255 255 255   255 255 255   255 255 255   253 253 253    90  90  90     0   0   0    15  15  15   195 195 195   255 216   0   255 216   0   255 216   0   255 216   0   255 216   0   255 216   0   255 216   0   255 216   0   255 216   0   255 216   0   255 216   0   255 216   0   255 216   0   255 216   0   255 216   0   255 216   0   255 216   0   255 216   0   255 216   0   255 216   0   255 216   0   255 216   0   255 216   0   255 216   0   255 216   0   255 216   0   255 216   0   255 216   0   255 216   0   255 216   0   255 216   0   255 216   0   255 216   0   255 216   0   255 216   0   255 216   0   255 216   0   255 216   0   255 216   0   255 216   0   255 216   0   255 216   0   247 247 247    80  80  80     0   0   0    18  18  18   209 209 209   255 255 255   255 255 255   255 255 255   255 255 255   255 255 255   255 255 255   255 255 255   255 255 255   255 255 255   255 255 255   255 255 255   255 255 255   255 255 255   255 255 255   255 255 255   255 255 255   255 255 255   255 255 255   255 255 255   255 255 255   255 255 255   255 255 255   255 255 255   255 255 255   255 255 255   255 255 255   255 255 255   255 255 255   255 255 255   255 255 255   255 255 255   255 255 255   255 255 255   255 255 255   255 255 255   255 255 255   255 255 255   255 255 255   255 255 255   255 255 255   255 255 255   255 255 255   255 255 255   255 255 255   255 255 255   255 255 255   255 255 255   255 255 255   255 255 255   255 255 255   255 255 255   255 255 255   255 255 255   255 255 255   255 255 255   255 255 255   255 255 255   255 255 255   255 255 255   255 255 255   255 255 255   255 255 255   255 255 255   255 255 255   255 255 255   255 255 255   255 255 255   255 255 255   255 255 255   255 255 255   255 255 255   255 255 255   255 255 255   255 255 255   255 255 255   255 255 255   255 255 255   255 255 255   255 255 255   255 255 255   255 255 255   255 255 255   255 255 255   255 255 255   255 255 255   255 255 255   255 255 255   255 255 255   255 255 255   255 255 255   255 255 255   255 255 255   255 255 255   255 255 255   255 255 255   255 255 255   255 255 255   255 255 255   255 255 255   255 255 255   255 255 255   255 255 255   255 255 255   255 255 255   255 255 255   255 255 255   255 255 255   255 255 255   255 255 255   255 255 255   255 255 255   255 255 255   255 255 255   255 255 255   255 255 255   255 255 255   255 255 255   255 255 255   255 255 255   255 255 255   255 255 255   255 255 255   255 255 255   255 255 255   255 255 255   255 255 255   255 255 255
255 255 255   255 255 255   255 255 255   255 255 255   255 255 255   255 255 255   255 255 255   255 255 255   255 255 255   255 255 255   255 255 255   255 255 255   255 255 255   255 255 255   255 255 255   255 255 255   255 255 255   255 255 255   255 255 255   255 255 255   255 255 255   255 255 255   255 255 255   255 255 255   255 255 255   255 255 255   255 255 255   255 255 255   255 255 255   255 255 255   255 255 255   255 255 255   255 255 255   255 255 255   255 255 255   255 255 255   255 255 255   255 255 255   255 255 255   255 255 255   255 255 255   255 255 255   255 255 255   255 255 255   255 255 255   255 255 255   255 255 255   255 255 255   255 255 255   255 255 255   255 255 255   255 255 255   255 255 255   255 255 255   255 255 255   255 255 255   255 255 255   255 255 255   255 255 255   255 255 255   255 255 255   255 255 255   255 255 255   255 255 255   255 255 255   255 255 255   255 255 255   255 255 255   255 255 255   255 255 255   255 255 255   255 255 255   255 255 255   255 255 255   255 255 255   255 255 255   255 255 255   255 255 255   251 251 251    87  87  87     0   0   0     9   9   9   173 173 173   255 216   0   255 216   0   255 216   0   255 216   0   255 216   0   255 216   0   255 216   0   255 216   0   255 216   0   255 216   0   255 216   0   255 216   0   255 216   0   255 216   0   255 216   0   255 216   0   255 216   0   255 216   0   255 216   0   255 216   0   255 216   0   255 216   0   255 216   0   255 216   0   255 216   0   255 216   0   255 216   0   255 216   0   255 216   0   255 216   0   255 216   0   255 216   0   255 216   0   255 216   0   255 216   0   255 216   0   255 216   0   255 216   0   255 216   0   255 216   0   237 237 237    62  62  62     0   0   0    18  18  18   204 204 204   255 255 255   255 255 255   255 255 255   255 255 255   255 255 255   255 255 255   255 255 255   255 255 255   255 255 255   255 255 255   255 255 255   255 255 255   255 255 255   255 255 255   255 255 255   255 255 255   255 255 255   255 255 255   255 255 255   255 255 255   255 255 255   255 255 255   255 255 255   255 255 255   255 255 255   255 255 255   255 255 255   255 255 255   255 255 255   255 255 255   255 255 255   255 255 255   255 255 255   255 255 255   255 255 255   255 255 255   255 255 255   255 255 255   255 255 255   255 255 255   255 255 255   255 255 255   255 255 255   255 255 255   255 255 255   255 255 255   255 255 255   255 255 255   255 255 255   255 255 255   255 255 255   255 255 255   255 255 255   255 255 255   255 255 255   255 255 255   255 255 255   255 255 255   255 255 255   255 255 255   255 255 255   255 255 255   255 255 255   255 255 255   255 255 255   255 255 255   255 255 255   255 255 255   255 255 255   255 255 255   255 255 255   255 255 255   255 255 255   255 255 255   255 255 255   255 255 255   255 255 255   255 255 255   255 255 255   255 255 255   255 255 255   255 255 255   255 255 255   255 255 255   255 255 255   255 255 255   255 255 255   255 255 255   255 255 255   255 255 255   255 255 255   255 255 255   255 255 255   255 255 255   255 255 255   255 255 255   255 255 255   255 255 255   255 255 255   255 255 255   255 255 255   255 255 255   255 255 255   255 255 255   255 255 255   255 255 255   255 255 255   255 255 255   255 255 255   255 255 255   255 255 255   255 255 255   255 255 255   255 255 255   255 255 255   255 255 255   255 255 255   255 255 255   255 255 255   255 255 255   255 255 255   255 255 255   255 255 255   255 255 255   255 255 255   255 255 255   255 255 255   255 255 255
255 255 255   255 255 255   255 255 255   255 255 255   255 255 255   255 255 255   255 255 255   255 255 255   255 255 255   255 255 255   255 255 255   255 255 255   255 255 255   255 255 255   255 255 255   255 255 255   255 255 255   255 255 255   255 255 255   255 255 255   255 255 255   255 255 255   255 255 255   255 255 255   255 255 255   255 255 255   255 255 255   255 255 255   255 255 255   255 255 255   255 255 255   255 255 255   255 255 255   255 255 255   255 255 255   255 255 255   255 255 255   255 255 255   255 255 255   255 255 255   255 255 255   255 255 255   255 255 255   255 255 255   255 255 255   255 255 255   255 255 255   255 255 255   255 255 255   255 255 255   255 255 255   255 255 255   255 255 255   255 255 255   255 255 255   255 255 255   255 255 255   255 255 255   255 255 255   255 255 255   255 255 255   255 255 255   255 255 255   255 255 255   255 255 255   255 255 255   255 255 255   255 255 255   255 255 255   255 255 255   255 255 255   255 255 255   255 255 255   255 255 255   255 255 255   255 255 255   255 255 255   255 255 255   255 255 255   252 252 252   103 103 103     0   0   0     2   2   2   129 129 129   253 253 253   255 216   0   255 216   0   255 216   0   255 216   0   255 216   0   255 216   0   255 216   0   255 216   0   255 216   0   255 216   0   255 216   0   255 216   0   255 216   0   255 216   0   255 216   0   255 216   0   255 216   0   255 216   0   255 216   0   255 216   0   255 216   0   255 216   0   255 216   0   255 216   0   255 216   0   255 216   0   255 216   0   255 216   0   255 216   0   255 216   0   255 216   0   255 216   0   255 216   0   255 216   0   255 216   0   255 216   0   255 216   0   209 209 209    36  36  36     0   0   0    28  28  28   211 211 211   255 255 255   255 255 255   255 255 255   255 255 255   255 255 255   255 255 255   255 255 255   255 255 255   255 255 255   255 255 255   255 255 255   255 255 255   255 255 255   255 255 255   255 255 255   255 255 255   255 255 255   255 255 255   255 255 255   255 255 255   255 255 255   255 255 255   255 255 255   255 255 255   255 255 255   255 255 255   255 255 255   255 255 255   255 255 255   255 255 255   255 255 255   255 255 255   255 255 255   255 255 255   255 255 255   255 255 255   255 255 255   255 255 255   255 255 255   255 255 255   255 255 255   255 255 255   255 255 255   255 255 255   255 255 255   255 255 255   255 255 255   255 255 255   255 255 255   255 255 255   255 255 255   255 255 255   255 255 255   255 255 255   255 255 255   255 255 255   255 255 255   255 255 255   255 255 255   255 255 255   255 255 255   255 255 255   255 255 255   255 255 255   255 255 255   255 255 255   255 255 255   255 255 255   255 255 255   255 255 255   255 255 255   255 255 255   255 255 255   255 255 255   255 255 255   255 255 255   255 255 255   255 255 255   255 255 255   255 255 255   255 255 255   255 255 255   255 255 255   255 255 255   255 255 255   255 255 255   255 255 255   255 255 255   255 255 255   255 255 255   255 255 255   255 255 255   255 255 255   255 255 255   255 255 255   255 255 255   255 255 255   255 255 255   255 255 255   255 255 255   255 255 255   255 255 255   255 255 255   255 255 255   255 255 255   255 255 255   255 255 255   255 255 255   255 255 255   255 255 255   255 255 255   255 255 255   255 255 255   255 255 255   255 255 255   255 255 255   255 255 255   255 255 255   255 255 255   255 255 255   255 255 255   255 255 255   255 255 255   255 255 255   255 255 255   255 255 255   255 255 255   255 255 255   255 255 255
255 255 255   255 255 255   255 255 255   255 255 255   255 255 255   255 255 255   255 255 255   255 255 255   255 255 255   255 255 255   255 255 255   255 255 255   255 255 255   255 255 255   255 255 255   255 255 255   255 255 255   255 255 255   255 255 255   255 255 255   255 255 255   255 255 255   255 255 255   255 255 255   255 255 255   255 255 255   255 255 255   255 255 255   255 255 255   255 255 255   255 255 255   255 255 255   255 255 255   255 255 255   255 255 255   255 255 255   255 255 255   255 255 255   255 255 255   255 255 255   255 255 255   255 255 255   255 255 255   255 255 255   255 255 255   255 255 255   255 255 255   255 255 255   255 255 255   255 255 255   255 255 255   255 255 255   255 255 255   255 255 255   255 255 255   255 255 255   255 255 255   255 255 255   255 255 255   255 255 255   255 255 255   255 255 255   255 255 255   255 255 255   255 255 255   255 255 255   255 255 255   255 255 255   255 255 255   255 255 255   255 255 255   255 255 255   255 255 255   255 255 255   255 255 255   255 255 255   255 255 255   255 255 255   255 255 255   255 255 255   255 255 255   139 139 139     3   3   3     0   0   0    68  68  68   228 228 228   255 216   0   255 216   0   255 216   0   255 216   0   255 216   0   255 216   0   255 216   0   255 216   0   255 216   0   255 216   0   255 216   0   255 216   0   255 216   0   255 216   0   255 216   0   255 216   0   255 216   0   255 216   0   255 216   0   255 216   0   255 216   0   255 216   0   255 216   0   255 216   0   255 216   0   255 216   0   255 216   0   255 216   0   255 216   0   255 216   0   255 216   0   255 216   0   255 216   0   255 216   0   254 254 254   148 148 148     9   9   9     0   0   0    52  52  52   228 228 228   255 255 255   255 255 255   255 255 255   255 255 255   255 255 255   255 255 255   255 255 255   255 255 255   255 255 255   255 255 255   255 255 255   255 255 255   255 255 255   255 255 255   255 255 255   255 255 255   255 255 255   255 255 255   255 255 255   255 255 255   255 255 255   255 255 255   255 255 255   255 255 255   255 255 255   255 255 255   255 255 255   255 255 255   255 255 255   255 255 255   255 255 255   255 255 255   255 255 255   255 255 255   255 255 255   255 255 255   255 255 255   255 255 255   255 255 255   255 255 255   255 255 255   255 255 255   255 255 255   255 255 255   255 255 255   255 255 255   255 255 255   255 255 255   255 255 255   255 255 255   255 255 255   255 255 255   255 255 255   255 255 255   255 255 255   255 255 255   255 255 255   255 255 255   255 255 255   255 255 255   255 255 255   255 255 255   255 255 255   255 255 255   255 255 255   255 255 255   255 255 255   255 255 255   255 255 255   255 255 255   255 255 255   255 255 255   255 255 255   255 255 255   255 255 255   255 255 255   255 255 255   255 255 255   255 255 255   255 255 255   255 255 255   255 255 255   255 255 255   255 255 255   255 255 255   255 255 255   255 255 255   255 255 255   255 255 255   255 255 255   255 255 255   255 255 255   255 255 255   255 255 255   255 255 255   255 255 255   255 255 255   255 255 255   255 255 255   255 255 255   255 255 255   255 255 255   255 255 255   255 255 255   255 255 255   255 255 255   255 255 255   255 255 255   255 255 255   255 255 255   255 255 255   255 255 255   255 255 255   255 255 255   255 255 255   255 255 255   255 255 255   255 255 255   255 255 255   255 255 255   255 255 255   255 255 255   255 255 255   255 255 255   255 255 255   255 255 255   255 255 255   255 255 255   255 255 255   255 255 255
255 255 255   255 255 255   255 255 255   255 255 255   255 255 255   255 255 255   255 255 255   255 255 255   255 255 255   255 255 255   255 255 255   255 255 255   255 255 255   255 255 255   255 255 255   255 255 255   255 255 255   255 255 255   255 255 255   255 255 255   255 255 255   255 255 255   255 255 255   255 255 255   255 255 255   255 255 255   255 255 255   255 255 255   255 255 255   255 255 255   255 255 255   255 255 255   255 255 255   255 255 255   255 255 255   255 255 255   255 255 255   255 255 255   255 255 255   255 255 255   255 255 255   255 255 255   255 255 255   255 255 255   255 255 255   255 255 255   255 255 255   255 255 255   255 255 255   255 255 255   255 255 255   255 255 255   255 255 255   255 255 255   255 255 255   255 255 255   255 255 255   255 255 255   255 255 255   255 255 255   255 255 255   255 255 255   255 255 255   255 255 255   255 255 255   255 255 255   255 255 255   255 255 255   255 255 255   255 255 255   255 255 255   255 255 255   255 255 255   255 255 255   255 255 255   255 255 255   255 255 255   255 255 255   255 255 255   255 255 255   255 255 255   255 255 255   187 187 187    22  22  22     0   0   0    16  16  16   154 154 154   253 253 253   255 216   0   255 216   0   255 216   0   255 216   0   255 216   0   255 216   0   255 216   0   255 216   0   255 216   0   255 216   0   255 216   0   255 216   0   255 216   0   255 216   0   255 216   0   255 216   0   255 216   0   255 216   0   255 216   0   255 216   0   255 216   0   255 216   0   255 216   0   255 216   0   255 216   0   255 216   0   255 216   0   255 216   0   255 216   0   255 216   0   255 216   0   218 218 218    66  66  66     0   0   0     0   0   0   100 100 100   247 247 247   255 255 255   255 255 255   255 255 255   255 255 255   255 255 255   255 255 255   255 255 255   255 255 255   255 255 255   255 255 255   255 255 255   255 255 255   255 255 255   255 255 255   255 255 255   255 255 255   255 255 255   255 255 255   255 255 255   255 255 255   255 255 255   255 255 255   255 255 255   255 255 255   255 255 255   255 255 255   255 255 255   255 255 255   255 255 255   255 255 255   255 255 255   255 255 255   255 255 255   255 255 255   255 255 255   255 255 255   255 255 255   255 255 255   255 255 255   255 255 255   255 255 255   255 255 255   255 255 255   255 255 255   255 255 255   255 255 255   255 255 255   255 255 255   255 255 255   255 255 255   255 255 255   255 255 255   255 255 255   255 255 255   255 255 255   255 255 255   255 255 255   255 255 255   255 255 255   255 255 255   255 255 255   255 255 255   255 255 255   255 255 255   255 255 255   255 255 255   255 255 255   255 255 255   255 255 255   255 255 255   255 255 255   255 255 255   255 255 255   255 255 255   255 255 255   255 255 255   255 255 255   255 255 255   255 255 255   255 255 255   255 255 255   255 255 255   255 255 255   255 255 255   255 255 255   255 255 255   255 255 255   255 255 255   255 255 255   255 255 255   255 255 255   255 255 255   255 255 255   255 255 255   255 255 255   255 255 255   255 255 255   255 255 255   255 255 255   255 255 255   255 255 255   255 255 255   255 255 255   255 255 255   255 255 255   255 255 255   255 255 255   255 255 255   255 255 255   255 255 255   255 255 255   255 255 255   255 255 255   255 255 255   255 255 255   255 255 255   255 255 255   255 255 255   255 255 255   255 255 255   255 255 255   255 255 255   255 255 255   255 255 255   255 255 255   255 255 255   255 255 255   255 255 255   255 255 255   255 255 255   255 255 255
255 255 255   255 255 255   255 255 255   255 255 255   255 255 255   255 255 255   255 255 255   255 255 255   255 255 255   255 255 255   255 255 255   255 255 255   255 255 255   255 255 255   255 255 255   255 255 255   255 255 255   255 255 255   255 255 255   255 255 255   255 255 255   255 255 255   255 255 255   255 255 255   255 255 255   255 255 255   255 255 255   255 255 255   255 255 255   255 255 255   255 255 255   255 255 255   255 255 255   255 255 255   255 255 255   255 255 255   255 255 255   255 255 255   255 255 255   255 255 255   255 255 255   255 255 255   255 255 255   255 255 255   255 255 255   255 255 255   255 255 255   255 255 255   255 255 255   255 255 255   255 255 255   255 255 255   255 255 255   255 255 255   255 255 255   255 255 255   255 255 255   255 255 255   255 255 255   255 255 255   255 255 255   255 255 255   255 255 255   255 255 255   255 255 255   255 255 255   255 255 255   255 255 255   255 255 255   255 255 255   255 255 255   255 255 255   255 255 255   255 255 255   255 255 255   255 255 255   255 255 255   255 255 255   255 255 255   255 255 255   255 255 255   255 255 255   255 255 255   232 232 232    78  78  78     0   0   0     0   0   0    53  53  53   191 191 191   255 216   0   255 216   0   255 216   0   255 216   0   255 216   0   255 216   0   255 216   0   255 216   0   255 216   0   255 216   0   255 216   0   255 216   0   255 216   0   255 216   0   255 216   0   255 216   0   255 216   0   255 216   0   255 216   0   255 216   0   255 216   0   255 216   0   255 216   0   255 216   0   255 216   0   255 216   0   255 216   0   255 216   0   237 237 237   116 116 116     7   7   7     0   0   0    22  22  22   172 172 172   255 255 255   255 255 255   255 255 255   255 255 255   255 255 255   255 255 255   255 255 255   255 255 255   255 255 255   255 255 255   255 255 255   255 255 255   255 255 255   255 255 255   255 255 255   255 255 255   255 255 255   255 255 255   255 255 255   255 255 255   255 255 255   255 255 255   255 255 255   255 255 255   255 255 255   255 255 255   255 255 255   255 255 255   255 255 255   255 255 255   255 255 255   255 255 255   255 255 255   255 255 255   255 255 255   255 255 255   255 255 255   255 255 255   255 255 255   255 255 255   255 255 255   255 255 255   255 255 255   255 255 255   255 255 255   255 255 255   255 255 255   255 255 255   255 255 255   255 255 255   255 255 255   255 255 255   255 255 255   255 255 255   255 255 255   255 255 255   255 255 255   255 255 255   255 255 255   255 255 255   255 255 255   255 255 255   255 255 255   255 255 255   255 255 255   255 255 255   255 255 255   255 255 255   255 255 255   255 255 255   255 255 255   255 255 255   255 255 255   255 255 255   255 255 255   255 255 255   255 255 255   255 255 255   255 255 255   255 255 255   255 255 255   255 255 255   255 255 255   255 255 255   255 255 255   255 255 255   255 255 255   255 255 255   255 255 255   255 255 255   255 255 255   255 255 255   255 255 255   255 255 255   255 255 255   255 255 255   255 255 255   255 255 255   255 255 255   255 255 255   255 255 255   255 255 255   255 255 255   255 255 255   255 255 255   255 255 255   255 255 255   255 255 255   255 255 255   255 255 255   255 255 255   255 255 255   255 255 255   255 255 255   255 255 255   255 255 255   255 255 255   255 255 255   255 255 255   255 255 255   255 255 255   255 255 255   255 255 255   255 255 255   255 255 255   255 255 255   255 255 255   255 255 255   255 255 255   255 255 255   255 255 255   255 255 255   255 255 255
255 255 255   255 255 255   255 255 255   255 255 255   255 255 255   255 255 255   255 255 255   255 255 255   255 255 255   255 255 255   255 255 255   255 255 255   255 255 255   255 255 255   255 255 255   255 255 255   255 255 255   255 255 255   255 255 255   255 255 255   255 255 255   255 255 255   255 255 255   255 255 255   255 255 255   255 255 255   255 255 255   255 255 255   255 255 255   255 255 255   255 255 255   255 255 255   255 255 255   255 255 255   255 255 255   255 255 255   255 255 255   255 255 255   255 255 255   255 255 255   255 255 255   255 255 255   255 255 255   255 255 255   255 255 255   255 255 255   255 255 255   255 255 255   255 255 255   255 255 255   255 255 255   255 255 255   255 255 255   255 255 255   255 255 255   255 255 255   255 255 255   255 255 255   255 255 255   255 255 255   255 255 255   255 255 255   255 255 255   255 255 255   255 255 255   255 255 255   255 255 255   255 255 255   255 255 255   255 255 255   255 255 255   255 255 255   255 255 255   255 255 255   255 255 255   255 255 255   255 255 255   255 255 255   255 255 255   255 255 255   255 255 255   255 255 255   255 255 255   255 255 255   255 255 255   169 169 169    28  28  28     0   0   0     0   0   0    64  64  64   182 182 182   254 254 254   255 216   0   255 216   0   255 216   0   255 216   0   255 216   0   255 216   0   255 216   0   255 216   0   255 216   0   255 216   0   255 216   0   255 216   0   255 216   0   255 216   0   255 216   0   255 216   0   255 216   0   255 216   0   255 216   0   255 216   0   255 216   0   255 216   0   255 216   0   228 228 228   119 119 119    13  13  13     0   0   0     2   2   2    99  99  99   235 235 235   255 255 255   255 255 255   255 255 255   255 255 255   255 255 255   255 255 255   255 255 255   255 255 255   255 255 255   255 255 255   255 255 255   255 255 255   255 255 255   255 255 255   255 255 255   255 255 255   255 255 255   255 255 255   255 255 255   255 255 255   255 255 255   255 255 255   255 255 255   255 255 255   255 255 255   255 255 255   255 255 255   255 255 255   255 255 255   255 255 255   255 255 255   255 255 255   255 255 255   255 255 255   255 255 255   255 255 255   255 255 255   255 255 255   255 255 255   255 255 255   255 255 255   255 255 255   255 255 255   255 255 255   255 255 255   255 255 255   255 255 255   255 255 255   255 255 255   255 255 255   255 255 255   255 255 255   255 255 255   255 255 255   255 255 255   255 255 255   255 255 255   255 255 255   255 255 255   255 255 255   255 255 255   255 255 255   255 255 255   255 255 255   255 255 255   255 255 255   255 255 255   255 255 255   255 255 255   255 255 255   255 255 255   255 255 255   255 255 255   255 255 255   255 255 255   255 255 255   255 255 255   255 255 255   255 255 255   255 255 255   255 255 255   255 255 255   255 255 255   255 255 255   255 255 255   255 255 255   255 255 255   255 255 255   255 255 255   255 255 255   255 255 255   255 255 255   255 255 255   255 255 255   255 255 255   255 255 255   255 255 255   255 255 255   255 255 255   255 255 255   255 255 255   255 255 255   255 255 255   255 255 255   255 255 255   255 255 255   255 255 255   255 255 255   255 255 255   255 255 255   255 255 255   255 255 255   255 255 255   255 255 255   255 255 255   255 255 255   255 255 255   255 255 255   255 255 255   255 255 255   255 255 255   255 255 255   255 255 255   255 255 255   255 255 255   255 255 255   255 255 255   255 255 255   255 255 255   255 255 255   255 255 255   255 255 255   255 255 255   255 255 255
255 255 255   255 255 255   255 255 255   255 255 255   255 255 255   255 255 255   255 255 255   255 255 255   255 255 255   255 255 255   255 255 255   255 255 255   255 255 255   255 255 255   255 255 255   255 255 255   255 255 255   255 255 255   255 255 255   255 255 255   255 255 255   255 255 255   255 255 255   255 255 255   255 255 255   255 255 255   255 255 255   255 255 255   255 255 255   255 255 255   255 255 255   255 255 255   255 255 255   255 255 255   255 255 255   255 255 255   255 255 255   255 255 255   255 255 255   255 255 255   255 255 255   255 255 255   255 255 255   255 255 255   255 255 255   255 255 255   255 255 255   255 255 255   255 255 255   255 255 255   255 255 255   255 255 255   255 255 255   255 255 255   255 255 255   255 255 255   255 255 255   255 255 255   255 255 255   255 255 255   255 255 255   255 255 255   255 255 255   255 255 255   255 255 255   255 255 255   255 255 255   255 255 255   255 255 255   255 255 255   255 255 255   255 255 255   255 255 255   255 255 255   255 255 255   255 255 255   255 255 255   255 255 255   255 255 255   255 255 255   255 255 255   255 255 255   255 255 255   255 255 255   255 255 255   255 255 255   245 245 245   133 133 133    17  17  17     0   0   0     0   0   0    36  36  36   132 132 132   220 220 220   255 216   0   255 216   0   255 216   0   255 216   0   255 216   0   255 216   0   255 216   0   255 216   0   255 216   0   255 216   0   255 216   0   255 216   0   255 216   0   255 216   0   255 216   0   255 216   0   255 216   0   255 216   0   246 246 246   173 173 173    80  80  80     4   4   4     0   0   0     0   0   0    72  72  72   206 206 206   255 255 255   255 255 255   255 255 255   255 255 255   255 255 255   255 255 255   255 255 255   255 255 255   255 255 255   255 255 255   255 255 255   255 255 255   255 255 255   255 255 255   255 255 255   255 255 255   255 255 255   255 255 255   255 255 255   255 255 255   255 255 255   255 255 255   255 255 255   255 255 255   255 255 255   255 255 255   255 255 255   255 255 255   255 255 255   255 255 255   255 255 255   255 255 255   255 255 255   255 255 255   255 255 255   255 255 255   255 255 255   255 255 255   255 255 255   255 255 255   255 255 255   255 255 255   255 255 255   255 255 255   255 255 255   255 255 255   255 255 255   255 255 255   255 255 255   255 255 255   255 255 255   255 255 255   255 255 255   255 255 255   255 255 255   255 255 255   255 255 255   255 255 255   255 255 255   255 255 255   255 255 255   255 255 255   255 255 255   255 255 255   255 255 255   255 255 255   255 255 255   255 255 255   255 255 255   255 255 255   255 255 255   255 255 255   255 255 255   255 255 255   255 255 255   255 255 255   255 255 255   255 255 255   255 255 255   255 255 255   255 255 255   255 255 255   255 255 255   255 255 255   255 255 255   255 255 255   255 255 255   255 255 255   255 255 255   255 255 255   255 255 255   255 255 255   255 255 255   255 255 255   255 255 255   255 255 255   255 255 255   255 255 255   255 255 255   255 255 255   255 255 255   255 255 255   255 255 255   255 255 255   255 255 255   255 255 255   255 255 255   255 255 255   255 255 255   255 255 255   255 255 255   255 255 255   255 255 255   255 255 255   255 255 255   255 255 255   255 255 255   255 255 255   255 255 255   255 255 255   255 255 255   255 255 255   255 255 255   255 255 255   255 255 255   255 255 255   255 255 255   255 255 255   255 255 255   255 255 255   255 255 255   255 255 255   255 255 255   255 255 255   255 255 255   255 255 255
255 255 255   255 255 255   255 255 255   255 255 255   255 255 255   255 255 255   255 255 255   255 255 255   255 255 255   255 255 255   255 255 255   255 255 255   255 255 255   255 255 255   255 255 255   255 255 255   255 255 255   255 255 255   255 255 255   255 255 255   255 255 255   255 255 255   255 255 255   255 255 255   255 255 255   255 255 255   255 255 255   255 255 255   255 255 255   255 255 255   255 255 255   255 255 255   255 255 255   255 255 255   255 255 255   255 255 255   255 255 255   255 255 255   255 255 255   255 255 255   255 255 255   255 255 255   255 255 255   255 255 255   255 255 255   255 255 255   255 255 255   255 255 255   255 255 255   255 255 255   255 255 255   255 255 255   255 255 255   255 255 255   255 255 255   255 255 255   255 255 255   255 255 255   255 255 255   255 255 255   255 255 255   255 255 255   255 255 255   255 255 255   255 255 255   255 255 255   255 255 255   255 255 255   255 255 255   255 255 255   255 255 255   255 255 255   255 255 255   255 255 255   255 255 255   255 255 255   255 255 255   255 255 255   255 255 255   255 255 255   255 255 255   255 255 255   255 255 255   255 255 255   255 255 255   255 255 255   255 255 255   255 255 255   241 241 241   137 137 137    31  31  31     0   0   0     0   0   0     0   0   0    43  43  43   111 111 111   172 172 172   223 223 223   255 216   0   255 216   0   255 216   0   255 216   0   255 216   0   255 216   0   255 216   0   255 216   0   255 216   0   255 216   0   243 243 243   196 196 196   140 140 140    76  76  76    10  10  10     0   0   0     0   0   0     5   5   5    87  87  87   201 201 201   255 255 255   255 255 255   255 255 255   255 255 255   255 255 255   255 255 255   255 255 255   255 255 255   255 255 255   255 255 255   255 255 255   255 255 255   255 255 255   255 255 255   255 255 255   255 255 255   255 255 255   255 255 255   255 255 255   255 255 255   255 255 255   255 255 255   255 255 255   255 255 255   255 255 255   255 255 255   255 255 255   255 255 255   255 255 255   255 255 255   255 255 255   255 255 255   255 255 255   255 255 255   255 255 255   255 255 255   255 255 255   255 255 255   255 255 255   255 255 255   255 255 255   255 255 255   255 255 255   255 255 255   255 255 255   255 255 255   255 255 255   255 255 255   255 255 255   255 255 255   255 255 255   255 255 255   255 255 255   255 255 255   255 255 255   255 255 255   255 255 255   255 255 255   255 255 255   255 255 255   255 255 255   255 255 255   255 255 255   255 255 255   255 255 255   255 255 255   255 255 255   255 255 255   255 255 255   255 255 255   255 255 255   255 255 255   255 255 255   255 255 255   255 255 255   255 255 255   255 255 255   255 255 255   255 255 255   255 255 255   255 255 255   255 255 255   255 255 255   255 255 255   255 255 255   255 255 255   255 255 255   255 255 255   255 255 255   255 255 255   255 255 255   255 255 255   255 255 255   255 255 255   255 255 255   255 255 255   255 255 255   255 255 255   255 255 255   255 255 255   255 255 255   255 255 255   255 255 255   255 255 255   255 255 255   255 255 255   255 255 255   255 255 255   255 255 255   255 255 255   255 255 255   255 255 255   255 255 255   255 255 255   255 255 255   255 255 255   255 255 255   255 255 255   255 255 255   255 255 255   255 255 255   255 255 255   255 255 255   255 255 255   255 255 255   255 255 255   255 255 255   255 255 255   255 255 255   255 255 255   255 255 255   255 255 255   255 255 255   255 255 255   255 255 255   255 255 255   255 255 255   255 255 255
255 255 255   255 255 255   255 255 255   255 255 255   255 255 255   255 255 255   255 255 255   255 255 255   255 255 255   255 255 255   255 255 255   255 255 255   255 255 255   255 255 255   255 255 255   255 255 255   255 255 255   255 255 255   255 255 255   255 255 255   255 255 255   255 255 255   255 255 255   255 255 255   255 255 255   255 255 255   255 255 255   255 255 255   255 255 255   255 255 255   255 255 255   255 255 255   255 255 255   255 255 255   255 255 255   255 255 255   255 255 255   255 255 255   255 255 255   255 255 255   255 255 255   255 255 255   255 255 255   255 255 255   255 255 255   255 255 255   255 255 255   255 255 255   255 255 255   255 255 255   255 255 255   255 255 255   255 255 255   255 255 255   255 255 255   255 255 255   255 255 255   255 255 255   255 255 255   255 255 255   255 255 255   255 255 255   255 255 255   255 255 255   255 255 255   255 255 255   255 255 255   255 255 255   255 255 255   255 255 255   255 255 255   255 255 255   255 255 255   255 255 255   255 255 255   255 255 255   255 255 255   255 255 255   255 255 255   255 255 255   255 255 255   255 255 255   255 255 255   255 255 255   255 255 255   255 255 255   255 255 255   255 255 255   255 255 255   255 255 255   252 252 252   183 183 183    93  93  93    16  16  16     0   0   0     0   0   0     0   0   0     0   0   0    12  12  12    45  45  45    73  73  73    88  88  88   102 102 102   102 102 102    95  95  95    80  80  80    60  60  60    28  28  28     0   0   0     0   0   0     0   0   0     0   0   0     1   1   1    54  54  54   141 141 141   231 231 231   255 255 255   255 255 255   255 255 255   255 255 255   255 255 255   255 255 255   255 255 255   255 255 255   255 255 255   255 255 255   255 255 255   255 255 255   255 255 255   255 255 255   255 255 255   255 255 255   255 255 255   255 255 255   255 255 255   255 255 255   255 255 255   255 255 255   255 255 255   255 255 255   255 255 255   255 255 255   255 255 255   255 255 255   255 255 255   255 255 255   255 255 255   255 255 255   255 255 255   255 255 255   255 255 255   255 255 255   255 255 255   255 255 255   255 255 255   255 255 255   255 255 255   255 255 255   255 255 255   255 255 255   255 255 255   255 255 255   255 255 255   255 255 255   255 255 255   255 255 255   255 255 255   255 255 255   255 255 255   255 255 255   255 255 255   255 255 255   255 255 255   255 255 255   255 255 255   255 255 255   255 255 255   255 255 255   255 255 255   255 255 255   255 255 255   255 255 255   255 255 255   255 255 255   255 255 255   255 255 255   255 255 255   255 255 255   255 255 255   255 255 255   255 255 255   255 255 255   255 255 255   255 255 255   255 255 255   255 255 255   255 255 255   255 255 255   255 255 255   255 255 255   255 255 255   255 255 255   255 255 255   255 255 255   255 255 255   255 255 255   255 255 255   255 255 255   255 255 255   255 255 255   255 255 255   255 255 255   255 255 255   255 255 255   255 255 255   255 255 255   255 255 255   255 255 255   255 255 255   255 255 255   255 255 255   255 255 255   255 255 255   255 255 255   255 255 255   255 255 255   255 255 255   255 255 255   255 255 255   255 255 255   255 255 255   255 255 255   255 255 255   255 255 255   255 255 255   255 255 255   255 255 255   255 255 255   255 255 255   255 255 255   255 255 255   255 255 255   255 255 255   255 255 255   255 255 255   255 255 255   255 255 255   255 255 255   255 255 255   255 255 255   255 255 255   255 255 255   255 255 255   255 255 255   255 255 255   255 255 255
255 255 255   255 255 255   255 255 255   255 255 255   255 255 255   255 255 255   255 255 255   255 255 255   255 255 255   255 255 255   255 255 255   255 255 255   255 255 255   255 255 255   255 255 255   255 255 255   255 255 255   255 255 255   255 255 255   255 255 255   255 255 255   255 255 255   255 255 255   255 255 255   255 255 255   255 255 255   255 255 255   255 255 255   255 255 255   255 255 255   255 255 255   255 255 255   255 255 255   255 255 255   255 255 255   255 255 255   255 255 255   255 255 255   255 255 255   255 255 255   255 255 255   255 255 255   255 255 255   255 255 255   255 255 255   255 255 255   255 255 255   255 255 255   255 255 255   255 255 255   255 255 255   255 255 255   255 255 255   255 255 255   255 255 255   255 255 255   255 255 255   255 255 255   255 255 255   255 255 255   255 255 255   255 255 255   255 255 255   255 255 255   255 255 255   255 255 255   255 255 255   255 255 255   255 255 255   255 255 255   255 255 255   255 255 255   255 255 255   255 255 255   255 255 255   255 255 255   255 255 255   255 255 255   255 255 255   255 255 255   255 255 255   255 255 255   255 255 255   255 255 255   255 255 255   255 255 255   255 255 255   255 255 255   255 255 255   255 255 255   255 255 255   255 255 255   255 255 255   251 251 251   193 193 193   128 128 128    72  72  72    24  24  24     0   0   0     0   0   0     0   0   0     0   0   0     0   0   0     0   0   0     0   0   0     0   0   0     0   0   0     0   0   0     7   7   7    50  50  50   102 102 102   162 162 162   231 231 231   255 255 255   255 255 255   255 255 255   255 255 255   255 255 255   255 255 255   255 255 255   255 255 255   255 255 255   255 255 255   255 255 255   255 255 255   255 255 255   255 255 255   255 255 255   255 255 255   255 255 255   255 255 255   255 255 255   255 255 255   255 255 255   255 255 255   255 255 255   255 255 255   255 255 255   255 255 255   255 255 255   255 255 255   255 255 255   255 255 255   255 255 255   255 255 255   255 255 255   255 255 255   255 255 255   255 255 255   255 255 255   255 255 255   255 255 255   255 255 255   255 255 255   255 255 255   255 255 255   255 255 255   255 255 255   255 255 255   255 255 255   255 255 255   255 255 255   255 255 255   255 255 255   255 255 255   255 255 255   255 255 255   255 255 255   255 255 255   255 255 255   255 255 255   255 255 255   255 255 255   255 255 255   255 255 255   255 255 255   255 255 255   255 255 255   255 255 255   255 255 255   255 255 255   255 255 255   255 255 255   255 255 255   255 255 255   255 255 255   255 255 255   255 255 255   255 255 255   255 255 255   255 255 255   255 255 255   255 255 255   255 255 255   255 255 255   255 255 255   255 255 255   255 255 255   255 255 255   255 255 255   255 255 255   255 255 255   255 255 255   255 255 255   255 255 255   255 255 255   255 255 255   255 255 255   255 255 255   255 255 255   255 255 255   255 255 255   255 255 255   255 255 255   255 255 255   255 255 255   255 255 255   255 255 255   255 255 255   255 255 255   255 255 255   255 255 255   255 255 255   255 255 255   255 255 255   255 255 255   255 255 255   255 255 255   255 255 255   255 255 255   255 255 255   255 255 255   255 255 255   255 255 255   255 255 255   255 255 255   255 255 255   255 255 255   255 255 255   255 255 255   255 255 255   255 255 255   255 255 255   255 255 255   255 255 255   255 255 255   255 255 255   255 255 255   255 255 255   255 255 255   255 255 255   255 255 255   255 255 255   255 255 255   255 255 255   255 255 255
255 255 255   255 255 255   255 255 255   255 255 255   255 255 255   255 255 255   255 255 255   255 255 255   255 255 255   255 255 255   255 255 255   255 255 255   255 255 255   255 255 255   255 255 255   255 255 255   255 255 255   255 255 255   255 255 255   255 255 255   255 255 255   255 255 255   255 255 255   255 255 255   255 255 255   255 255 255   255 255 255   255 255 255   255 255 255   255 255 255   255 255 255   255 255 255   255 255 255   255 255 255   255 255 255   255 255 255   255 255 255   255 255 255   255 255 255   255 255 255   255 255 255   255 255 255   255 255 255   255 255 255   255 255 255   255 255 255   255 255 255   255 255 255   255 255 255   255 255 255   255 255 255   255 255 255   255 255 255   255 255 255   255 255 255   255 255 255   255 255 255   255 255 255   255 255 255   255 255 255   255 255 255   255 255 255   255 255 255   255 255 255   255 255 255   255 255 255   255 255 255   255 255 255   255 255 255   255 255 255   255 255 255   255 255 255   255 255 255   255 255 255   255 255 255   255 255 255   255 255 255   255 255 255   255 255 255   255 255 255   255 255 255   255 255 255   255 255 255   255 255 255   255 255 255   255 255 255   255 255 255   255 255 255   255 255 255   255 255 255   255 255 255   255 255 255   255 255 255   255 255 255   255 255 255   255 255 255   255 255 255   255 255 255   238 238 238   206 206 206   181 181 181   166 166 166   153 153 153   153 153 153   158 158 158   173 173 173   194 194 194   222 222 222   252 252 252   255 255 255   255 255 255   255 255 255   255 255 255   255 255 255   255 255 255   255 255 255   255 255 255   255 255 255   255 255 255   255 255 255   255 255 255   255 255 255   255 255 255   255 255 255   255 255 255   255 255 255   255 255 255   255 255 255   255 255 255   255 255 255   255 255 255   255 255 255   255 255 255   255 255 255   255 255 255   255 255 255   255 255 255   255 255 255   255 255 255   255 255 255   255 255 255   255 255 255   255 255 255   255 255 255   255 255 255   255 255 255   255 255 255   255 255 255   255 255 255   255 255 255   255 255 255   255 255 255   255 255 255   255 255 255   255 255 255   255 255 255   255 255 255   255 255 255   255 255 255   255 255 255   255 255 255   255 255 255   255 255 255   255 255 255   255 255 255   255 255 255   255 255 255   255 255 255   255 255 255   255 255 255   255 255 255   255 255 255   255 255 255   255 255 255   255 255 255   255 255 255   255 255 255   255 255 255   255 255 255   255 255 255   255 255 255   255 255 255   255 255 255   255 255 255   255 255 255   255 255 255   255 255 255   255 255 255   255 255 255   255 255 255   255 255 255   255 255 255   255 255 255   255 255 255   255 255 255   255 255 255   255 255 255   255 255 255   255 255 255   255 255 255   255 255 255   255 255 255   255 255 255   255 255 255   255 255 255   255 255 255   255 255 255   255 255 255   255 255 255   255 255 255   255 255 255   255 255 255   255 255 255   255 255 255   255 255 255   255 255 255   255 255 255   255 255 255   255 255 255   255 255 255   255 255 255   255 255 255   255 255 255   255 255 255   255 255 255   255 255 255   255 255 255   255 255 255   255 255 255   255 255 255   255 255 255   255 255 255   255 255 255   255 255 255   255 255 255   255 255 255   255 255 255   255 255 255   255 255 255   255 255 255   255 255 255   255 255 255   255 255 255   255 255 255   255 255 255   255 255 255   255 255 255   255 255 255   255 255 255   255 255 255   255 255 255   255 255 255   255 255 255   255 255 255   255 255 255   255 255 255
255 255 255   255 255 255   255 255 255   255 255 255   255 255 255   255 255 255   255 255 255   255 255 255   255 255 255   255 255 255   255 255 255   255 255 255   255 255 255   255 255 255   255 255 255   255 255 255   255 255 255   255 255 255   255 255 255   255 255 255   255 255 255   255 255 255   255 255 255   255 255 255   255 255 255   255 255 255   255 255 255   255 255 255   255 255 255   255 255 255   255 255 255   255 255 255   255 255 255   255 255 255   255 255 255   255 255 255   255 255 255   255 255 255   255 255 255   255 255 255   255 255 255   255 255 255   255 255 255   255 255 255   255 255 255   255 255 255   255 255 255   255 255 255   255 255 255   255 255 255   255 255 255   255 255 255   255 255 255   255 255 255   255 255 255   255 255 255   255 255 255   255 255 255   255 255 255   255 255 255   255 255 255   255 255 255   255 255 255   255 255 255   255 255 255   255 255 255   255 255 255   255 255 255   255 255 255   255 255 255   255 255 255   255 255 255   255 255 255   255 255 255   255 255 255   255 255 255   255 255 255   255 255 255   255 255 255   255 255 255   255 255 255   255 255 255   255 255 255   255 255 255   255 255 255   255 255 255   255 255 255   255 255 255   255 255 255   255 255 255   255 255 255   255 255 255   255 255 255   255 255 255   255 255 255   255 255 255   255 255 255   255 255 255   255 255 255   255 255 255   255 255 255   255 255 255   255 255 255   255 255 255   255 255 255   255 255 255   255 255 255   255 255 255   255 255 255   255 255 255   255 255 255   255 255 255   255 255 255   255 255 255   255 255 255   255 255 255   255 255 255   255 255 255   255 255 255   255 255 255   255 255 255   255 255 255   255 255 255   255 255 255   255 255 255   255 255 255   255 255 255   255 255 255   255 255 255   255 255 255   255 255 255   255 255 255   255 255 255   255 255 255   255 255 255   255 255 255   255 255 255   255 255 255   255 255 255   255 255 255   255 255 255   255 255 255   255 255 255   255 255 255   255 255 255   255 255 255   255 255 255   255 255 255   255 255 255   255 255 255   255 255 255   255 255 255   255 255 255   255 255 255   255 255 255   255 255 255   255 255 255   255 255 255   255 255 255   255 255 255   255 255 255   255 255 255   255 255 255   255 255 255   255 255 255   255 255 255   255 255 255   255 255 255   255 255 255   255 255 255   255 255 255   255 255 255   255 255 255   255 255 255   255 255 255   255 255 255   255 255 255   255 255 255   255 255 255   255 255 255   255 255 255   255 255 255   255 255 255   255 255 255   255 255 255   255 255 255   255 255 255   255 255 255   255 255 255   255 255 255   255 255 255   255 255 255   255 255 255   255 255 255   255 255 255   255 255 255   255 255 255   255 255 255   255 255 255   255 255 255   255 255 255   255 255 255   255 255 255   255 255 255   255 255 255   255 255 255   255 255 255   255 255 255   255 255 255   255 255 255   255 255 255   255 255 255   255 255 255   255 255 255   255 255 255   255 255 255   255 255 255   255 255 255   255 255 255   255 255 255   255 255 255   255 255 255   255 255 255   255 255 255   255 255 255   255 255 255   255 255 255   255 255 255   255 255 255   255 255 255   255 255 255   255 255 255   255 255 255   255 255 255   255 255 255   255 255 255   255 255 255   255 255 255   255 255 255   255 255 255   255 255 255   255 255 255   255 255 255   255 255 255   255 255 255   255 255 255   255 255 255   255 255 255   255 255 255   255 255 255   255 255 255   255 255 255   255 255 255   255 255 255   255 255 255   255 255 255
255 255 255   255 255 255   255 255 255   255 255 255   255 255 255   255 255 255   255 255 255   255 255 255   255 255 255   255 255 255   255 255 255   255 255 255   255 255 255   255 255 255   255 255 255   255 255 255   255 255 255   255 255 255   255 255 255   255 255 255   255 255 255   255 255 255   255 255 255   255 255 255   255 255 255   255 255 255   255 255 255   255 255 255   255 255 255   255 255 255   255 255 255   255 255 255   255 255 255   255 255 255   255 255 255   255 255 255   255 255 255   255 255 255   255 255 255   255 255 255   255 255 255   255 255 255   255 255 255   255 255 255   255 255 255   255 255 255   255 255 255   255 255 255   255 255 255   255 255 255   255 255 255   255 255 255   255 255 255   255 255 255   255 255 255   255 255 255   255 255 255   255 255 255   255 255 255   255 255 255   255 255 255   255 255 255   255 255 255   255 255 255   255 255 255   255 255 255   255 255 255   255 255 255   255 255 255   255 255 255   255 255 255   255 255 255   255 255 255   255 255 255   255 255 255   255 255 255   255 255 255   255 255 255   255 255 255   255 255 255   255 255 255   255 255 255   255 255 255   255 255 255   255 255 255   255 255 255   255 255 255   255 255 255   255 255 255   255 255 255   255 255 255   255 255 255   255 255 255   255 255 255   255 255 255   255 255 255   255 255 255   255 255 255   255 255 255   255 255 255   255 255 255   255 255 255   255 255 255   255 255 255   255 255 255   255 255 255   255 255 255   255 255 255   255 255 255   255 255 255   255 255 255   255 255 255   255 255 255   255 255 255   255 255 255   255 255 255   255 255 255   255 255 255   255 255 255   255 255 255   255 255 255   255 255 255   255 255 255   255 255 255   255 255 255   255 255 255   255 255 255   255 255 255   255 255 255   255 255 255   255 255 255   255 255 255   255 255 255   255 255 255   255 255 255   255 255 255   255 255 255   255 255 255   255 255 255   255 255 255   255 255 255   255 255 255   255 255 255   255 255 255   255 255 255   255 255 255   255 255 255   255 255 255   255 255 255   255 255 255   255 255 255   255 255 255   255 255 255   255 255 255   255 255 255   255 255 255   255 255 255   255 255 255   255 255 255   255 255 255   255 255 255   255 255 255   255 255 255   255 255 255   255 255 255   255 255 255   255 255 255   255 255 255   255 255 255   255 255 255   255 255 255   255 255 255   255 255 255   255 255 255   255 255 255   255 255 255   255 255 255   255 255 255   255 255 255   255 255 255   255 255 255   255 255 255   255 255 255   255 255 255   255 255 255   255 255 255   255 255 255   255 255 255   255 255 255   255 255 255   255 255 255   255 255 255   255 255 255   255 255 255   255 255 255   255 255 255   255 255 255   255 255 255   255 255 255   255 255 255   255 255 255   255 255 255   255 255 255   255 255 255   255 255 255   255 255 255   255 255 255   255 255 255   255 255 255   255 255 255   255 255 255   255 255 255   255 255 255   255 255 255   255 255 255   255 255 255   255 255 255   255 255 255   255 255 255   255 255 255   255 255 255   255 255 255   255 255 255   255 255 255   255 255 255   255 255 255   255 255 255   255 255 255   255 255 255   255 255 255   255 255 255   255 255 255   255 255 255   255 255 255   255 255 255   255 255 255   255 255 255   255 255 255   255 255 255   255 255 255   255 255 255   255 255 255   255 255 255   255 255 255   255 255 255   255 255 255   255 255 255   255 255 255   255 255 255   255 255 255   255 255 255   255 255 255   255 255 255   255 255 255   255 255 255   255 255 255
255 255 255   255 255 255   255 255 255   255 255 255   255 255 255   255 255 255   255 255 255   255 255 255   255 255 255   255 255 255   255 255 255   255 255 255   255 255 255   255 255 255   255 255 255   255 255 255   255 255 255   255 255 255   255 255 255   255 255 255   255 255 255   255 255 255   255 255 255   255 255 255   255 255 255   255 255 255   255 255 255   255 255 255   255 255 255   255 255 255   255 255 255   255 255 255   255 255 255   255 255 255   255 255 255   255 255 255   255 255 255   255 255 255   255 255 255   255 255 255   255 255 255   255 255 255   255 255 255   255 255 255   255 255 255   255 255 255   255 255 255   255 255 255   255 255 255   255 255 255   255 255 255   255 255 255   255 255 255   255 255 255   255 255 255   255 255 255   255 255 255   255 255 255   255 255 255   255 255 255   255 255 255   255 255 255   255 255 255   255 255 255   255 255 255   255 255 255   255 255 255   255 255 255   255 255 255   255 255 255   255 255 255   255 255 255   255 255 255   255 255 255   255 255 255   255 255 255   255 255 255   255 255 255   255 255 255   255 255 255   255 255 255   255 255 255   255 255 255   255 255 255   255 255 255   255 255 255   255 255 255   255 255 255   255 255 255   255 255 255   255 255 255   255 255 255   255 255 255   255 255 255   255 255 255   255 255 255   255 255 255   255 255 255   255 255 255   255 255 255   255 255 255   255 255 255   255 255 255   255 255 255   255 255 255   255 255 255   255 255 255   255 255 255   255 255 255   255 255 255   255 255 255   255 255 255   255 255 255   255 255 255   255 255 255   255 255 255   255 255 255   255 255 255   255 255 255   255 255 255   255 255 255   255 255 255   255 255 255   255 255 255   255 255 255   255 255 255   255 255 255   255 255 255   255 255 255   255 255 255   255 255 255   255 255 255   255 255 255   255 255 255   255 255 255   255 255 255   255 255 255   255 255 255   255 255 255   255 255 255   255 255 255   255 255 255   255 255 255   255 255 255   255 255 255   255 255 255   255 255 255   255 255 255   255 255 255   255 255 255   255 255 255   255 255 255   255 255 255   255 255 255   255 255 255   255 255 255   255 255 255   255 255 255   255 255 255   255 255 255   255 255 255   255 255 255   255 255 255   255 255 255   255 255 255   255 255 255   255 255 255   255 255 255   255 255 255   255 255 255   255 255 255   255 255 255   255 255 255   255 255 255   255 255 255   255 255 255   255 255 255   255 255 255   255 255 255   255 255 255   255 255 255   255 255 255   255 255 255   255 255 255   255 255 255   255 255 255   255 255 255   255 255 255   255 255 255   255 255 255   255 255 255   255 255 255   255 255 255   255 255 255   255 255 255   255 255 255   255 255 255   255 255 255   255 255 255   255 255 255   255 255 255   255 255 255   255 255 255   255 255 255   255 255 255   255 255 255   255 255 255   255 255 255   255 255 255   255 255 255   255 255 255   255 255 255   255 255 255   255 255 255   255 255 255   255 255 255   255 255 255   255 255 255   255 255 255   255 255 255   255 255 255   255 255 255   255 255 255   255 255 255   255 255 255   255 255 255   255 255 255   255 255 255   255 255 255   255 255 255   255 255 255   255 255 255   255 255 255   255 255 255   255 255 255   255 255 255   255 255 255   255 255 255   255 255 255   255 255 255   255 255 255   255 255 255   255 255 255   255 255 255   255 255 255   255 255 255   255 255 255   255 255 255   255 255 255   255 255 255   255 255 255   255 255 255   255 255 255   255 255 255   255 255 255   255 255 255
255 255 255   255 255 255   255 255 255   255 255 255   255 255 255   255 255 255   255 255 255   255 255 255   255 255 255   255 255 255   255 255 255   255 255 255   255 255 255   255 255 255   255 255 255   255 255 255   255 255 255   255 255 255   255 255 255   255 255 255   255 255 255   255 255 255   255 255 255   255 255 255   255 255 255   255 255 255   255 255 255   255 255 255   255 255 255   255 255 255   255 255 255   255 255 255   255 255 255   255 255 255   255 255 255   255 255 255   255 255 255   255 255 255   255 255 255   255 255 255   255 255 255   255 255 255   255 255 255   255 255 255   255 255 255   255 255 255   255 255 255   255 255 255   255 255 255   255 255 255   255 255 255   255 255 255   255 255 255   255 255 255   255 255 255   255 255 255   255 255 255   255 255 255   255 255 255   255 255 255   255 255 255   255 255 255   255 255 255   255 255 255   255 255 255   255 255 255   255 255 255   255 255 255   255 255 255   255 255 255   255 255 255   255 255 255   255 255 255   255 255 255   255 255 255   255 255 255   255 255 255   255 255 255   255 255 255   255 255 255   255 255 255   255 255 255   255 255 255   255 255 255   255 255 255   255 255 255   255 255 255   255 255 255   255 255 255   255 255 255   255 255 255   255 255 255   255 255 255   255 255 255   255 255 255   255 255 255   255 255 255   255 255 255   255 255 255   255 255 255   255 255 255   255 255 255   255 255 255   255 255 255   255 255 255   255 255 255   255 255 255   255 255 255   255 255 255   255 255 255   255 255 255   255 255 255   255 255 255   255 255 255   255 255 255   255 255 255   255 255 255   255 255 255   255 255 255   255 255 255   255 255 255   255 255 255   255 255 255   255 255 255   255 255 255   255 255 255   255 255 255   255 255 255   255 255 255   255 255 255   255 255 255   255 255 255   255 255 255   255 255 255   255 255 255   255 255 255   255 255 255   255 255 255   255 255 255   255 255 255   255 255 255   255 255 255   255 255 255   255 255 255   255 255 255   255 255 255   255 255 255   255 255 255   255 255 255   255 255 255   255 255 255   255 255 255   255 255 255   255 255 255   255 255 255   255 255 255   255 255 255   255 255 255   255 255 255   255 255 255   255 255 255   255 255 255   255 255 255   255 255 255   255 255 255   255 255 255   255 255 255   255 255 255   255 255 255   255 255 255   255 255 255   255 255 255   255 255 255   255 255 255   255 255 255   255 255 255   255 255 255   255 255 255   255 255 255   255 255 255   255 255 255   255 255 255   255 255 255   255 255 255   255 255 255   255 255 255   255 255 255   255 255 255   255 255 255   255 255 255   255 255 255   255 255 255   255 255 255   255 255 255   255 255 255   255 255 255   255 255 255   255 255 255   255 255 255   255 255 255   255 255 255   255 255 255   255 255 255   255 255 255   255 255 255   255 255 255   255 255 255   255 255 255   255 255 255   255 255 255   255 255 255   255 255 255   255 255 255   255 255 255   255 255 255   255 255 255   255 255 255   255 255 255   255 255 255   255 255 255   255 255 255   255 255 255   255 255 255   255 255 255   255 255 255   255 255 255   255 255 255   255 255 255   255 255 255   255 255 255   255 255 255   255 255 255   255 255 255   255 255 255   255 255 255   255 255 255   255 255 255   255 255 255   255 255 255   255 255 255   255 255 255   255 255 255   255 255 255   255 255 255   255 255 255   255 255 255   255 255 255   255 255 255   255 255 255   255 255 255   255 255 255   255 255 255   255 255 255   255 255 255   255 255 255   255 255 255
255 255 255   255 255 255   255 255 255   255 255 255   255 255 255   255 255 255   255 255 255   255 255 255   255 255 255   255 255 255   255 255 255   255 255 255   255 255 255   255 255 255   255 255 255   255 255 255   255 255 255   255 255 255   255 255 255   255 255 255   255 255 255   255 255 255   255 255 255   255 255 255   255 255 255   255 255 255   255 255 255   255 255 255   255 255 255   255 255 255   255 255 255   255 255 255   255 255 255   255 255 255   255 255 255   255 255 255   255 255 255   255 255 255   255 255 255   255 255 255   255 255 255   255 255 255   255 255 255   255 255 255   255 255 255   255 255 255   255 255 255   255 255 255   255 255 255   255 255 255   255 255 255   255 255 255   255 255 255   255 255 255   255 255 255   255 255 255   255 255 255   255 255 255   255 255 255   255 255 255   255 255 255   255 255 255   255 255 255   255 255 255   255 255 255   255 255 255   255 255 255   255 255 255   255 255 255   255 255 255   255 255 255   255 255 255   255 255 255   255 255 255   255 255 255   255 255 255   255 255 255   255 255 255   255 255 255   255 255 255   255 255 255   255 255 255   255 255 255   255 255 255   255 255 255   255 255 255   255 255 255   255 255 255   255 255 255   255 255 255   255 255 255   255 255 255   255 255 255   255 255 255   255 255 255   255 255 255   255 255 255   255 255 255   255 255 255   255 255 255   255 255 255   255 255 255   255 255 255   255 255 255   255 255 255   255 255 255   255 255 255   255 255 255   255 255 255   255 255 255   255 255 255   255 255 255   255 255 255   255 255 255   255 255 255   255 255 255   255 255 255   255 255 255   255 255 255   255 255 255   255 255 255   255 255 255   255 255 255   255 255 255   255 255 255   255 255 255   255 255 255   255 255 255   255 255 255   255 255 255   255 255 255   255 255 255   255 255 255   255 255 255   255 255 255   255 255 255   255 255 255   255 255 255   255 255 255   255 255 255   255 255 255   255 255 255   255 255 255   255 255 255   255 255 255   255 255 255   255 255 255   255 255 255   255 255 255   255 255 255   255 255 255   255 255 255   255 255 255   255 255 255   255 255 255   255 255 255   255 255 255   255 255 255   255 255 255   255 255 255   255 255 255   255 255 255   255 255 255   255 255 255   255 255 255   255 255 255   255 255 255   255 255 255   255 255 255   255 255 255   255 255 255   255 255 255   255 255 255   255 255 255   255 255 255   255 255 255   255 255 255   255 255 255   255 255 255   255 255 255   255 255 255   255 255 255   255 255 255   255 255 255   255 255 255   255 255 255   255 255 255   255 255 255   255 255 255   255 255 255   255 255 255   255 255 255   255 255 255   255 255 255   255 255 255   255 255 255   255 255 255   255 255 255   255 255 255   255 255 255   255 255 255   255 255 255   255 255 255   255 255 255   255 255 255   255 255 255   255 255 255   255 255 255   255 255 255   255 255 255   255 255 255   255 255 255   255 255 255   255 255 255   255 255 255   255 255 255   255 255 255   255 255 255   255 255 255   255 255 255   255 255 255   255 255 255   255 255 255   255 255 255   255 255 255   255 255 255   255 255 255   255 255 255   255 255 255   255 255 255   255 255 255   255 255 255   255 255 255   255 255 255   255 255 255   255 255 255   255 255 255   255 255 255   255 255 255   255 255 255   255 255 255   255 255 255   255 255 255   255 255 255   255 255 255   255 255 255   255 255 255   255 255 255   255 255 255   255 255 255   255 255 255   255 255 255   255 255 255   255 255 255   255 255 255   255 255 255
255 255 255   255 255 255   255 255 255   255 255 255   255 255 255   255 255 255   255 255 255   255 255 255   255 255 255   255 255 255   255 255 255   255 255 255   255 255 255   255 255 255   255 255 255   255 255 255   255 255 255   255 255 255   255 255 255   255 255 255   255 255 255   255 255 255   255 255 255   255 255 255   255 255 255   255 255 255   255 255 255   255 255 255   255 255 255   255 255 255   255 255 255   255 255 255   255 255 255   255 255 255   255 255 255   255 255 255   255 255 255   255 255 255   255 255 255   255 255 255   255 255 255   255 255 255   255 255 255   255 255 255   255 255 255   255 255 255   255 255 255   255 255 255   255 255 255   255 255 255   255 255 255   255 255 255   255 255 255   255 255 255   255 255 255   255 255 255   255 255 255   255 255 255   255 255 255   255 255 255   255 255 255   255 255 255   255 255 255   255 255 255   255 255 255   255 255 255   255 255 255   255 255 255   255 255 255   255 255 255   255 255 255   255 255 255   255 255 255   255 255 255   255 255 255   255 255 255   255 255 255   255 255 255   255 255 255   255 255 255   255 255 255   255 255 255   255 255 255   255 255 255   255 255 255   255 255 255   255 255 255   255 255 255   255 255 255   255 255 255   255 255 255   255 255 255   255 255 255   255 255 255   255 255 255   255 255 255   255 255 255   255 255 255   255 255 255   255 255 255   255 255 255   255 255 255   255 255 255   255 255 255   255 255 255   255 255 255   255 255 255   255 255 255   255 255 255   255 255 255   255 255 255   255 255 255   255 255 255   255 255 255   255 255 255   255 255 255   255 255 255   255 255 255   255 255 255   255 255 255   255 255 255   255 255 255   255 255 255   255 255 255   255 255 255   255 255 255   255 255 255   255 255 255   255 255 255   255 255 255   255 255 255   255 255 255   255 255 255   255 255 255   255 255 255   255 255 255   255 255 255   255 255 255   255 255 255   255 255 255   255 255 255   255 255 255   255 255 255   255 255 255   255 255 255   255 255 255   255 255 255   255 255 255   255 255 255   255 255 255   255 255 255   255 255 255   255 255 255   255 255 255   255 255 255   255 255 255   255 255 255   255 255 255   255 255 255   255 255 255   255 255 255   255 255 255   255 255 255   255 255 255   255 255 255   255 255 255   255 255 255   255 255 255   255 255 255   255 255 255   255 255 255   255 255 255   255 255 255   255 255 255   255 255 255   255 255 255   255 255 255   255 255 255   255 255 255   255 255 255   255 255 255   255 255 255   255 255 255   255 255 255   255 255 255   255 255 255   255 255 255   255 255 255   255 255 255   255 255 255   255 255 255   255 255 255   255 255 255   255 255 255   255 255 255   255 255 255   255 255 255   255 255 255   255 255 255   255 255 255   255 255 255   255 255 255   255 255 255   255 255 255   255 255 255   255 255 255   255 255 255   255 255 255   255 255 255   255 255 255   255 255 255   255 255 255   255 255 255   255 255 255   255 255 255   255 255 255   255 255 255   255 255 255   255 255 255   255 255 255   255 255 255   255 255 255   255 255 255   255 255 255   255 255 255   255 255 255   255 255 255   255 255 255   255 255 255   255 255 255   255 255 255   255 255 255   255 255 255   255 255 255   255 255 255   255 255 255   255 255 255   255 255 255   255 255 255   255 255 255   255 255 255   255 255 255   255 255 255   255 255 255   255 255 255   255 255 255   255 255 255   255 255 255   255 255 255   255 255 255   255 255 255   255 255 255   255 255 255   255 255 255   255 255 255   255 255 255
255 255 255   255 255 255   255 255 255   255 255 255   255 255 255   255 255 255   255 255 255   255 255 255   255 255 255   255 255 255   255 255 255   255 255 255   255 255 255   255 255 255   255 255 255   255 255 255   255 255 255   255 255 255   255 255 255   255 255 255   255 255 255   255 255 255   255 255 255   255 255 255   255 255 255   255 255 255   255 255 255   255 255 255   255 255 255   255 255 255   255 255 255   255 255 255   255 255 255   255 255 255   255 255 255   255 255 255   255 255 255   255 255 255   255 255 255   255 255 255   255 255 255   255 255 255   255 255 255   255 255 255   255 255 255   255 255 255   255 255 255   255 255 255   255 255 255   255 255 255   255 255 255   255 255 255   255 255 255   255 255 255   255 255 255   255 255 255   255 255 255   255 255 255   255 255 255   255 255 255   255 255 255   255 255 255   255 255 255   255 255 255   255 255 255   255 255 255   255 255 255   255 255 255   255 255 255   255 255 255   255 255 255   255 255 255   255 255 255   255 255 255   255 255 255   255 255 255   255 255 255   255 255 255   255 255 255   255 255 255   255 255 255   255 255 255   255 255 255   255 255 255   255 255 255   255 255 255   255 255 255   255 255 255   255 255 255   255 255 255   255 255 255   255 255 255   255 255 255   255 255 255   255 255 255   255 255 255   255 255 255   255 255 255   255 255 255   255 255 255   255 255 255   255 255 255   255 255 255   255 255 255   255 255 255   255 255 255   255 255 255   255 255 255   255 255 255   255 255 255   255 255 255   255 255 255   255 255 255   255 255 255   255 255 255   255 255 255   255 255 255   255 255 255   255 255 255   255 255 255   255 255 255   255 255 255   255 255 255   255 255 255   255 255 255   255 255 255   255 255 255   255 255 255   255 255 255   255 255 255   255 255 255   255 255 255   255 255 255   255 255 255   255 255 255   255 255 255   255 255 255   255 255 255   255 255 255   255 255 255   255 255 255   255 255 255   255 255 255   255 255 255   255 255 255   255 255 255   255 255 255   255 255 255   255 255 255   255 255 255   255 255 255   255 255 255   255 255 255   255 255 255   255 255 255   255 255 255   255 255 255   255 255 255   255 255 255   255 255 255   255 255 255   255 255 255   255 255 255   255 255 255   255 255 255   255 255 255   255 255 255   255 255 255   255 255 255   255 255 255   255 255 255   255 255 255   255 255 255   255 255 255   255 255 255   255 255 255   255 255 255   255 255 255   255 255 255   255 255 255   255 255 255   255 255 255   255 255 255   255 255 255   255 255 255   255 255 255   255 255 255   255 255 255   255 255 255   255 255 255   255 255 255   255 255 255   255 255 255   255 255 255   255 255 255   255 255 255   255 255 255   255 255 255   255 255 255   255 255 255   255 255 255   255 255 255   255 255 255   255 255 255   255 255 255   255 255 255   255 255 255   255 255 255   255 255 255   255 255 255   255 255 255   255 255 255   255 255 255   255 255 255   255 255 255   255 255 255   255 255 255   255 255 255   255 255 255   255 255 255   255 255 255   255 255 255   255 255 255   255 255 255   255 255 255   255 255 255   255 255 255   255 255 255   255 255 255   255 255 255   255 255 255   255 255 255   255 255 255   255 255 255   255 255 255   255 255 255   255 255 255   255 255 255   255 255 255   255 255 255   255 255 255   255 255 255   255 255 255   255 255 255   255 255 255   255 255 255   255 255 255   255 255 255   255 255 255   255 255 255   255 255 255   255 255 255   255 255 255   255 255 255   255 255 255   255 255 255
255 255 255   255 255 255   255 255 255   255 255 255   255 255 255   255 255 255   255 255 255   255 255 255   255 255 255   255 255 255   255 255 255   255 255 255   255 255 255   255 255 255   255 255 255   255 255 255   255 255 255   255 255 255   255 255 255   255 255 255   255 255 255   255 255 255   255 255 255   255 255 255   255 255 255   255 255 255   255 255 255   255 255 255   255 255 255   255 255 255   255 255 255   255 255 255   255 255 255   255 255 255   255 255 255   255 255 255   255 255 255   255 255 255   255 255 255   255 255 255   255 255 255   255 255 255   255 255 255   255 255 255   255 255 255   255 255 255   255 255 255   255 255 255   255 255 255   255 255 255   255 255 255   255 255 255   255 255 255   255 255 255   255 255 255   255 255 255   255 255 255   255 255 255   255 255 255   255 255 255   255 255 255   255 255 255   255 255 255   255 255 255   255 255 255   255 255 255   255 255 255   255 255 255   255 255 255   255 255 255   255 255 255   255 255 255   255 255 255   255 255 255   255 255 255   255 255 255   255 255 255   255 255 255   255 255 255   255 255 255   255 255 255   255 255 255   255 255 255   255 255 255   255 255 255   255 255 255   255 255 255   255 255 255   255 255 255   255 255 255   255 255 255   255 255 255   255 255 255   255 255 255   255 255 255   255 255 255   255 255 255   255 255 255   255 255 255   255 255 255   255 255 255   255 255 255   255 255 255   255 255 255   255 255 255   255 255 255   255 255 255   255 255 255   255 255 255   255 255 255   255 255 255   255 255 255   255 255 255   255 255 255   255 255 255   255 255 255   255 255 255   255 255 255   255 255 255   255 255 255   255 255 255   255 255 255   255 255 255   255 255 255   255 255 255   255 255 255   255 255 255   255 255 255   255 255 255   255 255 255   255 255 255   255 255 255   255 255 255   255 255 255   255 255 255   255 255 255   255 255 255   255 255 255   255 255 255   255 255 255   255 255 255   255 255 255   255 255 255   255 255 255   255 255 255   255 255 255   255 255 255   255 255 255   255 255 255   255 255 255   255 255 255   255 255 255   255 255 255   255 255 255   255 255 255   255 255 255   255 255 255   255 255 255   255 255 255   255 255 255   255 255 255   255 255 255   255 255 255   255 255 255   255 255 255   255 255 255   255 255 255   255 255 255   255 255 255   255 255 255   255 255 255   255 255 255   255 255 255   255 255 255   255 255 255   255 255 255   255 255 255   255 255 255   255 255 255   255 255 255   255 255 255   255 255 255   255 255 255   255 255 255   255 255 255   255 255 255   255 255 255   255 255 255   255 255 255   255 255 255   255 255 255   255 255 255   255 255 255   255 255 255   255 255 255   255 255 255   255 255 255   255 255 255   255 255 255   255 255 255   255 255 255   255 255 255   255 255 255   255 255 255   255 255 255   255 255 255   255 255 255   255 255 255   255 255 255   255 255 255   255 255 255   255 255 255   255 255 255   255 255 255   255 255 255   255 255 255   255 255 255   255 255 255   255 255 255   255 255 255   255 255 255   255 255 255   255 255 255   255 255 255   255 255 255   255 255 255   255 255 255   255 255 255   255 255 255   255 255 255   255 255 255   255 255 255   255 255 255   255 255 255   255 255 255   255 255 255   255 255 255   255 255 255   255 255 255   255 255 255   255 255 255   255 255 255   255 255 255   255 255 255   255 255 255   255 255 255   255 255 255   255 255 255   255 255 255   255 255 255   255 255 255   255 255 255   255 255 255   255 255 255   255 255 255   255 255 255
255 255 255   255 255 255   255 255 255   255 255 255   255 255 255   255 255 255   255 255 255   255 255 255   255 255 255   255 255 255   255 255 255   255 255 255   255 255 255   255 255 255   255 255 255   255 255 255   255 255 255   255 255 255   255 255 255   255 255 255   255 255 255   255 255 255   255 255 255   255 255 255   255 255 255   255 255 255   255 255 255   255 255 255   255 255 255   255 255 255   255 255 255   255 255 255   255 255 255   255 255 255   255 255 255   255 255 255   255 255 255   255 255 255   255 255 255   255 255 255   255 255 255   255 255 255   255 255 255   255 255 255   255 255 255   255 255 255   255 255 255   255 255 255   255 255 255   255 255 255   255 255 255   255 255 255   255 255 255   255 255 255   255 255 255   255 255 255   255 255 255   255 255 255   255 255 255   255 255 255   255 255 255   255 255 255   255 255 255   255 255 255   255 255 255   255 255 255   255 255 255   255 255 255   255 255 255   255 255 255   255 255 255   255 255 255   255 255 255   255 255 255   255 255 255   255 255 255   255 255 255   255 255 255   255 255 255   255 255 255   255 255 255   255 255 255   255 255 255   255 255 255   255 255 255   255 255 255   255 255 255   255 255 255   255 255 255   255 255 255   255 255 255   255 255 255   255 255 255   255 255 255   255 255 255   255 255 255   255 255 255   255 255 255   255 255 255   255 255 255   255 255 255   255 255 255   255 255 255   255 255 255   255 255 255   255 255 255   255 255 255   255 255 255   255 255 255   255 255 255   255 255 255   255 255 255   255 255 255   255 255 255   255 255 255   255 255 255   255 255 255   255 255 255   255 255 255   255 255 255   255 255 255   255 255 255   255 255 255   255 255 255   255 255 255   255 255 255   255 255 255   255 255 255   255 255 255   255 255 255   255 255 255   255 255 255   255 255 255   255 255 255   255 255 255   255 255 255   255 255 255   255 255 255   255 255 255   255 255 255   255 255 255   255 255 255   255 255 255   255 255 255   255 255 255   255 255 255   255 255 255   255 255 255   255 255 255   255 255 255   255 255 255   255 255 255   255 255 255   255 255 255   255 255 255   255 255 255   255 255 255   255 255 255   255 255 255   255 255 255   255 255 255   255 255 255   255 255 255   255 255 255   255 255 255   255 255 255   255 255 255   255 255 255   255 255 255   255 255 255   255 255 255   255 255 255   255 255 255   255 255 255   255 255 255   255 255 255   255 255 255   255 255 255   255 255 255   255 255 255   255 255 255   255 255 255   255 255 255   255 255 255   255 255 255   255 255 255   255 255 255   255 255 255   255 255 255   255 255 255   255 255 255   255 255 255   255 255 255   255 255 255   255 255 255   255 255 255   255 255 255   255 255 255   255 255 255   255 255 255   255 255 255   255 255 255   255 255 255   255 255 255   255 255 255   255 255 255   255 255 255   255 255 255   255 255 255   255 255 255   255 255 255   255 255 255   255 255 255   255 255 255   255 255 255   255 255 255   255 255 255   255 255 255   255 255 255   255 255 255   255 255 255   255 255 255   255 255 255   255 255 255   255 255 255   255 255 255   255 255 255   255 255 255   255 255 255   255 255 255   255 255 255   255 255 255   255 255 255   255 255 255   255 255 255   255 255 255   255 255 255   255 255 255   255 255 255   255 255 255   255 255 255   255 255 255   255 255 255   255 255 255   255 255 255   255 255 255   255 255 255   255 255 255   255 255 255   255 255 255   255 255 255   255 255 255   255 255 255   255 255 255   255 255 255   255 255 255
255 255 255   255 255 255   255 255 255   255 255 255   255 255 255   255 255 255   255 255 255   255 255 255   255 255 255   255 255 255   255 255 255   255 255 255   255 255 255   255 255 255   255 255 255   255 255 255   255 255 255   255 255 255   255 255 255   255 255 255   255 255 255   255 255 255   255 255 255   255 255 255   255 255 255   255 255 255   255 255 255   255 255 255   255 255 255   255 255 255   255 255 255   255 255 255   255 255 255   255 255 255   255 255 255   255 255 255   255 255 255   255 255 255   255 255 255   255 255 255   255 255 255   255 255 255   255 255 255   255 255 255   255 255 255   255 255 255   255 255 255   255 255 255   255 255 255   255 255 255   255 255 255   255 255 255   255 255 255   255 255 255   255 255 255   255 255 255   255 255 255   255 255 255   255 255 255   255 255 255   255 255 255   255 255 255   255 255 255   255 255 255   255 255 255   255 255 255   255 255 255   255 255 255   255 255 255   255 255 255   255 255 255   255 255 255   255 255 255   255 255 255   255 255 255   255 255 255   255 255 255   255 255 255   255 255 255   255 255 255   255 255 255   255 255 255   255 255 255   255 255 255   255 255 255   255 255 255   255 255 255   255 255 255   255 255 255   255 255 255   255 255 255   255 255 255   255 255 255   255 255 255   255 255 255   255 255 255   255 255 255   255 255 255   255 255 255   255 255 255   255 255 255   255 255 255   255 255 255   255 255 255   255 255 255   255 255 255   255 255 255   255 255 255   255 255 255   255 255 255   255 255 255   255 255 255   255 255 255   255 255 255   255 255 255   255 255 255   255 255 255   255 255 255   255 255 255   255 255 255   255 255 255   255 255 255   255 255 255   255 255 255   255 255 255   255 255 255   255 255 255   255 255 255   255 255 255   255 255 255   255 255 255   255 255 255   255 255 255   255 255 255   255 255 255   255 255 255   255 255 255   255 255 255   255 255 255   255 255 255   255 255 255   255 255 255   255 255 255   255 255 255   255 255 255   255 255 255   255 255 255   255 255 255   255 255 255   255 255 255   255 255 255   255 255 255   255 255 255   255 255 255   255 255 255   255 255 255   255 255 255   255 255 255   255 255 255   255 255 255   255 255 255   255 255 255   255 255 255   255 255 255   255 255 255   255 255 255   255 255 255   255 255 255   255 255 255   255 255 255   255 255 255   255 255 255   255 255 255   255 255 255   255 255 255   255 255 255   255 255 255   255 255 255   255 255 255   255 255 255   255 255 255   255 255 255   255 255 255   255 255 255   255 255 255   255 255 255   255 255 255   255 255 255   255 255 255   255 255 255   255 255 255   255 255 255   255 255 255   255 255 255   255 255 255   255 255 255   255 255 255   255 255 255   255 255 255   255 255 255   255 255 255   255 255 255   255 255 255   255 255 255   255 255 255   255 255 255   255 255 255   255 255 255   255 255 255   255 255 255   255 255 255   255 255 255   255 255 255   255 255 255   255 255 255   255 255 255   255 255 255   255 255 255   255 255 255   255 255 255   255 255 255   255 255 255   255 255 255   255 255 255   255 255 255   255 255 255   255 255 255   255 255 255   255 255 255   255 255 255   255 255 255   255 255 255   255 255 255   255 255 255   255 255 255   255 255 255   255 255 255   255 255 255   255 255 255   255 255 255   255 255 255   255 255 255   255 255 255   255 255 255   255 255 255   255 255 255   255 255 255   255 255 255   255 255 255   255 255 255   255 255 255   255 255 255   255 255 255   255 255 255   255 255 255   255 255 255
255 255 255   255 255 255   255 255 255   255 255 255   255 255 255   255 255 255   255 255 255   255 255 255   255 255 255   255 255 255   255 255 255   255 255 255   255 255 255   255 255 255   255 255 255   255 255 255   255 255 255   255 255 255   255 255 255   255 255 255   255 255 255   255 255 255   255 255 255   255 255 255   255 255 255   255 255 255   255 255 255   255 255 255   255 255 255   255 255 255   255 255 255   255 255 255   255 255 255   255 255 255   255 255 255   255 255 255   255 255 255   255 255 255   255 255 255   255 255 255   255 255 255   255 255 255   255 255 255   255 255 255   255 255 255   255 255 255   255 255 255   255 255 255   255 255 255   255 255 255   255 255 255   255 255 255   255 255 255   255 255 255   255 255 255   255 255 255   255 255 255   255 255 255   255 255 255   255 255 255   255 255 255   255 255 255   255 255 255   255 255 255   255 255 255   255 255 255   255 255 255   255 255 255   255 255 255   255 255 255   255 255 255   255 255 255   255 255 255   255 255 255   255 255 255   255 255 255   255 255 255   255 255 255   255 255 255   255 255 255   255 255 255   255 255 255   255 255 255   255 255 255   255 255 255   255 255 255   255 255 255   255 255 255   255 255 255   255 255 255   255 255 255   255 255 255   255 255 255   255 255 255   255 255 255   255 255 255   255 255 255   255 255 255   255 255 255   255 255 255   255 255 255   255 255 255   255 255 255   255 255 255   255 255 255   255 255 255   255 255 255   255 255 255   255 255 255   255 255 255   255 255 255   255 255 255   255 255 255   255 255 255   255 255 255   255 255 255   255 255 255   255 255 255   255 255 255   255 255 255   255 255 255   255 255 255   255 255 255   255 255 255   255 255 255   255 255 255   255 255 255   255 255 255   255 255 255   255 255 255   255 255 255   255 255 255   255 255 255   255 255 255   255 255 255   255 255 255   255 255 255   255 255 255   255 255 255   255 255 255   255 255 255   255 255 255   255 255 255   255 255 255   255 255 255   255 255 255   255 255 255   255 255 255   255 255 255   255 255 255   255 255 255   255 255 255   255 255 255   255 255 255   255 255 255   255 255 255   255 255 255   255 255 255   255 255 255   255 255 255   255 255 255   255 255 255   255 255 255   255 255 255   255 255 255   255 255 255   255 255 255   255 255 255   255 255 255   255 255 255   255 255 255   255 255 255   255 255 255   255 255 255   255 255 255   255 255 255   255 255 255   255 255 255   255 255 255   255 255 255   255 255 255   255 255 255   255 255 255   255 255 255   255 255 255   255 255 255   255 255 255   255 255 255   255 255 255   255 255 255   255 255 255   255 255 255   255 255 255   255 255 255   255 255 255   255 255 255   255 255 255   255 255 255   255 255 255   255 255 255   255 255 255   255 255 255   255 255 255   255 255 255   255 255 255   255 255 255   255 255 255   255 255 255   255 255 255   255 255 255   255 255 255   255 255 255   255 255 255   255 255 255   255 255 255   255 255 255   255 255 255   255 255 255   255 255 255   255 255 255   255 255 255   255 255 255   255 255 255   255 255 255   255 255 255   255 255 255   255 255 255   255 255 255   255 255 255   255 255 255   255 255 255   255 255 255   255 255 255   255 255 255   255 255 255   255 255 255   255 255 255   255 255 255   255 255 255   255 255 255   255 255 255   255 255 255   255 255 255   255 255 255   255 255 255   255 255 255   255 255 255   255 255 255   255 255 255   255 255 255   255 255 255   255 255 255   255 255 255   255 255 255   255 255 255   255 255 255
255 255 255   255 255 255   255 255 255   255 255 255   255 255 255   255 255 255   255 255 255   255 255 255   255 255 255   255 255 255   255 255 255   255 255 255   255 255 255   255 255 255   255 255 255   255 255 255   255 255 255   255 255 255   255 255 255   255 255 255   255 255 255   255 255 255   255 255 255   255 255 255   255 255 255   255 255 255   255 255 255   255 255 255   255 255 255   255 255 255   255 255 255   255 255 255   255 255 255   255 255 255   255 255 255   255 255 255   255 255 255   255 255 255   255 255 255   255 255 255   255 255 255   255 255 255   255 255 255   255 255 255   255 255 255   255 255 255   255 255 255   255 255 255   255 255 255   255 255 255   255 255 255   255 255 255   255 255 255   255 255 255   255 255 255   255 255 255   255 255 255   255 255 255   255 255 255   255 255 255   255 255 255   255 255 255   255 255 255   255 255 255   255 255 255   255 255 255   255 255 255   255 255 255   255 255 255   255 255 255   255 255 255   255 255 255   255 255 255   255 255 255   255 255 255   255 255 255   255 255 255   255 255 255   255 255 255   255 255 255   255 255 255   255 255 255   255 255 255   255 255 255   255 255 255   255 255 255   255 255 255   255 255 255   255 255 255   255 255 255   255 255 255   255 255 255   255 255 255   255 255 255   255 255 255   255 255 255   255 255 255   255 255 255   255 255 255   255 255 255   255 255 255   255 255 255   255 255 255   255 255 255   255 255 255   255 255 255   255 255 255   255 255 255   255 255 255   255 255 255   255 255 255   255 255 255   255 255 255   255 255 255   255 255 255   255 255 255   255 255 255   255 255 255   255 255 255   255 255 255   255 255 255   255 255 255   255 255 255   255 255 255   255 255 255   255 255 255   255 255 255   255 255 255   255 255 255   255 255 255   255 255 255   255 255 255   255 255 255   255 255 255   255 255 255   255 255 255   255 255 255   255 255 255   255 255 255   255 255 255   255 255 255   255 255 255   255 255 255   255 255 255   255 255 255   255 255 255   255 255 255   255 255 255   255 255 255   255 255 255   255 255 255   255 255 255   255 255 255   255 255 255   255 255 255   255 255 255   255 255 255   255 255 255   255 255 255   255 255 255   255 255 255   255 255 255   255 255 255   255 255 255   255 255 255   255 255 255   255 255 255   255 255 255   255 255 255   255 255 255   255 255 255   255 255 255   255 255 255   255 255 255   255 255 255   255 255 255   255 255 255   255 255 255   255 255 255   255 255 255   255 255 255   255 255 255   255 255 255   255 255 255   255 255 255   255 255 255   255 255 255   255 255 255   255 255 255   255 255 255   255 255 255   255 255 255   255 255 255   255 255 255   255 255 255   255 255 255   255 255 255   255 255 255   255 255 255   255 255 255   255 255 255   255 255 255   255 255 255   255 255 255   255 255 255   255 255 255   255 255 255   255 255 255   255 255 255   255 255 255   255 255 255   255 255 255   255 255 255   255 255 255   255 255 255   255 255 255   255 255 255   255 255 255   255 255 255   255 255 255   255 255 255   255 255 255   255 255 255   255 255 255   255 255 255   255 255 255   255 255 255   255 255 255   255 255 255   255 255 255   255 255 255   255 255 255   255 255 255   255 255 255   255 255 255   255 255 255   255 255 255   255 255 255   255 255 255   255 255 255   255 255 255   255 255 255   255 255 255   255 255 255   255 255 255   255 255 255   255 255 255   255 255 255   255 255 255   255 255 255   255 255 255   255 255 255   255 255 255   255 255 255   255 255 255   255 255 255
255 255 255   255 255 255   255 255 255   255 255 255   255 255 255   255 255 255   255 255 255   255 255 255   255 255 255   255 255 255   255 255 255   255 255 255   255 255 255   255 255 255   255 255 255   255 255 255   255 255 255   255 255 255   255 255 255   255 255 255   255 255 255   255 255 255   255 255 255   255 255 255   255 255 255   255 255 255   255 255 255   255 255 255   255 255 255   255 255 255   255 255 255   255 255 255   255 255 255   255 255 255   255 255 255   255 255 255   255 255 255   255 255 255   255 255 255   255 255 255   255 255 255   255 255 255   255 255 255   255 255 255   255 255 255   255 255 255   255 255 255   255 255 255   255 255 255   255 255 255   255 255 255   255 255 255   255 255 255   255 255 255   255 255 255   255 255 255   255 255 255   255 255 255   255 255 255   255 255 255   255 255 255   255 255 255   255 255 255   255 255 255   255 255 255   255 255 255   255 255 255   255 255 255   255 255 255   255 255 255   255 255 255   255 255 255   255 255 255   255 255 255   255 255 255   255 255 255   255 255 255   255 255 255   255 255 255   255 255 255   255 255 255   255 255 255   255 255 255   255 255 255   255 255 255   255 255 255   255 255 255   255 255 255   255 255 255   255 255 255   255 255 255   255 255 255   255 255 255   255 255 255   255 255 255   255 255 255   255 255 255   255 255 255   255 255 255   255 255 255   255 255 255   255 255 255   255 255 255   255 255 255   255 255 255   255 255 255   255 255 255   255 255 255   255 255 255   255 255 255   255 255 255   255 255 255   255 255 255   255 255 255   255 255 255   255 255 255   255 255 255   255 255 255   255 255 255   255 255 255   255 255 255   255 255 255   255 255 255   255 255 255   255 255 255   255 255 255   255 255 255   255 255 255   255 255 255   255 255 255   255 255 255   255 255 255   255 255 255   255 255 255   255 255 255   255 255 255   255 255 255   255 255 255   255 255 255   255 255 255   255 255 255   255 255 255   255 255 255   255 255 255   255 255 255   255 255 255   255 255 255   255 255 255   255 255 255   255 255 255   255 255 255   255 255 255   255 255 255   255 255 255   255 255 255   255 255 255   255 255 255   255 255 255   255 255 255   255 255 255   255 255 255   255 255 255   255 255 255   255 255 255   255 255 255   255 255 255   255 255 255   255 255 255   255 255 255   255 255 255   255 255 255   255 255 255   255 255 255   255 255 255   255 255 255   255 255 255   255 255 255   255 255 255   255 255 255   255 255 255   255 255 255   255 255 255   255 255 255   255 255 255   255 255 255   255 255 255   255 255 255   255 255 255   255 255 255   255 255 255   255 255 255   255 255 255   255 255 255   255 255 255   255 255 255   255 255 255   255 255 255   255 255 255   255 255 255   255 255 255   255 255 255   255 255 255   255 255 255   255 255 255   255 255 255   255 255 255   255 255 255   255 255 255   255 255 255   255 255 255   255 255 255   255 255 255   255 255 255   255 255 255   255 255 255   255 255 255   255 255 255   255 255 255   255 255 255   255 255 255   255 255 255   255 255 255   255 255 255   255 255 255   255 255 255   255 255 255   255 255 255   255 255 255   255 255 255   255 255 255   255 255 255   255 255 255   255 255 255   255 255 255   255 255 255   255 255 255   255 255 255   255 255 255   255 255 255   255 255 255   255 255 255   255 255 255   255 255 255   255 255 255   255 255 255   255 255 255   255 255 255   255 255 255   255 255 255   255 255 255   255 255 255   255 255 255   255 255 255   255 255 255   255 255 255   255 255 255
255 255 255   255 255 255   255 255 255   255 255 255   255 255 255   255 255 255   255 255 255   255 255 255   255 255 255   255 255 255   255 255 255   255 255 255   255 255 255   255 255 255   255 255 255   255 255 255   255 255 255   255 255 255   255 255 255   255 255 255   255 255 255   255 255 255   255 255 255   255 255 255   255 255 255   255 255 255   255 255 255   255 255 255   255 255 255   255 255 255   255 255 255   255 255 255   255 255 255   255 255 255   255 255 255   255 255 255   255 255 255   255 255 255   255 255 255   255 255 255   255 255 255   255 255 255   255 255 255   255 255 255   255 255 255   255 255 255   255 255 255   255 255 255   255 255 255   255 255 255   255 255 255   255 255 255   255 255 255   255 255 255   255 255 255   255 255 255   255 255 255   255 255 255   255 255 255   255 255 255   255 255 255   255 255 255   255 255 255   255 255 255   255 255 255   255 255 255   255 255 255   255 255 255   255 255 255   255 255 255   255 255 255   255 255 255   255 255 255   255 255 255   255 255 255   255 255 255   255 255 255   255 255 255   255 255 255   255 255 255   255 255 255   255 255 255   255 255 255   255 255 255   255 255 255   255 255 255   255 255 255   255 255 255   255 255 255   255 255 255   255 255 255   255 255 255   255 255 255   255 255 255   255 255 255   255 255 255   255 255 255   255 255 255   255 255 255   255 255 255   255 255 255   255 255 255   255 255 255   255 255 255   255 255 255   255 255 255   255 255 255   255 255 255   255 255 255   255 255 255   255 255 255   255 255 255   255 255 255   255 255 255   255 255 255   255 255 255   255 255 255   255 255 255   255 255 255   255 255 255   255 255 255   255 255 255   255 255 255   255 255 255   255 255 255   255 255 255   255 255 255   255 255 255   255 255 255   255 255 255   255 255 255   255 255 255   255 255 255   255 255 255   255 255 255   255 255 255   255 255 255   255 255 255   255 255 255   255 255 255   255 255 255   255 255 255   255 255 255   255 255 255   255 255 255   255 255 255   255 255 255   255 255 255   255 255 255   255 255 255   255 255 255   255 255 255   255 255 255   255 255 255   255 255 255   255 255 255   255 255 255   255 255 255   255 255 255   255 255 255   255 255 255   255 255 255   255 255 255   255 255 255   255 255 255   255 255 255   255 255 255   255 255 255   255 255 255   255 255 255   255 255 255   255 255 255   255 255 255   255 255 255   255 255 255   255 255 255   255 255 255   255 255 255   255 255 255   255 255 255   255 255 255   255 255 255   255 255 255   255 255 255   255 255 255   255 255 255   255 255 255   255 255 255   255 255 255   255 255 255   255 255 255   255 255 255   255 255 255   255 255 255   255 255 255   255 255 255   255 255 255   255 255 255   255 255 255   255 255 255   255 255 255   255 255 255   255 255 255   255 255 255   255 255 255   255 255 255   255 255 255   255 255 255   255 255 255   255 255 255   255 255 255   255 255 255   255 255 255   255 255 255   255 255 255   255 255 255   255 255 255   255 255 255   255 255 255   255 255 255   255 255 255   255 255 255   255 255 255   255 255 255   255 255 255   255 255 255   255 255 255   255 255 255   255 255 255   255 255 255   255 255 255   255 255 255   255 255 255   255 255 255   255 255 255   255 255 255   255 255 255   255 255 255   255 255 255   255 255 255   255 255 255   255 255 255   255 255 255   255 255 255   255 255 255   255 255 255   255 255 255   255 255 255   255 255 255   255 255 255   255 255 255   255 255 255   255 255 255   255 255 255   255 255 255   255 255 255
255 255 255   255 255 255   255 255 255   255 255 255   255 255 255   255 255 255   255 255 255   255 255 255   255 255 255   255 255 255   255 255 255   255 255 255   255 255 255   255 255 255   255 255 255   255 255 255   255 255 255   255 255 255   255 255 255   255 255 255   255 255 255   255 255 255   255 255 255   255 255 255   255 255 255   255 255 255   255 255 255   255 255 255   255 255 255   255 255 255   255 255 255   255 255 255   255 255 255   255 255 255   255 255 255   255 255 255   255 255 255   255 255 255   255 255 255   255 255 255   255 255 255   255 255 255   255 255 255   255 255 255   255 255 255   255 255 255   255 255 255   255 255 255   255 255 255   255 255 255   255 255 255   255 255 255   255 255 255   255 255 255   255 255 255   255 255 255   255 255 255   255 255 255   255 255 255   255 255 255   255 255 255   255 255 255   255 255 255   255 255 255   255 255 255   255 255 255   255 255 255   255 255 255   255 255 255   255 255 255   255 255 255   255 255 255   255 255 255   255 255 255   255 255 255   255 255 255   255 255 255   255 255 255   255 255 255   255 255 255   255 255 255   255 255 255   255 255 255   255 255 255   255 255 255   255 255 255   255 255 255   255 255 255   255 255 255   255 255 255   255 255 255   255 255 255   255 255 255   255 255 255   255 255 255   255 255 255   255 255 255   255 255 255   255 255 255   255 255 255   255 255 255   255 255 255   255 255 255   255 255 255   255 255 255   255 255 255   255 255 255   255 255 255   255 255 255   255 255 255   255 255 255   255 255 255   255 255 255   255 255 255   255 255 255   255 255 255   255 255 255   255 255 255   255 255 255   255 255 255   255 255 255   255 255 255   255 255 255   255 255 255   255 255 255   255 255 255   255 255 255   255 255 255   255 255 255   255 255 255   255 255 255   255 255 255   255 255 255   255 255 255   255 255 255   255 255 255   255 255 255   255 255 255   255 255 255   255 255 255   255 255 255   255 255 255   255 255 255   255 255 255   255 255 255   255 255 255   255 255 255   255 255 255   255 255 255   255 255 255   255 255 255   255 255 255   255 255 255   255 255 255   255 255 255   255 255 255   255 255 255   255 255 255   255 255 255   255 255 255   255 255 255   255 255 255   255 255 255   255 255 255   255 255 255   255 255 255   255 255 255   255 255 255   255 255 255   255 255 255   255 255 255   255 255 255   255 255 255   255 255 255   255 255 255   255 255 255   255 255 255   255 255 255   255 255 255   255 255 255   255 255 255   255 255 255   255 255 255   255 255 255   255 255 255   255 255 255   255 255 255   255 255 255   255 255 255   255 255 255   255 255 255   255 255 255   255 255 255   255 255 255   255 255 255   255 255 255   255 255 255   255 255 255   255 255 255   255 255 255   255 255 255   255 255 255   255 255 255   255 255 255   255 255 255   255 255 255   255 255 255   255 255 255   255 255 255   255 255 255   255 255 255   255 255 255   255 255 255   255 255 255   255 255 255   255 255 255   255 255 255   255 255 255   255 255 255   255 255 255   255 255 255   255 255 255   255 255 255   255 255 255   255 255 255   255 255 255   255 255 255   255 255 255   255 255 255   255 255 255   255 255 255   255 255 255   255 255 255   255 255 255   255 255 255   255 255 255   255 255 255   255 255 255   255 255 255   255 255 255   255 255 255   255 255 255   255 255 255   255 255 255   255 255 255   255 255 255   255 255 255   255 255 255   255 255 255   255 255 255   255 255 255   255 255 255   255 255 255   255 255 255   255 255 255   255 255 255
255 255 255   255 255 255   255 255 255   255 255 255   255 255 255   255 255 255   255 255 255   255 255 255   255 255 255   255 255 255   255 255 255   255 255 255   255 255 255   255 255 255   255 255 255   255 255 255   255 255 255   255 255 255   255 255 255   255 255 255   255 255 255   255 255 255   255 255 255   255 255 255   255 255 255   255 255 255   255 255 255   255 255 255   255 255 255   255 255 255   255 255 255   255 255 255   255 255 255   255 255 255   255 255 255   255 255 255   255 255 255   255 255 255   255 255 255   255 255 255   255 255 255   255 255 255   255 255 255   255 255 255   255 255 255   255 255 255   255 255 255   255 255 255   255 255 255   255 255 255   255 255 255   255 255 255   255 255 255   255 255 255   255 255 255   255 255 255   255 255 255   255 255 255   255 255 255   255 255 255   255 255 255   255 255 255   255 255 255   255 255 255   255 255 255   255 255 255   255 255 255   255 255 255   255 255 255   255 255 255   255 255 255   255 255 255   255 255 255   255 255 255   255 255 255   255 255 255   255 255 255   255 255 255   255 255 255   255 255 255   255 255 255   255 255 255   255 255 255   255 255 255   255 255 255   255 255 255   255 255 255   255 255 255   255 255 255   255 255 255   255 255 255   255 255 255   255 255 255   255 255 255   255 255 255   255 255 255   255 255 255   255 255 255   255 255 255   255 255 255   255 255 255   255 255 255   255 255 255   255 255 255   255 255 255   255 255 255   255 255 255   255 255 255   255 255 255   255 255 255   255 255 255   255 255 255   255 255 255   255 255 255   255 255 255   255 255 255   255 255 255   255 255 255   255 255 255   255 255 255   255 255 255   255 255 255   255 255 255   255 255 255   255 255 255   255 255 255   255 255 255   255 255 255   255 255 255   255 255 255   255 255 255   255 255 255   255 255 255   255 255 255   255 255 255   255 255 255   255 255 255   255 255 255   255 255 255   255 255 255   255 255 255   255 255 255   255 255 255   255 255 255   255 255 255   255 255 255   255 255 255   255 255 255   255 255 255   255 255 255   255 255 255   255 255 255   255 255 255   255 255 255   255 255 255   255 255 255   255 255 255   255 255 255   255 255 255   255 255 255   255 255 255   255 255 255   255 255 255   255 255 255   255 255 255   255 255 255   255 255 255   255 255 255   255 255 255   255 255 255   255 255 255   255 255 255   255 255 255   255 255 255   255 255 255   255 255 255   255 255 255   255 255 255   255 255 255   255 255 255   255 255 255   255 255 255   255 255 255   255 255 255   255 255 255   255 255 255   255 255 255   255 255 255   255 255 255   255 255 255   255 255 255   255 255 255   255 255 255   255 255 255   255 255 255   255 255 255   255 255 255   255 255 255   255 255 255   255 255 255   255 255 255   255 255 255   255 255 255   255 255 255   255 255 255   255 255 255   255 255 255   255 255 255   255 255 255   255 255 255   255 255 255   255 255 255   255 255 255   255 255 255   255 255 255   255 255 255   255 255 255   255 255 255   255 255 255   255 255 255   255 255 255   255 255 255   255 255 255   255 255 255   255 255 255   255 255 255   255 255 255   255 255 255   255 255 255   255 255 255   255 255 255   255 255 255   255 255 255   255 255 255   255 255 255   255 255 255   255 255 255   255 255 255   255 255 255   255 255 255   255 255 255   255 255 255   255 255 255   255 255 255   255 255 255   255 255 255   255 255 255   255 255 255   255 255 255   255 255 255   255 255 255   255 255 255   255 255 255   255 255 255   255 255 255   255 255 255
255 255 255   255 255 255   255 255 255   255 255 255   255 255 255   255 255 255   255 255 255   255 255 255   255 255 255   255 255 255   255 255 255   255 255 255   255 255 255   255 255 255   255 255 255   255 255 255   255 255 255   255 255 255   255 255 255   255 255 255   255 255 255   255 255 255   255 255 255   255 255 255   255 255 255   255 255 255   255 255 255   255 255 255   255 255 255   255 255 255   255 255 255   255 255 255   255 255 255   255 255 255   255 255 255   255 255 255   255 255 255   255 255 255   255 255 255   255 255 255   255 255 255   255 255 255   255 255 255   255 255 255   255 255 255   255 255 255   255 255 255   255 255 255   255 255 255   255 255 255   255 255 255   255 255 255   255 255 255   255 255 255   255 255 255   255 255 255   255 255 255   255 255 255   255 255 255   255 255 255   255 255 255   255 255 255   255 255 255   255 255 255   255 255 255   255 255 255   255 255 255   255 255 255   255 255 255   255 255 255   255 255 255   255 255 255   255 255 255   255 255 255   255 255 255   255 255 255   255 255 255   255 255 255   255 255 255   255 255 255   255 255 255   255 255 255   255 255 255   255 255 255   255 255 255   255 255 255   255 255 255   255 255 255   255 255 255   255 255 255   255 255 255   255 255 255   255 255 255   255 255 255   255 255 255   255 255 255   255 255 255   255 255 255   255 255 255   255 255 255   255 255 255   255 255 255   255 255 255   255 255 255   255 255 255   255 255 255   255 255 255   255 255 255   255 255 255   255 255 255   255 255 255   255 255 255   255 255 255   255 255 255   255 255 255   255 255 255   255 255 255   255 255 255   255 255 255   255 255 255   255 255 255   255 255 255   255 255 255   255 255 255   255 255 255   255 255 255   255 255 255   255 255 255   255 255 255   255 255 255   255 255 255   255 255 255   255 255 255   255 255 255   255 255 255   255 255 255   255 255 255   255 255 255   255 255 255   255 255 255   255 255 255   255 255 255   255 255 255   255 255 255   255 255 255   255 255 255   255 255 255   255 255 255   255 255 255   255 255 255   255 255 255   255 255 255   255 255 255   255 255 255   255 255 255   255 255 255   255 255 255   255 255 255   255 255 255   255 255 255   255 255 255   255 255 255   255 255 255   255 255 255   255 255 255   255 255 255   255 255 255   255 255 255   255 255 255   255 255 255   255 255 255   255 255 255   255 255 255   255 255 255   255 255 255   255 255 255   255 255 255   255 255 255   255 255 255   255 255 255   255 255 255   255 255 255   255 255 255   255 255 255   255 255 255   255 255 255   255 255 255   255 255 255   255 255 255   255 255 255   255 255 255   255 255 255   255 255 255   255 255 255   255 255 255   255 255 255   255 255 255   255 255 255   255 255 255   255 255 255   255 255 255   255 255 255   255 255 255   255 255 255   255 255 255   255 255 255   255 255 255   255 255 255   255 255 255   255 255 255   255 255 255   255 255 255   255 255 255   255 255 255   255 255 255   255 255 255   255 255 255   255 255 255   255 255 255   255 255 255   255 255 255   255 255 255   255 255 255   255 255 255   255 255 255   255 255 255   255 255 255   255 255 255   255 255 255   255 255 255   255 255 255   255 255 255   255 255 255   255 255 255   255 255 255   255 255 255   255 255 255   255 255 255   255 255 255   255 255 255   255 255 255   255 255 255   255 255 255   255 255 255   255 255 255   255 255 255   255 255 255   255 255 255   255 255 255   255 255 255   255 255 255   255 255 255   255 255 255   255 255 255   255 255 255   255 255 255
255 255 255   255 255 255   255 255 255   255 255 255   255 255 255   255 255 255   255 255 255   255 255 255   255 255 255   255 255 255   255 255 255   255 255 255   255 255 255   255 255 255   255 255 255   255 255 255   255 255 255   255 255 255   255 255 255   255 255 255   255 255 255   255 255 255   255 255 255   255 255 255   255 255 255   255 255 255   255 255 255   255 255 255   255 255 255   255 255 255   255 255 255   255 255 255   255 255 255   255 255 255   255 255 255   255 255 255   255 255 255   255 255 255   255 255 255   255 255 255   255 255 255   255 255 255   255 255 255   255 255 255   255 255 255   255 255 255   255 255 255   255 255 255   255 255 255   255 255 255   255 255 255   255 255 255   255 255 255   255 255 255   255 255 255   255 255 255   255 255 255   255 255 255   255 255 255   255 255 255   255 255 255   255 255 255   255 255 255   255 255 255   255 255 255   255 255 255   255 255 255   255 255 255   255 255 255   255 255 255   255 255 255   255 255 255   255 255 255   255 255 255   255 255 255   255 255 255   255 255 255   255 255 255   255 255 255   255 255 255   255 255 255   255 255 255   255 255 255   255 255 255   255 255 255   255 255 255   255 255 255   255 255 255   255 255 255   255 255 255   255 255 255   255 255 255   255 255 255   255 255 255   255 255 255   255 255 255   255 255 255   255 255 255   255 255 255   255 255 255   255 255 255   255 255 255   255 255 255   255 255 255   255 255 255   255 255 255   255 255 255   255 255 255   255 255 255   255 255 255   255 255 255   255 255 255   255 255 255   255 255 255   255 255 255   255 255 255   255 255 255   255 255 255   255 255 255   255 255 255   255 255 255   255 255 255   255 255 255   255 255 255   255 255 255   255 255 255   255 255 255   255 255 255   255 255 255   255 255 255   255 255 255   255 255 255   255 255 255   255 255 255   255 255 255   255 255 255   255 255 255   255 255 255   255 255 255   255 255 255   255 255 255   255 255 255   255 255 255   255 255 255   255 255 255   255 255 255   255 255 255   255 255 255   255 255 255   255 255 255   255 255 255   255 255 255   255 255 255   255 255 255   255 255 255   255 255 255   255 255 255   255 255 255   255 255 255   255 255 255   255 255 255   255 255 255   255 255 255   255 255 255   255 255 255   255 255 255   255 255 255   255 255 255   255 255 255   255 255 255   255 255 255   255 255 255   255 255 255   255 255 255   255 255 255   255 255 255   255 255 255   255 255 255   255 255 255   255 255 255   255 255 255   255 255 255   255 255 255   255 255 255   255 255 255   255 255 255   255 255 255   255 255 255   255 255 255   255 255 255   255 255 255   255 255 255   255 255 255   255 255 255   255 255 255   255 255 255   255 255 255   255 255 255   255 255 255   255 255 255   255 255 255   255 255 255   255 255 255   255 255 255   255 255 255   255 255 255   255 255 255   255 255 255   255 255 255   255 255 255   255 255 255   255 255 255   255 255 255   255 255 255   255 255 255   255 255 255   255 255 255   255 255 255   255 255 255   255 255 255   255 255 255   255 255 255   255 255 255   255 255 255   255 255 255   255 255 255   255 255 255   255 255 255   255 255 255   255 255 255   255 255 255   255 255 255   255 255 255   255 255 255   255 255 255   255 255 255   255 255 255   255 255 255   255 255 255   255 255 255   255 255 255   255 255 255   255 255 255   255 255 255   255 255 255   255 255 255   255 255 255   255 255 255   255 255 255   255 255 255   255 255 255   255 255 255   255 255 255   255 255 255   255 255 255   255 255 255
255 255 255   255 255 255   255 255 255   255 255 255   255 255 255   255 255 255   255 255 255   255 255 255   255 255 255   255 255 255   255 255 255   255 255 255   255 255 255   255 255 255   255 255 255   255 255 255   255 255 255   255 255 255   255 255 255   255 255 255   255 255 255   255 255 255   255 255 255   255 255 255   255 255 255   255 255 255   255 255 255   255 255 255   255 255 255   255 255 255   255 255 255   255 255 255   255 255 255   255 255 255   255 255 255   255 255 255   255 255 255   255 255 255   255 255 255   255 255 255   255 255 255   255 255 255   255 255 255   255 255 255   255 255 255   255 255 255   255 255 255   255 255 255   255 255 255   255 255 255   255 255 255   255 255 255   255 255 255   255 255 255   255 255 255   255 255 255   255 255 255   255 255 255   255 255 255   255 255 255   255 255 255   255 255 255   255 255 255   255 255 255   255 255 255   255 255 255   255 255 255   255 255 255   255 255 255   255 255 255   255 255 255   255 255 255   255 255 255   255 255 255   255 255 255   255 255 255   255 255 255   255 255 255   255 255 255   255 255 255   255 255 255   255 255 255   255 255 255   255 255 255   255 255 255   255 255 255   255 255 255   255 255 255   255 255 255   255 255 255   255 255 255   255 255 255   255 255 255   255 255 255   255 255 255   255 255 255   255 255 255   255 255 255   255 255 255   255 255 255   255 255 255   255 255 255   255 255 255   255 255 255   255 255 255   255 255 255   255 255 255   255 255 255   255 255 255   255 255 255   255 255 255   255 255 255   255 255 255   255 255 255   255 255 255   255 255 255   255 255 255   255 255 255   255 255 255   255 255 255   255 255 255   255 255 255   255 255 255   255 255 255   255 255 255   255 255 255   255 255 255   255 255 255   255 255 255   255 255 255   255 255 255   255 255 255   255 255 255   255 255 255   255 255 255   255 255 255   255 255 255   255 255 255   255 255 255   255 255 255   255 255 255   255 255 255   255 255 255   255 255 255   255 255 255   255 255 255   255 255 255   255 255 255   255 255 255   255 255 255   255 255 255   255 255 255   255 255 255   255 255 255   255 255 255   255 255 255   255 255 255   255 255 255   255 255 255   255 255 255   255 255 255   255 255 255   255 255 255   255 255 255   255 255 255   255 255 255   255 255 255   255 255 255   255 255 255   255 255 255   255 255 255   255 255 255   255 255 255   255 255 255   255 255 255   255 255 255   255 255 255   255 255 255   255 255 255   255 255 255   255 255 255   255 255 255   255 255 255   255 255 255   255 255 255   255 255 255   255 255 255   255 255 255   255 255 255   255 255 255   255 255 255   255 255 255   255 255 255   255 255 255   255 255 255   255 255 255   255 255 255   255 255 255   255 255 255   255 255 255   255 255 255   255 255 255   255 255 255   255 255 255   255 255 255   255 255 255   255 255 255   255 255 255   255 255 255   255 255 255   255 255 255   255 255 255   255 255 255   255 255 255   255 255 255   255 255 255   255 255 255   255 255 255   255 255 255   255 255 255   255 255 255   255 255 255   255 255 255   255 255 255   255 255 255   255 255 255   255 255 255   255 255 255   255 255 255   255 255 255   255 255 255   255 255 255   255 255 255   255 255 255   255 255 255   255 255 255   255 255 255   255 255 255   255 255 255   255 255 255   255 255 255   255 255 255   255 255 255   255 255 255   255 255 255   255 255 255   255 255 255   255 255 255   255 255 255   255 255 255   255 255 255   255 255 255   255 255 255   255 255 255   255 255 255   255 255 255
255 255 255   255 255 255   255 255 255   255 255 255   255 255 255   255 255 255   255 255 255   255 255 255   255 255 255   255 255 255   255 255 255   255 255 255   255 255 255   255 255 255   255 255 255   255 255 255   255 255 255   255 255 255   255 255 255   255 255 255   255 255 255   255 255 255   255 255 255   255 255 255   255 255 255   255 255 255   255 255 255   255 255 255   255 255 255   255 255 255   255 255 255   255 255 255   255 255 255   255 255 255   255 255 255   255 255 255   255 255 255   255 255 255   255 255 255   255 255 255   255 255 255   255 255 255   255 255 255   255 255 255   255 255 255   255 255 255   255 255 255   255 255 255   255 255 255   255 255 255   255 255 255   255 255 255   255 255 255   255 255 255   255 255 255   255 255 255   255 255 255   255 255 255   255 255 255   255 255 255   255 255 255   255 255 255   255 255 255   255 255 255   255 255 255   255 255 255   255 255 255   255 255 255   255 255 255   255 255 255   255 255 255   255 255 255   255 255 255   255 255 255   255 255 255   255 255 255   255 255 255   255 255 255   255 255 255   255 255 255   255 255 255   255 255 255   255 255 255   255 255 255   255 255 255   255 255 255   255 255 255   255 255 255   255 255 255   255 255 255   255 255 255   255 255 255   255 255 255   255 255 255   255 255 255   255 255 255   255 255 255   255 255 255   255 255 255   255 255 255   255 255 255   255 255 255   255 255 255   255 255 255   255 255 255   255 255 255   255 255 255   255 255 255   255 255 255   255 255 255   255 255 255   255 255 255   255 255 255   255 255 255   255 255 255   255 255 255   255 255 255   255 255 255   255 255 255   255 255 255   255 255 255   255 255 255   255 255 255   255 255 255   255 255 255   255 255 255   255 255 255   255 255 255   255 255 255   255 255 255   255 255 255   255 255 255   255 255 255   255 255 255   255 255 255   255 255 255   255 255 255   255 255 255   255 255 255   255 255 255   255 255 255   255 255 255   255 255 255   255 255 255   255 255 255   255 255 255   255 255 255   255 255 255   255 255 255   255 255 255   255 255 255   255 255 255   255 255 255   255 255 255   255 255 255   255 255 255   255 255 255   255 255 255   255 255 255   255 255 255   255 255 255   255 255 255   255 255 255   255 255 255   255 255 255   255 255 255   255 255 255   255 255 255   255 255 255   255 255 255   255 255 255   255 255 255   255 255 255   255 255 255   255 255 255   255 255 255   255 255 255   255 255 255   255 255 255   255 255 255   255 255 255   255 255 255   255 255 255   255 255 255   255 255 255   255 255 255   255 255 255   255 255 255   255 255 255   255 255 255   255 255 255   255 255 255   255 255 255   255 255 255   255 255 255   255 255 255   255 255 255   255 255 255   255 255 255   255 255 255   255 255 255   255 255 255   255 255 255   255 255 255   255 255 255   255 255 255   255 255 255   255 255 255   255 255 255   255 255 255   255 255 255   255 255 255   255 255 255   255 255 255   255 255 255   255 255 255   255 255 255   255 255 255   255 255 255   255 255 255   255 255 255   255 255 255   255 255 255   255 255 255   255 255 255   255 255 255   255 255 255   255 255 255   255 255 255   255 255 255   255 255 255   255 255 255   255 255 255   255 255 255   255 255 255   255 255 255   255 255 255   255 255 255   255 255 255   255 255 255   255 255 255   255 255 255   255 255 255   255 255 255   255 255 255   255 255 255   255 255 255   255 255 255   255 255 255   255 255 255   255 255 255   255 255 255   255 255 255   255 255 255   255 255 255   255 255 255
255 255 255   255 255 255   255 255 255   255 255 255   255 255 255   255 255 255   255 255 255   255 255 255   255 255 255   255 255 255   255 255 255   255 255 255   255 255 255   255 255 255   255 255 255   255 255 255   255 255 255   255 255 255   255 255 255   255 255 255   255 255 255   255 255 255   255 255 255   255 255 255   255 255 255   255 255 255   255 255 255   255 255 255   255 255 255   255 255 255   255 255 255   255 255 255   255 255 255   255 255 255   255 255 255   255 255 255   255 255 255   255 255 255   255 255 255   255 255 255   255 255 255   255 255 255   255 255 255   255 255 255   255 255 255   255 255 255   255 255 255   255 255 255   255 255 255   255 255 255   255 255 255   255 255 255   255 255 255   255 255 255   255 255 255   255 255 255   255 255 255   255 255 255   255 255 255   255 255 255   255 255 255   255 255 255   255 255 255   255 255 255   255 255 255   255 255 255   255 255 255   255 255 255   255 255 255   255 255 255   255 255 255   255 255 255   255 255 255   255 255 255   255 255 255   255 255 255   255 255 255   255 255 255   255 255 255   255 255 255   255 255 255   255 255 255   255 255 255   255 255 255   255 255 255   255 255 255   255 255 255   255 255 255   255 255 255   255 255 255   255 255 255   255 255 255   255 255 255   255 255 255   255 255 255   255 255 255   255 255 255   255 255 255   255 255 255   255 255 255   255 255 255   255 255 255   255 255 255   255 255 255   255 255 255   255 255 255   255 255 255   255 255 255   255 255 255   255 255 255   255 255 255   255 255 255   255 255 255   255 255 255   255 255 255   255 255 255   255 255 255   255 255 255   255 255 255   255 255 255   255 255 255   255 255 255   255 255 255   255 255 255   255 255 255   255 255 255   255 255 255   255 255 255   255 255 255   255 255 255   255 255 255   255 255 255   255 255 255   255 255 255   255 255 255   255 255 255   255 255 255   255 255 255   255 255 255   255 255 255   255 255 255   255 255 255   255 255 255   255 255 255   255 255 255   255 255 255   255 255 255   255 255 255   255 255 255   255 255 255   255 255 255   255 255 255   255 255 255   255 255 255   255 255 255   255 255 255   255 255 255   255 255 255   255 255 255   255 255 255   255 255 255   255 255 255   255 255 255   255 255 255   255 255 255   255 255 255   255 255 255   255 255 255   255 255 255   255 255 255   255 255 255   255 255 255   255 255 255   255 255 255   255 255 255   255 255 255   255 255 255   255 255 255   255 255 255   255 255 255   255 255 255   255 255 255   255 255 255   255 255 255   255 255 255   255 255 255   255 255 255   255 255 255   255 255 255   255 255 255   255 255 255   255 255 255   255 255 255   255 255 255   255 255 255   255 255 255   255 255 255   255 255 255   255 255 255   255 255 255   255 255 255   255 255 255   255 255 255   255 255 255   255 255 255   255 255 255   255 255 255   255 255 255   255 255 255   255 255 255   255 255 255   255 255 255   255 255 255   255 255 255   255 255 255   255 255 255   255 255 255   255 255 255   255 255 255   255 255 255   255 255 255   255 255 255   255 255 255   255 255 255   255 255 255   255 255 255   255 255 255   255 255 255   255 255 255   255 255 255   255 255 255   255 255 255   255 255 255   255 255 255   255 255 255   255 255 255   255 255 255   255 255 255   255 255 255   255 255 255   255 255 255   255 255 255   255 255 255   255 255 255   255 255 255   255 255 255   255 255 255   255 255 255   255 255 255   255 255 255   255 255 255   255 255 255   255 255 255   255 255 255   255 255 255   255 255 255
255 255 255   255 255 255   255 255 255   255 255 255   255 255 255   255 255 255   255 255 255   255 255 255   255 255 255   255 255 255   255 255 255   255 255 255   255 255 255   255 255 255   255 255 255   255 255 255   255 255 255   255 255 255   255 255 255   255 255 255   255 255 255   255 255 255   255 255 255   255 255 255   255 255 255   255 255 255   255 255 255   255 255 255   255 255 255   255 255 255   255 255 255   255 255 255   255 255 255   255 255 255   255 255 255   255 255 255   255 255 255   255 255 255   255 255 255   255 255 255   255 255 255   255 255 255   255 255 255   255 255 255   255 255 255   255 255 255   255 255 255   255 255 255   255 255 255   255 255 255   255 255 255   255 255 255   255 255 255   255 255 255   255 255 255   255 255 255   255 255 255   255 255 255   255 255 255   255 255 255   255 255 255   255 255 255   255 255 255   255 255 255   255 255 255   255 255 255   255 255 255   255 255 255   255 255 255   255 255 255   255 255 255   255 255 255   255 255 255   255 255 255   255 255 255   255 255 255   255 255 255   255 255 255   255 255 255   255 255 255   255 255 255   255 255 255   255 255 255   255 255 255   255 255 255   255 255 255   255 255 255   255 255 255   255 255 255   255 255 255   255 255 255   255 255 255   255 255 255   255 255 255   255 255 255   255 255 255   255 255 255   255 255 255   255 255 255   255 255 255   255 255 255   255 255 255   255 255 255   255 255 255   255 255 255   255 255 255   255 255 255   255 255 255   255 255 255   255 255 255   255 255 255   255 255 255   255 255 255   255 255 255   255 255 255   255 255 255   255 255 255   255 255 255   255 255 255   255 255 255   255 255 255   255 255 255   255 255 255   255 255 255   255 255 255   255 255 255   255 255 255   255 255 255   255 255 255   255 255 255   255 255 255   255 255 255   255 255 255   255 255 255   255 255 255   255 255 255   255 255 255   255 255 255   255 255 255   255 255 255   255 255 255   255 255 255   255 255 255   255 255 255   255 255 255   255 255 255   255 255 255   255 255 255   255 255 255   255 255 255   255 255 255   255 255 255   255 255 255   255 255 255   255 255 255   255 255 255   255 255 255   255 255 255   255 255 255   255 255 255   255 255 255   255 255 255   255 255 255   255 255 255   255 255 255   255 255 255   255 255 255   255 255 255   255 255 255   255 255 255   255 255 255   255 255 255   255 255 255   255 255 255   255 255 255   255 255 255   255 255 255   255 255 255   255 255 255   255 255 255   255 255 255   255 255 255   255 255 255   255 255 255   255 255 255   255 255 255   255 255 255   255 255 255   255 255 255   255 255 255   255 255 255   255 255 255   255 255 255   255 255 255   255 255 255   255 255 255   255 255 255   255 255 255   255 255 255   255 255 255   255 255 255   255 255 255   255 255 255   255 255 255   255 255 255   255 255 255   255 255 255   255 255 255   255 255 255   255 255 255   255 255 255   255 255 255   255 255 255   255 255 255   255 255 255   255 255 255   255 255 255   255 255 255   255 255 255   255 255 255   255 255 255   255 255 255   255 255 255   255 255 255   255 255 255   255 255 255   255 255 255   255 255 255   255 255 255   255 255 255   255 255 255   255 255 255   255 255 255   255 255 255   255 255 255   255 255 255   255 255 255   255 255 255   255 255 255   255 255 255   255 255 255   255 255 255   255 255 255   255 255 255   255 255 255   255 255 255   255 255 255   255 255 255   255 255 255   255 255 255   255 255 255   255 255 255   255 255 255   255 255 255   255 255 255   255 255 255
255 255 255   255 255 255   255 255 255   255 255 255   255 255 255   255 255 255   255 255 255   255 255 255   255 255 255   255 255 255   255 255 255   255 255 255   255 255 255   255 255 255   255 255 255   255 255 255   255 255 255   255 255 255   255 255 255   255 255 255   255 255 255   255 255 255   255 255 255   255 255 255   255 255 255   255 255 255   255 255 255   255 255 255   255 255 255   255 255 255   255 255 255   255 255 255   255 255 255   255 255 255   255 255 255   255 255 255   255 255 255   255 255 255   255 255 255   255 255 255   255 255 255   255 255 255   255 255 255   255 255 255   255 255 255   255 255 255   255 255 255   255 255 255   255 255 255   255 255 255   255 255 255   255 255 255   255 255 255   255 255 255   255 255 255   255 255 255   255 255 255   255 255 255   255 255 255   255 255 255   255 255 255   255 255 255   255 255 255   255 255 255   255 255 255   255 255 255   255 255 255   255 255 255   255 255 255   255 255 255   255 255 255   255 255 255   255 255 255   255 255 255   255 255 255   255 255 255   255 255 255   255 255 255   255 255 255   255 255 255   255 255 255   255 255 255   255 255 255   255 255 255   255 255 255   255 255 255   255 255 255   255 255 255   255 255 255   255 255 255   255 255 255   255 255 255   255 255 255   255 255 255   255 255 255   255 255 255   255 255 255   255 255 255   255 255 255   255 255 255   255 255 255   255 255 255   255 255 255   255 255 255   255 255 255   255 255 255   255 255 255   255 255 255   255 255 255   255 255 255   255 255 255   255 255 255   255 255 255   255 255 255   255 255 255   255 255 255   255 255 255   255 255 255   255 255 255   255 255 255   255 255 255   255 255 255   255 255 255   255 255 255   255 255 255   255 255 255   255 255 255   255 255 255   255 255 255   255 255 255   255 255 255   255 255 255   255 255 255   255 255 255   255 255 255   255 255 255   255 255 255   255 255 255   255 255 255   255 255 255   255 255 255   255 255 255   255 255 255   255 255 255   255 255 255   255 255 255   255 255 255   255 255 255   255 255 255   255 255 255   255 255 255   255 255 255   255 255 255   255 255 255   255 255 255   255 255 255   255 255 255   255 255 255   255 255 255   255 255 255   255 255 255   255 255 255   255 255 255   255 255 255   255 255 255   255 255 255   255 255 255   255 255 255   255 255 255   255 255 255   255 255 255   255 255 255   255 255 255   255 255 255   255 255 255   255 255 255   255 255 255   255 255 255   255 255 255   255 255 255   255 255 255   255 255 255   255 255 255   255 255 255   255 255 255   255 255 255   255 255 255   255 255 255   255 255 255   255 255 255   255 255 255   255 255 255   255 255 255   255 255 255   255 255 255   255 255 255   255 255 255   255 255 255   255 255 255   255 255 255   255 255 255   255 255 255   255 255 255   255 255 255   255 255 255   255 255 255   255 255 255   255 255 255   255 255 255   255 255 255   255 255 255   255 255 255   255 255 255   255 255 255   255 255 255   255 255 255   255 255 255   255 255 255   255 255 255   255 255 255   255 255 255   255 255 255   255 255 255   255 255 255   255 255 255   255 255 255   255 255 255   255 255 255   255 255 255   255 255 255   255 255 255   255 255 255   255 255 255   255 255 255   255 255 255   255 255 255   255 255 255   255 255 255   255 255 255   255 255 255   255 255 255   255 255 255   255 255 255   255 255 255   255 255 255   255 255 255   255 255 255   255 255 255   255 255 255   255 255 255   255 255 255   255 255 255   255 255 255   255 255 255   255 255 255   255 255 255
255 255 255   255 255 255   255 255 255   255 255 255   255 255 255   255 255 255   255 255 255   255 255 255   255 255 255   255 255 255   255 255 255   255 255 255   255 255 255   255 255 255   255 255 255   255 255 255   255 255 255   255 255 255   255 255 255   255 255 255   255 255 255   255 255 255   255 255 255   255 255 255   255 255 255   255 255 255   255 255 255   255 255 255   255 255 255   255 255 255   255 255 255   255 255 255   255 255 255   255 255 255   255 255 255   255 255 255   255 255 255   255 255 255   255 255 255   255 255 255   255 255 255   255 255 255   255 255 255   255 255 255   255 255 255   255 255 255   255 255 255   255 255 255   255 255 255   255 255 255   255 255 255   255 255 255   255 255 255   255 255 255   255 255 255   255 255 255   255 255 255   255 255 255   255 255 255   255 255 255   255 255 255   255 255 255   255 255 255   255 255 255   255 255 255   255 255 255   255 255 255   255 255 255   255 255 255   255 255 255   255 255 255   255 255 255   255 255 255   255 255 255   255 255 255   255 255 255   255 255 255   255 255 255   255 255 255   255 255 255   255 255 255   255 255 255   255 255 255   255 255 255   255 255 255   255 255 255   255 255 255   255 255 255   255 255 255   255 255 255   255 255 255   255 255 255   255 255 255   255 255 255   255 255 255   255 255 255   255 255 255   255 255 255   255 255 255   255 255 255   255 255 255   255 255 255   255 255 255   255 255 255   255 255 255   255 255 255   255 255 255   255 255 255   255 255 255   255 255 255   255 255 255   255 255 255   255 255 255   255 255 255   255 255 255   255 255 255   255 255 255   255 255 255   255 255 255   255 255 255   255 255 255   255 255 255   255 255 255   255 255 255   255 255 255   255 255 255   255 255 255   255 255 255   255 255 255   255 255 255   255 255 255   255 255 255   255 255 255   255 255 255   255 255 255   255 255 255   255 255 255   255 255 255   255 255 255   255 255 255   255 255 255   255 255 255   255 255 255   255 255 255   255 255 255   255 255 255   255 255 255   255 255 255   255 255 255   255 255 255   255 255 255   255 255 255   255 255 255   255 255 255   255 255 255   255 255 255   255 255 255   255 255 255   255 255 255   255 255 255   255 255 255   255 255 255   255 255 255   255 255 255   255 255 255   255 255 255   255 255 255   255 255 255   255 255 255   255 255 255   255 255 255   255 255 255   255 255 255   255 255 255   255 255 255   255 255 255   255 255 255   255 255 255   255 255 255   255 255 255   255 255 255   255 255 255   255 255 255   255 255 255   255 255 255   255 255 255   255 255 255   255 255 255   255 255 255   255 255 255   255 255 255   255 255 255   255 255 255   255 255 255   255 255 255   255 255 255   255 255 255   255 255 255   255 255 255   255 255 255   255 255 255   255 255 255   255 255 255   255 255 255   255 255 255   255 255 255   255 255 255   255 255 255   255 255 255   255 255 255   255 255 255   255 255 255   255 255 255   255 255 255   255 255 255   255 255 255   255 255 255   255 255 255   255 255 255   255 255 255   255 255 255   255 255 255   255 255 255   255 255 255   255 255 255   255 255 255   255 255 255   255 255 255   255 255 255   255 255 255   255 255 255   255 255 255   255 255 255   255 255 255   255 255 255   255 255 255   255 255 255   255 255 255   255 255 255   255 255 255   255 255 255   255 255 255   255 255 255   255 255 255   255 255 255   255 255 255   255 255 255   255 255 255   255 255 255   255 255 255   255 255 255   255 255 255   255 255 255   255 255 255   255 255 255   255 255 255
255 255 255   255 255 255   255 255 255   255 255 255   255 255 255   255 255 255   255 255 255   255 255 255   255 255 255   255 255 255   255 255 255   255 255 255   255 255 255   255 255 255   255 255 255   255 255 255   255 255 255   255 255 255   255 255 255   255 255 255   255 255 255   255 255 255   255 255 255   255 255 255   255 255 255   255 255 255   255 255 255   255 255 255   255 255 255   255 255 255   255 255 255   255 255 255   255 255 255   255 255 255   255 255 255   255 255 255   255 255 255   255 255 255   255 255 255   255 255 255   255 255 255   255 255 255   255 255 255   255 255 255   255 255 255   255 255 255   255 255 255   255 255 255   255 255 255   255 255 255   255 255 255   255 255 255   255 255 255   255 255 255   255 255 255   255 255 255   255 255 255   255 255 255   255 255 255   255 255 255   255 255 255   255 255 255   255 255 255   255 255 255   255 255 255   255 255 255   255 255 255   255 255 255   255 255 255   255 255 255   255 255 255   255 255 255   255 255 255   255 255 255   255 255 255   255 255 255   255 255 255   255 255 255   255 255 255   255 255 255   255 255 255   255 255 255   255 255 255   255 255 255   255 255 255   255 255 255   255 255 255   255 255 255   255 255 255   255 255 255   255 255 255   255 255 255   255 255 255   255 255 255   255 255 255   255 255 255   255 255 255   255 255 255   255 255 255   255 255 255   255 255 255   255 255 255   255 255 255   255 255 255   255 255 255   255 255 255   255 255 255   255 255 255   255 255 255   255 255 255   255 255 255   255 255 255   255 255 255   255 255 255   255 255 255   255 255 255   255 255 255   255 255 255   255 255 255   255 255 255   255 255 255   255 255 255   255 255 255   255 255 255   255 255 255   255 255 255   255 255 255   255 255 255   255 255 255   255 255 255   255 255 255   255 255 255   255 255 255   255 255 255   255 255 255   255 255 255   255 255 255   255 255 255   255 255 255   255 255 255   255 255 255   255 255 255   255 255 255   255 255 255   255 255 255   255 255 255   255 255 255   255 255 255   255 255 255   255 255 255   255 255 255   255 255 255   255 255 255   255 255 255   255 255 255   255 255 255   255 255 255   255 255 255   255 255 255   255 255 255   255 255 255   255 255 255   255 255 255   255 255 255   255 255 255   255 255 255   255 255 255   255 255 255   255 255 255   255 255 255   255 255 255   255 255 255   255 255 255   255 255 255   255 255 255   255 255 255   255 255 255   255 255 255   255 255 255   255 255 255   255 255 255   255 255 255   255 255 255   255 255 255   255 255 255   255 255 255   255 255 255   255 255 255   255 255 255   255 255 255   255 255 255   255 255 255   255 255 255   255 255 255   255 255 255   255 255 255   255 255 255   255 255 255   255 255 255   255 255 255   255 255 255   255 255 255   255 255 255   255 255 255   255 255 255   255 255 255   255 255 255   255 255 255   255 255 255   255 255 255   255 255 255   255 255 255   255 255 255   255 255 255   255 255 255   255 255 255   255 255 255   255 255 255   255 255 255   255 255 255   255 255 255   255 255 255   255 255 255   255 255 255   255 255 255   255 255 255   255 255 255   255 255 255   255 255 255   255 255 255   255 255 255   255 255 255   255 255 255   255 255 255   255 255 255   255 255 255   255 255 255   255 255 255   255 255 255   255 255 255   255 255 255   255 255 255   255 255 255   255 255 255   255 255 255   255 255 255   255 255 255   255 255 255   255 255 255   255 255 255   255 255 255   255 255 255   255 255 255   255 255 255   255 255 255   255 255 255
255 255 255   255 255 255   255 255 255   255 255 255   255 255 255   255 255 255   255 255 255   255 255 255   255 255 255   255 255 255   255 255 255   255 255 255   255 255 255   255 255 255   255 255 255   255 255 255   255 255 255   255 255 255   255 255 255   255 255 255   255 255 255   255 255 255   255 255 255   255 255 255   255 255 255   255 255 255   255 255 255   255 255 255   255 255 255   255 255 255   255 255 255   255 255 255   255 255 255   255 255 255   255 255 255   255 255 255   255 255 255   255 255 255   255 255 255   255 255 255   255 255 255   255 255 255   255 255 255   255 255 255   255 255 255   255 255 255   255 255 255   255 255 255   255 255 255   255 255 255   255 255 255   255 255 255   255 255 255   255 255 255   255 255 255   255 255 255   255 255 255   255 255 255   255 255 255   255 255 255   255 255 255   255 255 255   255 255 255   255 255 255   255 255 255   255 255 255   255 255 255   255 255 255   255 255 255   255 255 255   255 255 255   255 255 255   255 255 255   255 255 255   255 255 255   255 255 255   255 255 255   255 255 255   255 255 255   255 255 255   255 255 255   255 255 255   255 255 255   255 255 255   255 255 255   255 255 255   255 255 255   255 255 255   255 255 255   255 255 255   255 255 255   255 255 255   255 255 255   255 255 255   255 255 255   255 255 255   255 255 255   255 255 255   255 255 255   255 255 255   255 255 255   255 255 255   255 255 255   255 255 255   255 255 255   255 255 255   255 255 255   255 255 255   255 255 255   255 255 255   255 255 255   255 255 255   255 255 255   255 255 255   255 255 255   255 255 255   255 255 255   255 255 255   255 255 255   255 255 255   255 255 255   255 255 255   255 255 255   255 255 255   255 255 255   255 255 255   255 255 255   255 255 255   255 255 255   255 255 255   255 255 255   255 255 255   255 255 255   255 255 255   255 255 255   255 255 255   255 255 255   255 255 255   255 255 255   255 255 255   255 255 255   255 255 255   255 255 255   255 255 255   255 255 255   255 255 255   255 255 255   255 255 255   255 255 255   255 255 255   255 255 255   255 255 255   255 255 255   255 255 255   255 255 255   255 255 255   255 255 255   255 255 255   255 255 255   255 255 255   255 255 255   255 255 255   255 255 255   255 255 255   255 255 255   255 255 255   255 255 255   255 255 255   255 255 255   255 255 255   255 255 255   255 255 255   255 255 255   255 255 255   255 255 255   255 255 255   255 255 255   255 255 255   255 255 255   255 255 255   255 255 255   255 255 255   255 255 255   255 255 255   255 255 255   255 255 255   255 255 255   255 255 255   255 255 255   255 255 255   255 255 255   255 255 255   255 255 255   255 255 255   255 255 255   255 255 255   255 255 255   255 255 255   255 255 255   255 255 255   255 255 255   255 255 255   255 255 255   255 255 255   255 255 255   255 255 255   255 255 255   255 255 255   255 255 255   255 255 255   255 255 255   255 255 255   255 255 255   255 255 255   255 255 255   255 255 255   255 255 255   255 255 255   255 255 255   255 255 255   255 255 255   255 255 255   255 255 255   255 255 255   255 255 255   255 255 255   255 255 255   255 255 255   255 255 255   255 255 255   255 255 255   255 255 255   255 255 255   255 255 255   255 255 255   255 255 255   255 255 255   255 255 255   255 255 255   255 255 255   255 255 255   255 255 255   255 255 255   255 255 255   255 255 255   255 255 255   255 255 255   255 255 255   255 255 255   255 255 255   255 255 255   255 255 255   255 255 255   255 255 255   255 255 255   255 255 255
255 255 255   255 255 255   255 255 255   255 255 255   255 255 255   255 255 255   255 255 255   255 255 255   255 255 255   255 255 255   255 255 255   255 255 255   255 255 255   255 255 255   255 255 255   255 255 255   255 255 255   255 255 255   255 255 255   255 255 255   255 255 255   255 255 255   255 255 255   255 255 255   255 255 255   255 255 255   255 255 255   255 255 255   255 255 255   255 255 255   255 255 255   255 255 255   255 255 255   255 255 255   255 255 255   255 255 255   255 255 255   255 255 255   255 255 255   255 255 255   255 255 255   255 255 255   255 255 255   255 255 255   255 255 255   255 255 255   255 255 255   255 255 255   255 255 255   255 255 255   255 255 255   255 255 255   255 255 255   255 255 255   255 255 255   255 255 255   255 255 255   255 255 255   255 255 255   255 255 255   255 255 255   255 255 255   255 255 255   255 255 255   255 255 255   255 255 255   255 255 255   255 255 255   255 255 255   255 255 255   255 255 255   255 255 255   255 255 255   255 255 255   255 255 255   255 255 255   255 255 255   255 255 255   255 255 255   255 255 255   255 255 255   255 255 255   255 255 255   255 255 255   255 255 255   255 255 255   255 255 255   255 255 255   255 255 255   255 255 255   255 255 255   255 255 255   255 255 255   255 255 255   255 255 255   255 255 255   255 255 255   255 255 255   255 255 255   255 255 255   255 255 255   255 255 255   255 255 255   255 255 255   255 255 255   255 255 255   255 255 255   255 255 255   255 255 255   255 255 255   255 255 255   255 255 255   255 255 255   255 255 255   255 255 255   255 255 255   255 255 255   255 255 255   255 255 255   255 255 255   255 255 255   255 255 255   255 255 255   255 255 255   255 255 255   255 255 255   255 255 255   255 255 255   255 255 255   255 255 255   255 255 255   255 255 255   255 255 255   255 255 255   255 255 255   255 255 255   255 255 255   255 255 255   255 255 255   255 255 255   255 255 255   255 255 255   255 255 255   255 255 255   255 255 255   255 255 255   255 255 255   255 255 255   255 255 255   255 255 255   255 255 255   255 255 255   255 255 255   255 255 255   255 255 255   255 255 255   255 255 255   255 255 255   255 255 255   255 255 255   255 255 255   255 255 255   255 255 255   255 255 255   255 255 255   255 255 255   255 255 255   255 255 255   255 255 255   255 255 255   255 255 255   255 255 255   255 255 255   255 255 255   255 255 255   255 255 255   255 255 255   255 255 255   255 255 255   255 255 255   255 255 255   255 255 255   255 255 255   255 255 255   255 255 255   255 255 255   255 255 255   255 255 255   255 255 255   255 255 255   255 255 255   255 255 255   255 255 255   255 255 255   255 255 255   255 255 255   255 255 255   255 255 255   255 255 255   255 255 255   255 255 255   255 255 255   255 255 255   255 255 255   255 255 255   255 255 255   255 255 255   255 255 255   255 255 255   255 255 255   255 255 255   255 255 255   255 255 255   255 255 255   255 255 255   255 255 255   255 255 255   255 255 255   255 255 255   255 255 255   255 255 255   255 255 255   255 255 255   255 255 255   255 255 255   255 255 255   255 255 255   255 255 255   255 255 255   255 255 255   255 255 255   255 255 255   255 255 255   255 255 255   255 255 255   255 255 255   255 255 255   255 255 255   255 255 255   255 255 255   255 255 255   255 255 255   255 255 255   255 255 255   255 255 255   255 255 255   255 255 255   255 255 255   255 255 255   255 255 255   255 255 255   255 255 255   255 255 255   255 255 255   255 255 255   255 255 255
255 255 255   255 255 255   255 255 255   255 255 255   255 255 255   255 255 255   255 255 255   255 255 255   255 255 255   255 255 255   255 255 255   255 255 255   255 255 255   255 255 255   255 255 255   255 255 255   255 255 255   255 255 255   255 255 255   255 255 255   255 255 255   255 255 255   255 255 255   255 255 255   255 255 255   255 255 255   255 255 255   255 255 255   255 255 255   255 255 255   255 255 255   255 255 255   255 255 255   255 255 255   255 255 255   255 255 255   255 255 255   255 255 255   255 255 255   255 255 255   255 255 255   255 255 255   255 255 255   255 255 255   255 255 255   255 255 255   255 255 255   255 255 255   255 255 255   255 255 255   255 255 255   255 255 255   255 255 255   255 255 255   255 255 255   255 255 255   255 255 255   255 255 255   255 255 255   255 255 255   255 255 255   255 255 255   255 255 255   255 255 255   255 255 255   255 255 255   255 255 255   255 255 255   255 255 255   255 255 255   255 255 255   255 255 255   255 255 255   255 255 255   255 255 255   255 255 255   255 255 255   255 255 255   255 255 255   255 255 255   255 255 255   255 255 255   255 255 255   255 255 255   255 255 255   255 255 255   255 255 255   255 255 255   255 255 255   255 255 255   255 255 255   255 255 255   255 255 255   255 255 255   255 255 255   255 255 255   255 255 255   255 255 255   255 255 255   255 255 255   255 255 255   255 255 255   255 255 255   255 255 255   255 255 255   255 255 255   255 255 255   255 255 255   255 255 255   255 255 255   255 255 255   255 255 255   255 255 255   255 255 255   255 255 255   255 255 255   255 255 255   255 255 255   255 255 255   255 255 255   255 255 255   255 255 255   255 255 255   255 255 255   255 255 255   255 255 255   255 255 255   255 255 255   255 255 255   255 255 255   255 255 255   255 255 255   255 255 255   255 255 255   255 255 255   255 255 255   255 255 255   255 255 255   255 255 255   255 255 255   255 255 255   255 255 255   255 255 255   255 255 255   255 255 255   255 255 255   255 255 255   255 255 255   255 255 255   255 255 255   255 255 255   255 255 255   255 255 255   255 255 255   255 255 255   255 255 255   255 255 255   255 255 255   255 255 255   255 255 255   255 255 255   255 255 255   255 255 255   255 255 255   255 255 255   255 255 255   255 255 255   255 255 255   255 255 255   255 255 255   255 255 255   255 255 255   255 255 255   255 255 255   255 255 255   255 255 255   255 255 255   255 255 255   255 255 255   255 255 255   255 255 255   255 255 255   255 255 255   255 255 255   255 255 255   255 255 255   255 255 255   255 255 255   255 255 255   255 255 255   255 255 255   255 255 255   255 255 255   255 255 255   255 255 255   255 255 255   255 255 255   255 255 255   255 255 255   255 255 255   255 255 255   255 255 255   255 255 255   255 255 255   255 255 255   255 255 255   255 255 255   255 255 255   255 255 255   255 255 255   255 255 255   255 255 255   255 255 255   255 255 255   255 255 255   255 255 255   255 255 255   255 255 255   255 255 255   255 255 255   255 255 255   255 255 255   255 255 255   255 255 255   255 255 255   255 255 255   255 255 255   255 255 255   255 255 255   255 255 255   255 255 255   255 255 255   255 255 255   255 255 255   255 255 255   255 255 255   255 255 255   255 255 255   255 255 255   255 255 255   255 255 255   255 255 255   255 255 255   255 255 255   255 255 255   255 255 255   255 255 255   255 255 255   255 255 255   255 255 255   255 255 255   255 255 255   255 255 255   255 255 255   255 255 255   255 255 255
255 255 255   255 255 255   255 255 255   255 255 255   255 255 255   255 255 255   255 255 255   255 255 255   255 255 255   255 255 255   255 255 255   255 255 255   255 255 255   255 255 255   255 255 255   255 255 255   255 255 255   255 255 255   255 255 255   255 255 255   255 255 255   255 255 255   255 255 255   255 255 255   255 255 255   255 255 255   255 255 255   255 255 255   255 255 255   255 255 255   255 255 255   255 255 255   255 255 255   255 255 255   255 255 255   255 255 255   255 255 255   255 255 255   255 255 255   255 255 255   255 255 255   255 255 255   255 255 255   255 255 255   255 255 255   255 255 255   255 255 255   255 255 255   255 255 255   255 255 255   255 255 255   255 255 255   255 255 255   255 255 255   255 255 255   255 255 255   255 255 255   255 255 255   255 255 255   255 255 255   255 255 255   255 255 255   255 255 255   255 255 255   255 255 255   255 255 255   255 255 255   255 255 255   255 255 255   255 255 255   255 255 255   255 255 255   255 255 255   255 255 255   255 255 255   255 255 255   255 255 255   255 255 255   255 255 255   255 255 255   255 255 255   255 255 255   255 255 255   255 255 255   255 255 255   255 255 255   255 255 255   255 255 255   255 255 255   255 255 255   255 255 255   255 255 255   255 255 255   255 255 255   255 255 255   255 255 255   255 255 255   255 255 255   255 255 255   255 255 255   255 255 255   255 255 255   255 255 255   255 255 255   255 255 255   255 255 255   255 255 255   255 255 255   255 255 255   255 255 255   255 255 255   255 255 255   255 255 255   255 255 255   255 255 255   255 255 255   255 255 255   255 255 255   255 255 255   255 255 255   255 255 255   255 255 255   255 255 255   255 255 255   255 255 255   255 255 255   255 255 255   255 255 255   255 255 255   255 255 255   255 255 255   255 255 255   255 255 255   255 255 255   255 255 255   255 255 255   255 255 255   255 255 255   255 255 255   255 255 255   255 255 255   255 255 255   255 255 255   255 255 255   255 255 255   255 255 255   255 255 255   255 255 255   255 255 255   255 255 255   255 255 255   255 255 255   255 255 255   255 255 255   255 255 255   255 255 255   255 255 255   255 255 255   255 255 255   255 255 255   255 255 255   255 255 255   255 255 255   255 255 255   255 255 255   255 255 255   255 255 255   255 255 255   255 255 255   255 255 255   255 255 255   255 255 255   255 255 255   255 255 255   255 255 255   255 255 255   255 255 255   255 255 255   255 255 255   255 255 255   255 255 255   255 255 255   255 255 255   255 255 255   255 255 255   255 255 255   255 255 255   255 255 255   255 255 255   255 255 255   255 255 255   255 255 255   255 255 255   255 255 255   255 255 255   255 255 255   255 255 255   255 255 255   255 255 255   255 255 255   255 255 255   255 255 255   255 255 255   255 255 255   255 255 255   255 255 255   255 255 255   255 255 255   255 255 255   255 255 255   255 255 255   255 255 255   255 255 255   255 255 255   255 255 255   255 255 255   255 255 255   255 255 255   255 255 255   255 255 255   255 255 255   255 255 255   255 255 255   255 255 255   255 255 255   255 255 255   255 255 255   255 255 255   255 255 255   255 255 255   255 255 255   255 255 255   255 255 255   255 255 255   255 255 255   255 255 255   255 255 255   255 255 255   255 255 255   255 255 255   255 255 255   255 255 255   255 255 255   255 255 255   255 255 255   255 255 255   255 255 255   255 255 255   255 255 255   255 255 255   255 255 255   255 255 255   255 255 255   255 255 255   255 255 255   255 255 255
255 255 255   255 255 255   255 255 255   255 255 255   255 255 255   255 255 255   255 255 255   255 255 255   255 255 255   255 255 255   255 255 255   255 255 255   255 255 255   255 255 255   255 255 255   255 255 255   255 255 255   255 255 255   255 255 255   255 255 255   255 255 255   255 255 255   255 255 255   255 255 255   255 255 255   255 255 255   255 255 255   255 255 255   255 255 255   255 255 255   255 255 255   255 255 255   255 255 255   255 255 255   255 255 255   255 255 255   255 255 255   255 255 255   255 255 255   255 255 255   255 255 255   255 255 255   255 255 255   255 255 255   255 255 255   255 255 255   255 255 255   255 255 255   255 255 255   255 255 255   255 255 255   255 255 255   255 255 255   255 255 255   255 255 255   255 255 255   255 255 255   255 255 255   255 255 255   255 255 255   255 255 255   255 255 255   255 255 255   255 255 255   255 255 255   255 255 255   255 255 255   255 255 255   255 255 255   255 255 255   255 255 255   255 255 255   255 255 255   255 255 255   255 255 255   255 255 255   255 255 255   255 255 255   255 255 255   255 255 255   255 255 255   255 255 255   255 255 255   255 255 255   255 255 255   255 255 255   255 255 255   255 255 255   255 255 255   255 255 255   255 255 255   255 255 255   255 255 255   255 255 255   255 255 255   255 255 255   255 255 255   255 255 255   255 255 255   255 255 255   255 255 255   255 255 255   255 255 255   255 255 255   255 255 255   255 255 255   255 255 255   255 255 255   255 255 255   255 255 255   255 255 255   255 255 255   255 255 255   255 255 255   255 255 255   255 255 255   255 255 255   255 255 255   255 255 255   255 255 255   255 255 255   255 255 255   255 255 255   255 255 255   255 255 255   255 255 255   255 255 255   255 255 255   255 255 255   255 255 255   255 255 255   255 255 255   255 255 255   255 255 255   255 255 255   255 255 255   255 255 255   255 255 255   255 255 255   255 255 255   255 255 255   255 255 255   255 255 255   255 255 255   255 255 255   255 255 255   255 255 255   255 255 255   255 255 255   255 255 255   255 255 255   255 255 255   255 255 255   255 255 255   255 255 255   255 255 255   255 255 255   255 255 255   255 255 255   255 255 255   255 255 255   255 255 255   255 255 255   255 255 255   255 255 255   255 255 255   255 255 255   255 255 255   255 255 255   255 255 255   255 255 255   255 255 255   255 255 255   255 255 255   255 255 255   255 255 255   255 255 255   255 255 255   255 255 255   255 255 255   255 255 255   255 255 255   255 255 255   255 255 255   255 255 255   255 255 255   255 255 255   255 255 255   255 255 255   255 255 255   255 255 255   255 255 255   255 255 255   255 255 255   255 255 255   255 255 255   255 255 255   255 255 255   255 255 255   255 255 255   255 255 255   255 255 255   255 255 255   255 255 255   255 255 255   255 255 255   255 255 255   255 255 255   255 255 255   255 255 255   255 255 255   255 255 255   255 255 255   255 255 255   255 255 255   255 255 255   255 255 255   255 255 255   255 255 255   255 255 255   255 255 255   255 255 255   255 255 255   255 255 255   255 255 255   255 255 255   255 255 255   255 255 255   255 255 255   255 255 255   255 255 255   255 255 255   255 255 255   255 255 255   255 255 255   255 255 255   255 255 255   255 255 255   255 255 255   255 255 255   255 255 255   255 255 255   255 255 255   255 255 255   255 255 255   255 255 255   255 255 255   255 255 255   255 255 255   255 255 255   255 255 255   255 255 255   255 255 255   255 255 255   255 255 255   255 255 255
