P3
256 256
255
156 149 130   156 149 130   157 150 131   158 151 132   159 152 133   159 152 133   160 153 134   159 154 134   160 155 133   151 149 126   158 153 131   154 149 127   160 154 132   150 144 122   135 124 106   158 147 129   145 133 117   100  88  74    64  52  40    62  49  40    44  33  27    31  20  14    25  14  12    34  23  19    36  25  21    37  24  18    38  23  16    43  26  19    50  30  23    56  33  27    60  33  26    61  32  24    64  31  22    70  36  27    77  40  31    79  43  31    78  42  28    77  41  27    77  44  27    82  46  30    85  48  32    88  51  33    86  47  30    88  49  32    99  58  40   100  59  41    99  53  37   101  56  37   104  57  37   105  58  38   110  59  38   111  60  39   113  61  39   113  61  39   115  60  39   113  61  39   110  64  40   105  63  38   103  61  37   104  62  40   106  63  44   107  64  47   104  62  48   101  59  45    96  54  42    92  50  38    89  47  33    88  46  32    90  48  32    87  48  31    83  44  27    79  40  23    78  39  24    77  40  24    76  39  21    74  39  20    74  39  19    72  39  20    72  41  23    72  40  27    71  39  28    74  40  31    79  42  36    85  46  39    95  52  45   101  57  46   107  59  45   110  61  44   119  66  50   126  70  53   129  73  56   127  71  54   127  71  54   131  75  58   133  77  60   132  76  59   126  70  53   126  70  53   126  70  53   136  80  63   134  78  61   130  74  57   136  80  63   128  72  57   133  80  66   128  74  62   126  72  60   128  74  62   129  75  63   126  72  60   125  71  59   127  73  61   126  72  60   115  61  49   113  59  47   118  64  52   117  63  51   113  59  47   115  61  49   119  65  53   111  59  45   112  63  48   114  65  50   111  64  48   107  59  45   101  53  39    98  50  36    95  49  34   100  54  41    97  51  38    94  48  35    94  50  37    98  54  43   101  57  46   100  56  45    98  54  43    99  55  46    99  55  46    98  55  46    98  55  46    97  54  45    92  52  42    89  49  39    86  48  37    81  43  32    75  39  27    71  37  25    72  40  27    73  41  28    70  38  25    68  36  23    67  37  26    63  36  27    64  39  32    67  42  35    70  43  34    71  44  35    72  45  36    76  47  39    78  49  41    80  52  41    82  54  43    85  57  45    85  57  45    82  56  41    81  55  40    81  55  40    82  56  43    77  50  43    77  50  43    78  51  44    81  52  44    82  53  45    84  56  45    87  57  47    88  58  48    79  46  37    76  43  34    73  38  32    70  35  29    73  38  34    82  47  43    97  59  58   106  68  65   104  69  63   105  71  62   105  71  62   100  66  57    96  62  53    95  61  52   102  65  57   107  70  62   112  73  66   113  74  67   108  69  62   106  67  60   111  70  64   108  67  61   101  60  54   100  61  54   101  64  58   101  66  60    99  64  58    95  60  54    93  58  52    96  61  55    97  62  56    95  60  54   100  65  59    99  64  58   104  69  63    99  64  58    86  51  45    90  55  49    99  64  58    94  61  54    82  55  44    74  50  38    71  47  35    75  48  37    75  47  36    71  43  32    71  39  28    71  39  28    78  42  30    82  46  34    84  44  34    79  39  29    78  35  26    81  38  29    86  42  31    85  43  31    90  51  36    93  56  40    87  48  33    88  49  34    92  50  36    92  50  36    96  52  39    86  42  29    87  43  30    86  42  29    83  41  27    81  39  25    77  38  23    74  35  20    70  33  17    68  30  17    73  35  24    75  37  28    76  38  29    74  36  27    69  32  23    68  31  22    69  35  25    72  38  28
155 148 129   156 149 130   157 150 131   157 150 131   158 151 132   159 152 133   160 153 134   160 153 134   158 153 131   151 149 126   160 155 133   157 152 130   161 155 133   148 142 120   129 121 102   157 145 129   153 141 127   104  92  80    64  51  42    63  50  42    48  37  31    38  27  21    30  19  15    37  26  20    40  27  21    39  26  18    39  24  17    43  26  18    50  30  23    56  33  25    61  34  25    62  34  23    65  35  25    73  41  30    79  45  33    83  47  33    81  45  31    80  44  28    78  45  28    82  46  30    89  52  36    91  54  38    89  50  35    89  50  33    98  56  40    99  58  40    98  55  38   105  60  41   105  58  40   105  58  38   105  57  37   107  56  35   109  57  36   111  59  37   115  60  39   113  63  40   113  67  43   109  64  41   106  61  38   105  60  39   106  61  42   105  62  45   105  62  46   103  61  47    97  55  41    93  51  37    89  47  33    89  47  33    89  50  33    89  50  33    85  46  29    81  42  27    75  38  22    74  37  21    75  38  20    75  38  20    75  40  21    72  39  20    71  39  24    71  39  26    70  37  28    70  37  30    73  38  32    82  45  37    92  52  44   100  58  46   105  59  44   106  59  41   120  67  49   127  72  52   129  73  56   126  70  53   126  69  52   129  72  55   131  74  57   130  73  56   126  70  53   131  75  58   131  75  58   132  79  61   126  70  53   123  67  50   133  77  60   124  71  55   134  81  67   127  75  62   126  72  60   127  75  62   129  75  63   125  73  60   125  71  59   125  73  60   124  70  58   109  57  44   110  56  44   116  64  51   113  59  47   110  58  45   115  61  49   116  64  51   111  59  46   112  63  48   114  65  51   110  62  48   104  56  42    97  51  36    93  47  32    89  45  32    98  54  41    94  50  37    91  47  34    93  49  38    98  54  43   101  57  46   100  56  45    98  54  43    97  53  44    97  53  44    95  52  45    96  53  46    94  54  46    91  53  44    88  50  41    84  47  38    75  41  29    69  35  23    67  35  22    68  39  25    70  41  27    66  38  26    65  37  25    66  39  28    64  40  30    65  42  34    69  44  37    70  45  38    73  46  37    74  47  38    76  49  40    79  50  42    77  48  40    79  51  40    82  54  43    82  55  44    81  55  42    78  55  41    81  55  42    82  55  44    81  54  45    81  54  47    82  55  48    83  56  49    84  55  47    85  56  48    86  56  48    86  56  48    79  49  41    82  52  44    84  51  44    76  46  38    68  37  32    68  37  32    76  45  40    85  54  49    96  63  56   102  69  60   107  74  65   107  74  65   103  69  60   102  65  57   105  66  59   109  70  63   112  71  65   115  74  68   113  70  64   111  68  62   115  72  66   111  68  62   104  61  55   101  60  54   102  64  61   102  67  63   100  65  61    94  59  53    92  57  51    96  61  55    98  63  57    96  62  53    98  64  55    99  65  56   104  70  61    99  65  56    89  55  46    92  58  49   100  66  57    96  63  54    93  65  54    83  56  45    76  49  38    74  47  36    74  46  35    72  42  31    74  42  31    77  43  31    80  44  32    80  44  32    78  40  29    74  34  24    78  35  26    84  42  30    86  44  32    84  42  30    92  52  40    94  54  42    85  45  33    88  46  34    91  49  37    91  49  35    94  50  39    82  38  25    86  42  29    86  42  29    84  42  28    82  40  26    78  39  24    76  37  22    73  34  19    70  32  19    72  34  23    74  36  25    76  38  27    73  35  24    68  32  20    64  30  18    67  33  23    71  37  27
156 148 129   157 149 130   157 149 130   159 151 132   160 152 133   161 153 134   162 154 135   161 154 135   157 152 130   147 145 120   162 158 133   158 154 129   155 149 127   153 146 127   140 131 114   150 141 126   144 134 124   101  91  82    67  56  50    50  39  33    52  41  35    36  25  19    35  25  16    37  27  17    33  23  14    40  27  19    45  32  24    50  36  27    53  36  28    55  37  27    58  36  25    60  36  24    64  38  25    71  42  28    79  47  32    81  48  31    79  46  27    77  44  25    81  46  27    84  49  30    87  49  36    88  50  37    91  51  39    93  54  39    97  55  41    99  57  41   101  58  42   104  58  42   104  57  39   103  56  36   104  56  36   106  58  36   111  60  39   114  63  42   115  63  41   113  63  40   111  63  41   111  64  44   112  65  45   109  62  42   106  59  41   103  57  41   104  58  42   104  61  45   100  57  41    99  55  42    97  55  41    95  53  39    93  51  37    91  49  35    87  48  33    86  47  32    85  46  29    82  43  26    79  40  23    78  41  23    78  41  23    76  40  24    72  38  26    68  35  26    66  36  28    65  34  29    69  38  33    83  48  42    94  56  47    97  57  45   101  58  42   105  60  41   117  66  45   127  75  53   129  74  54   126  69  50   130  71  53   130  71  53   128  69  51   129  70  52   126  69  52   127  71  54   127  74  56   128  77  58   129  76  60   128  75  59   127  74  58   127  74  58   126  74  60   130  81  66   131  79  65   119  70  55   118  66  52   121  72  57   124  72  58   118  69  54   119  67  53   112  63  48   109  57  43   106  57  42   110  58  44   110  61  46   112  60  46   111  59  46   114  62  49   114  62  49   111  61  50   108  60  48   105  57  45    98  52  39    89  45  32    83  41  29    93  53  41    92  52  40    94  54  42   101  58  49   101  58  49    97  54  45    96  53  44   100  56  47    94  49  43    95  50  44    92  49  43    91  50  44    94  55  50    86  49  43    78  44  35    82  49  40    72  42  31    61  31  20    55  27  13    62  36  21    67  41  28    65  38  27    66  39  30    68  44  34    64  39  32    66  41  34    67  42  35    69  44  37    70  45  38    72  47  40    75  50  43    79  52  45    74  47  40    69  45  35    70  46  36    74  50  40    75  51  41    72  50  39    74  50  40    78  54  44    74  47  38    80  53  44    85  56  48    84  55  47    80  49  44    78  47  42    82  51  48    87  56  53    86  55  52    85  56  52    83  56  49    79  54  47    73  53  42    68  50  38    65  47  35    64  44  33    80  52  41    89  59  49    98  65  56   105  71  62   113  76  68   118  79  72   115  74  68   108  65  59   114  69  64   107  62  57   107  62  57   114  69  64   117  72  67   113  68  63   108  63  58   107  63  60   106  68  67   104  68  68   102  67  65    98  63  59    94  59  53    94  59  53    97  63  54   102  68  58    96  62  52   102  68  58   102  68  56    94  60  48    93  59  49    98  64  54    96  62  52    87  55  44    91  59  48    86  56  45    88  58  47    84  54  43    79  47  36    82  50  37    84  50  38    73  39  27    75  39  27    77  41  27    76  38  25    73  35  22    76  36  24    82  43  28    84  45  30    85  43  31    88  45  36    91  48  39    91  48  39    88  44  35    88  44  35    91  47  36    89  45  36    83  39  28    87  45  33    94  52  40    87  45  33    78  36  24    83  41  27    83  41  27    77  35  21    73  34  19    75  35  23    73  33  21    70  32  19    69  31  18    68  32  18    67  34  19    69  35  23    69  37  24
160 152 133   159 151 132   159 151 132   159 151 132   158 150 131   158 150 131   157 149 130   156 150 128   156 151 129   147 145 120   161 157 132   155 151 126   153 147 125   154 147 128   142 133 116   148 138 126   142 132 123   102  91  85    68  57  53    48  37  33    49  38  32    35  25  16    34  24  14    32  22  10    35  25  16    41  28  20    45  32  23    49  35  26    53  36  26    55  37  25    59  37  24    62  39  25    65  39  26    71  44  27    78  49  33    81  50  32    81  48  29    80  48  27    84  49  29    86  51  32    90  52  39    91  53  40    93  53  41    95  55  43    98  56  42   100  58  44   102  59  43   104  58  42   107  60  42   106  59  41   107  59  39   109  61  41   113  62  41   112  61  40   111  59  37   108  58  35   112  61  42   112  64  44   112  64  44   110  62  42   106  59  41   105  58  40   104  58  42   106  60  44   103  57  42   101  58  42   101  57  44    99  57  43    96  54  40    94  52  38    89  49  37    87  48  33    84  45  28    83  45  26    80  41  24    79  40  23    77  40  24    74  38  24    70  36  26    65  35  25    65  35  27    62  33  27    67  36  31    79  46  39    90  53  44    95  55  43    99  57  41   106  61  42   112  64  42   123  73  50   125  70  49   122  65  45   126  67  49   129  68  50   127  66  48   127  68  50   127  71  54   125  72  54   126  75  56   126  78  58   128  77  60   127  76  59   124  73  56   122  71  54   121  72  57   128  79  64   129  80  65   120  71  56   116  67  52   118  69  54   118  69  54   114  65  50   116  67  52   112  63  48   108  59  44   106  57  42   109  60  45   112  63  48   113  64  49   113  64  49   114  62  51   112  60  49   108  58  47   107  59  47   104  58  45    98  54  41    91  49  37    84  44  32    88  50  37    86  48  35    87  47  37    92  52  42    96  53  44    94  51  42    94  51  42    96  53  44    89  44  38    89  44  39    89  45  42    94  53  49    94  56  53    80  45  41    72  39  34    78  48  40    69  41  30    59  33  20    57  31  18    63  40  26    67  43  31    64  40  30    64  39  32    68  43  36    63  38  31    66  41  34    69  44  37    69  44  37    69  44  37    70  45  38    73  48  41    76  51  44    75  50  43    72  47  40    70  47  39    73  50  42    73  50  42    70  47  39    71  46  39    75  50  43    73  49  39    79  52  43    83  56  47    82  55  48    79  50  44    78  49  45    81  51  49    85  55  53    86  58  55    84  56  53    79  56  50    75  55  46    71  54  44    66  52  39    61  49  35    62  46  31    72  48  36    81  51  41    87  54  45    92  59  50   102  65  57   112  73  66   116  73  67   114  69  64   117  72  67   114  66  62   112  64  60   114  66  62   117  69  65   115  70  65   115  70  65   115  71  68   104  65  66   103  67  67   104  69  67   103  68  64    99  64  58    97  63  54    97  63  54    98  64  54    98  64  52   103  69  57   101  68  53    93  60  45    91  57  45    96  62  50    95  61  49    89  55  43    87  53  43    84  52  41    88  56  45    88  56  45    85  51  39    87  53  41    84  50  38    72  38  26    74  38  24    74  38  24    72  34  21    71  33  20    78  39  24    85  46  31    85  46  31    80  40  28    84  41  32    91  46  40    93  48  42    89  44  38    86  42  33    87  43  34    88  44  35    86  42  33    88  46  34    91  49  37    84  42  30    80  38  26    85  43  29    85  43  29    79  37  23    78  36  22    74  35  20    73  34  19    70  33  17    67  31  15    67  31  17    66  33  18    66  34  19    68  36  21
158 151 132   158 151 132   157 150 131   156 149 130   155 148 129   155 148 129   154 147 128   154 148 126   154 149 127   150 146 121   159 155 130   151 147 122   151 145 121   156 150 128   145 136 119   146 136 124   139 129 119   104  93  87    70  59  55    44  33  29    45  32  26    36  23  15    35  22  13    29  17   5    39  26  18    43  28  21    46  32  23    51  34  26    52  35  25    55  37  25    61  39  26    64  41  27    67  41  28    72  45  28    78  49  33    82  51  33    83  50  31    85  50  31    88  51  32    91  54  36    95  56  41    95  55  43    96  56  44    96  57  42    99  57  43   100  58  44   102  59  43   104  58  42   108  61  43   108  61  43   109  61  41   110  62  42   113  62  41   111  60  39   108  56  34   103  53  30   111  60  41   110  62  42   111  63  43   110  62  42   107  60  42   106  59  41   106  59  41   106  61  42   104  58  42   103  60  43   104  61  45   104  61  45   101  59  43    97  55  39    94  52  38    92  50  36    84  45  28    84  45  28    82  43  26    79  40  23    75  38  22    70  34  20    67  33  21    64  34  24    63  33  25    60  31  25    64  33  28    75  42  35    84  50  40    92  54  41   100  58  42   108  63  44   111  64  44   122  71  50   121  69  48   119  64  44   124  65  47   126  67  49   126  67  51   128  71  54   126  73  55   124  73  54   122  73  56   124  77  59   126  77  60   125  76  59   120  71  54   115  66  49   117  68  53   126  77  62   129  80  65   121  72  57   116  67  52   116  67  52   116  67  52   112  63  48   115  66  51   113  64  49   109  60  45   107  58  43   109  60  45   113  64  49   117  68  53   117  68  53   114  62  51   110  58  47   105  55  44   104  56  44   105  58  48   102  58  47    95  53  41    88  48  36    88  50  39    84  46  35    82  44  33    86  48  37    90  50  42    91  51  43    93  50  43    94  51  44    83  40  34    83  40  34    85  44  40    93  53  51    93  55  54    74  39  35    63  32  27    72  43  35    60  33  22    54  31  17    56  33  19    63  41  27    65  43  30    62  40  29    62  39  31    66  43  37    63  40  32    67  44  36    72  47  40    72  47  40    69  44  37    69  44  37    73  48  41    77  52  45    77  52  45    73  48  41    72  47  40    74  49  42    73  48  41    71  46  39    74  47  40    76  51  44    75  50  43    77  52  45    79  54  47    78  53  48    78  50  46    78  50  47    78  53  49    80  54  53    86  60  59    81  57  53    75  54  49    72  53  46    71  54  46    67  53  42    64  50  39    63  47  34    72  48  38    76  47  39    76  46  38    79  46  39    89  52  46   100  61  56   107  66  62   110  66  63   117  73  70   116  71  68   112  67  64   108  63  60   108  63  60   112  68  65   116  72  69   114  73  71   108  68  68   107  68  69   107  69  68   105  67  64   103  66  60   101  64  56   101  64  56   102  65  56   103  67  55   105  69  57   103  67  55    96  60  48    93  56  47    96  59  50    96  59  50    90  56  46    87  53  43    84  50  40    85  51  41    86  52  42    88  52  40    91  55  43    88  52  40    78  42  30    77  41  27    76  40  26    74  36  23    73  35  22    78  41  25    83  46  30    80  43  27    75  35  23    81  38  29    88  45  38    92  49  42    89  46  39    84  41  32    83  40  31    85  42  33    88  45  36    90  46  35    88  44  33    83  39  28    84  40  29    90  46  33    88  44  31    83  39  26    83  41  27    74  35  20    73  34  19    70  33  17    67  31  15    67  31  17    65  32  17    65  33  18    66  34  19
154 147 128   154 147 128   154 147 128   154 147 128   154 147 128   154 147 128   154 147 128   154 148 126   153 149 124   151 147 122   156 152 127   147 143 118   149 143 119   156 150 128   147 138 121   144 134 122   140 130 120   107  97  88    72  61  57    40  29  23    40  27  21    36  23  14    37  24  15    31  17   6    44  30  21    47  30  22    50  33  25    52  34  24    53  35  23    57  37  26    64  40  28    69  43  30    69  41  29    74  45  29    80  48  33    84  51  34    86  51  32    87  52  33    90  53  34    92  55  37    97  58  43    97  57  45    96  57  42    96  57  42    98  56  42    99  56  40   102  56  40   103  57  41   107  60  42   106  59  41   106  58  38   107  59  39   110  59  38   110  59  38   108  56  34   105  54  33   109  61  41   109  61  41   110  62  42   110  62  42   108  61  43   107  60  42   107  60  42   107  60  42   103  57  41   105  59  43   107  61  46   105  62  46   104  61  45   100  58  42    97  54  38    93  51  35    88  46  30    86  47  30    85  46  29    80  41  24    74  35  20    68  32  18    65  31  19    64  31  22    63  33  25    59  30  24    63  32  27    73  40  33    82  48  38    91  53  40   101  59  43   109  66  47   114  67  47   122  74  52   122  71  50   118  66  45   125  68  49   127  70  51   128  71  54   130  74  57   125  72  54   120  72  52   119  72  54   122  75  57   125  78  60   124  77  59   120  71  54   114  65  48   117  68  53   124  75  60   127  78  63   121  72  57   116  67  52   116  67  52   117  68  53   116  67  52   112  63  48   112  63  48   109  60  45   106  57  42   107  58  43   113  64  49   117  68  53   117  68  54   115  63  52   108  58  47   103  53  42   102  54  42   105  58  48   103  61  49    99  57  45    92  52  40    93  55  44    87  49  38    83  45  34    84  46  35    89  49  41    92  52  44    91  51  43    90  49  43    80  39  33    83  42  38    85  45  43    88  50  49    84  49  47    66  35  32    58  29  25    65  38  31    49  25  15    49  27  14    55  33  20    60  41  27    64  42  31    58  38  29    61  38  32    66  43  37    64  41  35    70  47  39    74  51  43    74  49  42    70  45  38    69  44  37    74  49  42    79  54  47    77  52  45    74  49  42    72  47  40    75  50  43    77  50  43    76  49  42    77  50  43    81  54  47    77  54  46    77  54  48    76  53  47    76  52  48    76  52  48    77  53  51    75  54  51    76  55  52    81  60  57    76  55  52    71  52  48    69  52  45    72  55  48    73  56  48    71  54  46    69  51  41    79  54  47    80  51  43    78  47  42    76  46  38    81  46  42    88  51  45    93  53  51    96  57  52   108  67  65   110  69  65   109  65  64   102  58  55   101  57  56   105  64  60   108  67  65   106  65  63   113  73  73   109  71  70   104  66  63   101  64  58   100  63  57   102  65  57   104  67  58   105  68  59   103  67  55   105  69  57   104  68  56   101  65  53    97  60  51    96  59  50    95  58  49    93  56  47    96  59  50    87  53  43    83  46  37    82  45  36    85  49  37    90  54  42    89  53  41    84  48  36    82  46  32    84  48  34    84  46  33    79  41  28    78  41  25    78  41  25    76  39  23    71  33  20    80  40  30    85  42  35    88  45  38    87  44  37    85  42  33    84  41  32    85  42  33    86  43  34    91  47  36    84  40  29    81  37  26    88  44  33    93  49  36    90  46  33    86  42  29    87  43  30    78  36  22    75  36  21    73  36  20    70  34  18    69  33  19    67  34  19    66  34  19    66  34  19
151 146 124   151 146 124   151 146 124   151 146 124   151 146 124   151 146 124   151 146 124   151 146 124   152 146 122   151 145 121   153 147 121   146 140 114   147 141 117   154 148 126   147 140 121   144 137 121   140 130 120   108  98  89    73  59  56    38  25  19    37  24  18    36  23  14    43  29  20    37  23  12    49  32  24    51  32  25    53  34  27    55  35  26    56  36  25    61  39  28    67  43  31    72  46  33    72  42  31    77  45  30    81  48  33    85  49  33    87  52  33    89  52  34    93  54  37    94  55  38   100  58  44    99  57  43    97  55  41    96  54  40    97  54  38    97  54  38   100  54  38   101  55  39   104  57  39   102  55  37   102  54  34   103  55  35   108  57  36   110  59  38   111  60  39   111  60  39   109  61  41   109  61  41   110  62  42   110  62  42   110  62  42   109  61  41   107  60  42   106  59  41   102  55  37   102  57  38   105  59  43   107  61  45   106  60  44   102  59  42   100  54  38    96  53  37    92  50  34    92  50  34    90  48  32    82  43  26    75  36  21    69  31  18    65  29  17    62  29  20    63  33  25    60  31  25    63  34  26    71  41  31    81  47  37    91  53  40   101  62  47   113  70  53   112  67  46   121  75  52   122  71  52   117  64  46   123  67  50   125  69  52   125  69  52   127  74  56   123  72  55   118  69  52   117  70  52   119  74  55   123  77  61   123  77  61   121  74  58   116  69  53   117  69  55   122  74  60   123  75  61   119  71  57   116  68  54   117  69  55   120  72  58   121  73  59   109  61  47   110  62  48   107  59  45   103  55  41   106  58  44   113  65  51   115  67  53   112  64  50   114  64  53   109  59  50   103  53  44   103  55  45   106  59  51   104  61  52   100  57  48    93  53  43    95  57  48    90  52  43    85  47  38    83  45  36    85  47  38    88  50  41    86  47  40    84  45  38    81  44  38    87  49  46    83  48  46    77  43  42    71  40  38    61  33  30    54  29  25    58  35  29    44  24  15    47  27  16    54  34  23    59  41  29    61  41  32    59  40  33    62  41  36    66  45  40    63  43  36    68  48  41    71  51  44    72  49  43    67  44  38    67  44  38    73  48  43    79  54  49    81  53  49    77  49  45    76  48  44    79  51  47    80  51  47    78  49  45    79  50  46    82  54  50    80  57  51    76  55  50    74  53  48    74  53  50    74  55  51    75  55  54    74  56  54    74  56  54    75  57  55    71  53  51    68  50  48    69  51  47    73  55  51    76  59  52    75  58  51    75  55  48    84  59  54    84  57  50    83  54  50    82  51  46    80  49  46    81  48  43    82  47  45    85  47  44    95  55  55   100  60  58   102  60  61    98  58  56    98  58  58   104  64  62   105  65  65   102  62  60   112  72  72   108  68  66   103  63  61   101  62  57   102  63  58   103  64  57   103  65  56   102  64  55   101  63  52   103  65  54   106  68  59   108  70  61   104  65  58    98  59  52    96  57  50    96  57  50   101  63  54    93  56  47    85  47  38    84  46  37    88  50  39    90  52  41    88  50  39    86  48  37    84  48  34    90  54  40    92  56  42    84  48  34    77  41  25    75  39  23    76  40  24    77  39  26    83  45  34    81  41  33    80  40  32    83  43  35    85  45  35    85  45  35    85  42  33    83  40  31    90  46  35    83  39  28    85  38  28    92  45  35    95  49  36    93  47  34    91  45  32    91  45  32    82  40  26    79  40  25    76  39  23    73  37  21    72  36  22    69  36  21    68  36  21    67  35  20
151 146 124   151 146 124   150 145 123   150 145 123   149 144 122   148 143 121   147 142 120   147 142 120   150 144 120   149 143 119   150 144 118   146 140 114   146 140 116   150 144 122   147 140 121   146 139 123   136 126 116   104  94  85    70  57  51    37  24  18    37  24  16    37  24  15    46  32  21    45  28  18    52  33  26    55  35  28    57  37  28    60  37  29    61  39  28    65  41  31    72  45  34    76  48  36    79  47  34    81  47  35    85  49  35    87  51  35    90  53  37    92  55  37    94  55  38    96  57  40   100  58  44    99  57  43    97  55  41    96  54  40    96  53  37    97  54  38   100  54  38   101  55  39   104  57  41   102  55  37   101  52  35   102  54  34   106  58  38   112  61  40   114  63  42   115  64  43   110  62  42   109  61  41   110  62  42   110  62  42   111  63  43   110  62  42   106  59  41   104  57  39   100  53  35   101  54  36   103  57  41   105  59  43   106  60  44   105  59  43   103  57  41   102  56  40    99  56  40    96  54  38    92  50  34    86  44  28    77  38  23    70  32  19    66  30  18    61  29  18    63  33  25    60  31  25    63  34  26    71  41  31    81  47  37    89  53  39   100  61  46   112  71  53   109  64  43   118  72  49   119  68  49   115  62  44   120  64  47   121  65  48   120  64  47   121  68  50   123  72  55   119  70  53   117  70  52   117  72  53   121  75  59   122  76  60   122  75  59   120  73  57   120  72  58   121  73  59   121  73  59   118  70  56   117  69  55   119  71  57   121  73  59   122  74  60   105  57  43   107  59  45   105  57  43   102  54  40   108  60  46   117  69  55   116  68  54   109  61  49   115  67  57   110  62  52   106  58  48   104  57  47   104  60  51   102  59  50    96  56  46    92  52  42    93  55  46    90  52  43    85  47  38    80  42  33    81  43  34    83  45  36    82  43  36    77  40  34    81  46  42    86  52  50    77  46  44    64  34  34    60  32  31    56  30  29    53  29  27    53  32  27    47  28  21    48  31  21    53  36  26    56  39  29    57  40  32    57  40  33    60  41  37    64  45  41    58  39  33    61  41  34    63  43  36    61  41  34    58  38  31    62  39  33    68  45  39    75  50  45    79  51  47    76  48  44    77  49  45    80  52  48    81  52  48    78  49  45    78  49  45    80  52  48    83  58  54    80  56  52    78  54  52    75  54  51    74  54  53    74  56  54    73  58  55    73  58  55    69  54  51    67  52  49    66  51  48    68  53  48    74  56  52    77  59  55    77  58  52    77  56  51    81  56  51    83  55  51    84  56  52    86  57  53    83  54  50    79  48  45    80  46  44    81  47  45    83  48  46    86  51  49    91  53  52    94  56  55    99  61  60   103  68  66   106  68  67   105  67  66   105  65  63   102  63  58   101  62  57   103  64  57   106  67  60   104  66  57    98  60  51    92  54  45    96  58  47    98  60  49   104  66  57   109  71  62   106  67  60    98  59  52    95  56  51    99  60  55    99  60  53    96  58  49    91  51  43    91  53  44    95  57  46    91  53  42    84  46  35    84  46  35    82  46  32    90  54  40    93  57  43    86  50  36    78  42  26    78  42  26    81  45  29    83  47  33    86  48  37    80  42  33    78  38  30    83  43  35    87  47  37    87  47  37    84  41  32    81  38  29    88  44  33    84  40  29    89  42  32    94  47  37    93  47  34    92  46  33    93  45  33    90  44  31    84  42  28    81  42  27    79  42  26    76  40  24    74  38  24    70  37  22    68  36  21    68  36  21
149 144 122   149 144 122   148 143 121   148 143 121   147 142 120   147 142 120   147 142 120   146 141 119   150 144 120   148 141 115   148 141 115   148 141 115   146 140 116   145 139 117   146 139 120   150 143 127   128 118 108    96  86  77    66  53  47    38  25  19    40  25  18    38  24  15    48  31  21    49  33  20    55  35  26    59  36  28    62  39  31    64  39  32    66  42  32    70  43  34    75  47  36    79  49  38    84  52  39    85  51  39    88  52  38    91  54  38    94  55  40    96  57  42    99  57  41   100  58  42   102  60  46   100  58  44    98  56  42    97  55  41    97  54  38    98  55  39   100  57  41   101  58  41   108  62  46   106  61  42   105  58  40   106  59  41   108  61  43   111  63  43   112  64  44   112  64  44   111  63  43   110  62  42   110  62  42   111  63  43   112  64  44   110  62  42   105  58  38   102  55  35    99  52  34   101  54  36   103  56  38   105  58  40   107  60  42   108  61  43   108  61  43   107  61  45   105  62  46   101  57  44    96  53  37    89  47  31    80  41  26    73  35  22    67  31  19    60  28  17    61  31  23    59  30  22    63  34  26    71  41  31    78  46  35    86  50  36    98  59  44   109  67  51   109  64  45   118  71  51   120  69  52   116  63  47   120  64  49   121  63  49   119  61  47   119  63  48   127  74  60   122  73  58   119  72  56   118  71  55   119  71  57   121  73  59   123  74  60   122  74  60   122  74  62   119  73  60   117  71  58   117  71  58   117  71  58   117  71  58   116  70  57   115  69  56   100  54  41   102  56  43   102  56  43   102  56  43   111  65  52   122  76  63   120  74  61   110  64  51   116  69  59   113  66  58   109  62  54   105  61  52   104  59  53   100  57  50    93  53  45    90  50  42    90  51  44    91  52  45    87  50  42    81  44  36    80  43  35    82  45  37    82  45  39    76  41  35    78  47  44    78  48  46    67  39  38    55  29  30    53  29  29    49  28  27    47  27  26    51  33  29    47  30  23    46  32  23    46  32  23    46  32  23    45  30  23    46  31  26    50  32  30    52  34  32    48  31  24    49  30  24    48  29  23    46  27  21    46  27  21    50  29  24    59  35  31    65  41  37    67  42  38    66  41  37    71  43  40    77  49  46    81  51  49    79  49  47    81  50  48    83  53  51    86  58  55    85  57  54    81  56  52    79  55  51    74  55  51    74  56  52    74  59  54    76  61  56    67  54  48    67  54  48    69  54  49    71  56  51    74  56  52    75  58  51    76  57  51    76  55  50    78  53  49    77  52  48    79  54  50    83  55  52    81  53  50    78  48  46    78  48  46    83  52  50    82  48  47    78  44  43    78  44  43    83  49  48    90  56  55    95  61  60   100  64  64   103  68  66   100  60  58    99  58  54    98  57  53   102  61  55   106  65  59   104  64  56    95  55  47    87  47  37    92  52  44    92  52  44    99  58  52   107  66  60   105  64  60    96  55  51    95  54  52   102  61  57    99  58  52    99  59  51    96  53  46    95  55  47   100  60  50    93  53  43    84  46  35    88  50  39    86  48  35    90  52  39    88  52  38    82  46  32    77  44  27    79  46  29    81  48  31    80  47  32    86  50  38    81  44  35    80  42  33    84  46  37    87  47  37    84  44  34    83  40  31    82  39  30    86  42  31    86  42  31    93  46  36    94  47  37    90  42  30    92  44  32    95  45  34    88  40  28    84  42  28    82  43  28    79  42  26    76  40  24    74  38  24    70  37  22    67  35  20    66  34  19
144 139 117   144 139 117   145 140 118   146 141 119   147 142 120   149 144 122   149 144 122   151 145 121   150 143 117   147 140 114   147 140 114   149 142 116   146 140 116   142 136 112   145 138 119   152 145 129   122 112 102    90  80  71    62  49  43    39  26  18    42  28  19    38  24  13    47  30  20    50  32  20    58  35  27    61  36  29    65  40  33    67  43  33    70  43  34    73  45  34    77  47  36    82  50  39    89  55  43    89  55  43    93  55  42    94  56  43    97  58  43    99  60  45   102  60  46   102  60  44   103  61  47   102  60  46   100  58  44    98  56  42    99  55  42   100  57  41   102  59  43   103  60  44   111  68  52   112  66  50   110  64  48   110  65  46   112  65  49   111  64  46   110  63  45   108  61  43   111  64  46   110  63  43   110  62  42   111  63  43   112  64  44   110  62  42   105  58  38   101  54  34   100  53  35   101  54  36   103  56  38   106  59  41   108  61  43   110  63  45   111  64  46   112  65  49   110  64  49   104  60  47    97  53  40    91  48  32    84  42  28    75  38  22    68  32  18    60  28  15    59  29  19    58  29  21    62  33  25    69  41  30    77  45  34    82  48  36    94  56  43   107  65  49   112  67  48   122  74  54   124  71  55   121  65  50   124  66  52   124  66  52   120  62  48   120  64  51   129  76  62   127  75  61   122  73  58   118  70  56   117  69  55   118  70  56   122  73  59   124  75  61   121  75  62   118  72  59   117  71  58   117  71  58   118  72  59   116  70  57   111  65  52   108  62  49    97  51  38   100  54  41   101  55  42   103  57  44   115  69  56   128  82  69   125  79  66   112  65  55   117  70  62   113  69  60   110  66  57   106  63  54   102  59  52    98  55  48    91  51  43    88  48  40    91  52  45    94  55  48    91  54  46    86  49  41    84  47  39    84  49  43    84  49  43    80  47  42    75  47  44    68  42  41    57  31  32    51  27  27    51  29  31    46  26  27    44  26  26    50  35  32    44  29  24    41  28  20    38  25  17    34  21  13    33  20  14    35  20  17    37  21  21    38  23  20    39  24  19    40  23  16    37  20  13    36  17  11    37  18  12    42  23  17    50  29  24    58  34  30    54  30  26    56  31  27    62  37  33    74  46  43    81  51  49    82  52  50    84  54  52    88  57  55    89  58  56    88  57  55    86  56  54    81  56  52    78  54  50    75  56  50    77  60  53    77  62  55    68  53  46    70  55  48    72  57  50    73  58  51    74  57  50    75  56  50    75  54  49    75  54  49    78  53  49    76  51  47    76  51  47    78  53  49    77  49  46    74  46  43    77  49  46    84  54  52    82  52  50    72  42  40    67  37  35    72  41  39    79  48  46    83  52  50    88  57  55    97  62  60   101  61  59    98  57  53    94  53  47    97  56  50   101  61  53   101  61  53    94  54  44    87  47  37    88  48  40    87  47  39    94  53  47   103  62  56   102  61  57    93  52  48    95  54  52   104  63  59   104  61  55   102  59  52    95  52  45    94  51  44    97  57  47    92  52  42    88  48  38    95  57  46    93  55  42    91  53  40    84  48  34    79  43  29    77  44  27    81  48  31    79  46  29    74  41  26    84  48  36    82  45  36    84  46  37    87  49  40    86  46  36    80  40  30    82  39  30    85  42  33    84  40  29    87  43  32    97  50  40    94  47  37    87  39  27    91  43  31    95  45  34    86  38  26    84  42  28    81  42  27    79  42  26    76  40  24    73  37  23    69  36  21    66  34  19    65  33  18
142 138 113   142 138 113   143 139 114   143 139 114   144 140 115   144 140 115   145 141 116   146 140 116   147 137 112   147 137 112   146 136 109   143 136 108   143 137 111   144 138 114   146 139 120   151 144 126   114 106  93    87  77  67    67  54  46    54  41  33    45  31  22    48  31  21    54  36  26    53  33  22    58  34  24    67  40  31    70  43  34    67  40  31    68  39  31    73  45  34    79  49  38    81  49  38    87  53  41    90  56  44    97  59  46   100  62  49   102  62  50   102  63  48   100  61  46    99  60  45    95  55  43    96  56  44    97  57  45    97  58  43    98  56  42    96  54  40    94  52  38    93  51  37   102  60  46   103  60  44   104  61  45   108  65  48   113  67  52   114  68  52   112  66  50   109  63  47   108  62  46   113  68  49   115  68  50   113  66  48   111  64  46   112  65  47   108  61  43   102  55  37   100  53  35   105  58  40   107  60  42   104  57  39   104  57  39   109  62  44   113  66  48   113  66  50   110  64  51   108  62  49   100  56  43    92  48  35    86  44  28    81  42  27    73  37  23    63  31  18    62  34  23    59  32  21    59  32  23    64  36  25    75  43  32    85  51  39    97  59  46   104  62  46   107  61  45   117  68  51   124  71  57   124  68  55   123  65  53   123  63  52   119  59  48   113  55  44   125  68  57   124  72  59   120  71  57   116  66  55   115  65  54   119  69  58   121  69  58   115  65  54   115  68  58   113  69  58   114  70  59   115  71  60   115  71  60   114  70  59   111  67  56   109  65  54   101  57  46    95  51  40    93  49  38   100  56  45   111  67  56   117  73  62   114  70  59   109  65  54   108  64  55   115  72  65   110  67  60   101  58  51   103  60  54   100  59  53    95  54  48    96  55  49    91  52  47    93  54  49    90  53  47    82  47  41    80  45  39    82  49  44    83  50  45    78  47  42    67  42  38    60  39  36    50  29  28    47  27  28    53  34  36    45  29  29    37  21  21    39  25  22    39  26  20    33  23  14    30  20  11    29  19  10    25  14   8    23   9   6    26  12  11    33  19  18    37  23  20    32  17  12    21   6   1    23   5   1    33  15  11    34  15  11    34  15  11    45  24  21    45  24  21    47  23  21    54  28  27    62  36  35    67  39  38    67  39  38    72  44  43    81  50  48    84  48  48    96  61  59    93  59  57    87  58  54    80  52  48    75  52  46    80  61  54    77  60  52    73  56  48    72  55  47    72  55  47    75  58  50    77  58  51    78  59  52    80  60  53    82  61  56    77  52  48    78  52  51    75  49  48    77  51  50    79  53  52    72  46  45    68  42  41    77  49  48    79  51  50    74  46  45    67  39  38    67  37  37    73  43  43    83  53  53    90  60  60    94  60  59    90  50  48    96  55  51    98  57  51    96  55  49    97  57  49   100  60  52    98  58  48    93  53  43    90  50  42    90  50  42    91  50  44    92  51  45    94  53  49    97  56  52    99  58  56   100  59  55   104  61  55   100  55  49    96  53  46    97  54  47    95  52  43    90  50  40    90  50  40    94  54  44    98  60  47    84  46  33    76  40  26    82  46  32    86  50  34    81  45  29    75  42  25    76  43  28    83  47  35    87  50  41    88  50  41    84  46  37    84  44  34    85  45  35    86  43  34    82  39  30    82  38  27    95  51  40   103  56  46    90  43  33    92  44  32    98  50  38    89  39  28    89  41  29    83  41  27    80  41  26    74  37  21    73  37  21    75  39  25    65  32  17    57  25  10    60  28  13
142 136 112   141 137 112   142 136 112   141 137 112   142 136 112   141 137 112   143 137 113   143 137 113   145 135 110   147 135 111   147 137 110   146 136 109   143 136 110   140 134 110   138 132 110   137 130 112   113 105  92    85  77  66    65  52  44    53  38  31    47  30  22    49  31  21    55  37  25    56  36  25    57  33  23    69  42  33    75  48  39    74  47  38    73  45  34    77  47  37    84  52  41    86  54  43    96  62  50    96  62  50    99  63  49   101  63  50   102  62  50   100  60  48    97  57  45    95  56  41    86  46  34    88  48  36    90  50  38    91  51  39    91  51  39    89  50  35    89  47  35    85  46  31    96  54  42    96  54  40    98  56  42   102  60  46   106  64  50   107  65  51   105  63  49   104  61  45   108  65  49   110  67  50   112  66  50   108  62  46   107  61  45   110  65  46   110  63  47   107  60  42   102  55  37   106  59  41   106  59  41   104  57  39   104  57  39   108  61  43   110  63  45   109  62  46   107  61  48   108  61  51   104  58  45    95  51  38    88  46  30    83  44  27    76  40  26    66  34  21    61  33  21    58  31  20    57  30  21    61  33  22    71  41  30    86  52  40    98  62  48   105  66  49   108  62  46   116  67  50   123  70  56   124  68  55   123  65  53   124  64  53   121  61  51   116  58  47   122  65  54   121  69  56   119  69  58   115  65  54   115  65  54   117  67  56   119  67  56   113  63  52   113  66  56   111  67  56   112  68  57   112  68  57   112  68  57   111  67  56   109  65  54   108  64  53   107  63  52   102  58  47    98  54  43   101  57  46   109  65  54   113  69  58   111  67  56   106  63  54   110  67  60   115  72  65   108  65  58    99  56  49    98  57  51    97  56  50    93  52  46    94  55  48    90  51  46    91  54  48    86  51  45    81  46  40    78  45  40    80  47  42    80  47  42    74  45  41    67  43  39    57  38  34    45  25  26    44  26  26    51  35  36    46  32  32    36  22  21    33  22  20    38  27  23    34  23  17    32  22  13    30  19  13    25  14  10    20   9   5    23   9   9    27  13  12    30  16  13    27  14   8    19   4   0    19   4   0    28  13   8    32  14  10    32  14  10    39  20  16    36  17  13    40  19  16    45  21  19    47  23  21    51  25  24    56  30  29    61  35  34    68  38  38    74  39  37    90  52  51    91  56  52    91  60  55    87  58  52    79  54  47    83  60  52    74  56  44    76  58  48    75  58  48    75  57  47    75  57  47    77  59  49    80  62  52    81  61  54    82  59  53    73  48  44    76  50  49    74  48  47    76  50  49    80  54  53    75  49  48    71  45  44    77  51  50    74  48  47    73  47  46    73  47  46    75  47  46    75  47  46    75  47  46    78  48  48    82  51  49    91  53  50    97  56  52    99  58  54    97  56  50    96  55  49    98  58  50    98  58  50    95  55  45    92  52  44    92  52  44    91  50  44    91  50  44    92  51  47    94  53  49    96  55  53    97  56  52   101  58  52    98  53  47    95  52  45    97  54  47    95  52  43    91  48  39    89  49  39    92  52  42    95  57  44    84  46  33    80  42  29    86  50  36    89  53  37    84  48  32    81  45  29    83  47  33    84  48  36    86  49  40    86  48  39    83  45  36    84  44  34    85  45  35    85  42  33    80  37  28    84  40  29    93  49  38   101  54  44    91  44  34    94  46  34    97  49  37    89  39  28    91  43  31    85  43  29    81  42  27    73  36  20    72  36  20    75  39  25    65  32  17    56  24   9    59  27  12
140 132 109   139 133 109   140 132 109   139 133 109   140 132 109   139 133 109   139 131 108   139 131 108   143 131 107   143 131 105   143 133 106   142 132 105   138 131 103   136 129 103   132 126 104   127 120 102   114 107  91    87  79  68    64  51  43    50  35  28    45  28  20    48  30  20    56  36  25    60  38  25    62  38  26    72  45  34    79  51  40    78  50  39    76  46  36    80  50  40    89  57  46    94  62  51   101  67  55    98  64  52    98  62  50    97  61  49    98  60  49    96  58  45    91  53  40    87  49  36    81  43  32    83  45  34    86  48  37    88  50  39    88  50  39    87  49  36    85  45  35    82  44  31    88  48  38    88  48  36    91  51  39    94  54  42    97  57  45    99  59  47    98  58  46    97  57  45   106  64  50   108  66  50   108  65  49   106  63  47   105  62  46   107  64  47   108  62  47   106  60  44   104  58  42   105  59  43   103  57  41   102  56  40   104  57  39   107  60  42   108  61  43   106  59  43   107  59  49   109  62  52   108  62  49    99  55  42    92  50  34    86  47  30    79  43  29    70  38  25    60  32  20    56  30  17    54  27  16    59  31  20    70  40  29    85  53  40    99  63  49   106  67  52   108  62  47   115  66  51   121  67  55   122  65  54   122  64  53   122  64  53   122  63  55   119  62  53   115  61  51   117  65  54   115  65  56   112  64  54   111  63  53   113  65  55   114  64  55   111  63  53   108  64  55   108  65  56   108  65  56   108  65  56   108  65  56   107  64  55   106  63  54   106  63  54   109  66  57   104  61  52   100  57  48   100  57  48   105  62  53   109  66  57   110  67  58   108  65  56   112  72  64   113  72  66   105  64  58    96  55  49    95  54  50    94  53  49    91  52  47    92  53  48    88  48  46    88  50  47    84  49  45    80  45  41    78  44  42    77  46  43    76  45  42    71  43  39    65  44  39    52  34  30    40  22  22    40  24  24    49  33  34    45  31  31    33  21  21    28  18  16    32  23  18    31  22  15    30  21  14    29  20  13    26  15  11    21  10   6    20   8   8    23  12  10    24  13   9    25  14  10    21   7   4    19   5   2    26  12   9    32  17  14    31  16  13    33  15  13    34  16  14    39  19  18    38  18  17    34  13  12    34  13  12    40  19  18    46  22  22    46  20  19    61  27  25    74  39  35    76  43  38    80  49  44    80  51  43    77  50  41    80  56  46    73  51  38    75  55  44    77  59  47    77  57  46    73  53  42    76  56  47    81  61  52    79  59  50    74  51  45    70  45  41    75  47  46    73  47  46    75  49  48    80  56  54    76  52  50    71  47  45    76  52  50    72  48  46    72  48  46    75  51  49    79  53  52    75  49  48    66  40  39    69  41  40    77  46  44    92  54  53    97  58  53    99  60  55    97  58  51    94  55  48    95  57  48    96  58  49    96  58  49    93  55  44    92  54  43    90  52  43    88  50  41    88  49  42    89  50  43    91  52  47    93  52  48    98  55  49    95  52  45    95  52  45    97  54  47    94  54  44    90  50  40    88  48  38    91  51  41    89  49  37    83  43  31    82  42  30    88  50  37    90  53  37    85  48  32    83  46  30    86  48  35    86  48  37    86  48  39    85  45  37    84  44  36    85  45  35    86  46  36    85  42  33    80  37  28    90  46  35    89  45  34    94  47  37    92  45  35    97  51  38    98  52  39    88  40  28    89  43  30    87  45  31    81  42  27    72  35  19    71  35  19    75  39  25    66  33  18    56  24   9    57  25  10
139 131 108   138 130 107   138 130 107   138 130 107   137 129 106   136 128 105   136 128 105   138 128 103   141 127 101   139 125  99   137 125  99   136 126  99   131 124  96   133 126 100   131 125 103   122 115  97   112 105  89    87  79  66    62  49  41    48  34  25    45  28  20    49  29  18    57  35  24    62  38  26    72  45  34    74  47  36    76  48  37    75  47  36    78  48  38    84  54  44    94  62  51    99  67  56    95  61  49    91  57  45    90  54  42    91  55  43    93  57  45    93  57  45    90  52  39    85  49  37    87  49  38    88  52  40    92  54  45    93  57  45    94  56  47    90  54  42    87  50  41    85  48  39    84  47  38    85  48  39    87  50  41    89  52  43    90  53  44    91  54  45    90  53  44    91  53  42    97  57  45   100  61  46   106  64  52   107  65  51   107  65  51   106  64  48   103  60  44   100  57  41   102  59  43   103  57  41   101  55  39   101  55  39   104  57  41   107  60  42   106  59  41   105  58  42   107  59  49   112  64  54   113  66  56   106  60  47    97  54  38    88  49  32    81  45  29    72  40  25    60  32  18    56  30  17    54  27  16    58  31  20    70  42  30    85  53  42    97  61  49   104  65  50   105  62  46   111  64  48   114  65  51   117  63  51   118  61  50   119  62  51   120  63  54   118  64  54   112  60  49   110  62  50   109  61  51   106  59  49   105  58  48   107  60  50   110  62  52   110  63  53   107  63  54   107  64  55   108  65  56   107  64  55   106  63  54   106  63  54   106  63  54   107  64  55   103  60  51   100  57  48    97  54  45    97  54  45   101  58  49   107  64  55   112  69  60   113  73  65   114  75  68   111  72  65   106  65  59    99  58  52    97  56  52    95  54  50    91  52  47    90  51  46    85  47  44    84  46  43    81  46  42    79  46  41    77  46  43    76  47  43    75  46  42    69  44  40    59  40  36    47  32  27    39  23  23    40  26  25    44  30  30    38  26  26    29  19  18    27  17  15    25  16  11    26  17  10    27  18  11    28  19  12    28  17  13    26  15  11    24  12  12    24  12  12    25  14  12    28  17  13    28  14  11    24  10   7    28  14  11    33  19  16    31  17  14    27  12   9    31  16  13    32  17  14    33  15  13    29  11   9    29  11   9    32  14  12    35  15  14    36  15  12    49  19  17    56  25  22    51  22  18    57  28  22    60  31  25    62  35  26    72  48  38    72  48  36    71  49  36    76  57  43    79  57  46    73  53  44    74  54  45    80  60  53    74  54  47    63  40  34    69  44  40    75  47  46    74  46  45    74  48  47    80  54  53    76  52  50    71  47  45    73  49  47    73  49  47    68  44  42    70  46  44    77  53  51    76  50  49    67  41  40    71  43  42    81  51  49    87  52  50    95  55  53    99  59  57    98  59  54    95  56  51    93  54  47    94  56  47    96  58  49    93  55  44    91  53  42    88  50  41    86  48  39    86  47  40    87  48  41    89  50  43    90  51  44    94  54  46    94  51  44    96  53  46    99  56  49    97  57  47    92  52  42    90  50  40    91  51  41    83  43  31    81  41  29    82  42  30    87  47  35    87  48  33    81  44  28    81  42  27    83  45  32    91  51  41    88  48  40    85  45  37    85  45  37    88  48  38    88  48  38    86  43  34    81  38  29    96  52  41    85  41  30    88  41  31    92  45  35    99  53  40   100  54  41    87  41  28    88  42  29    88  46  32    81  42  27    70  33  17    69  33  17    75  39  25    66  33  18    56  24   9    56  24   9
138 128 103   138 128 103   137 127 102   137 127 102   136 126 101   136 126 101   136 126 101   135 125 100   136 122  96   134 120  94   135 124  96   135 126  97   129 122  94   132 125  99   126 120  96   108 103  83   102  95  79    80  72  59    57  44  36    45  31  22    47  30  22    52  32  21    59  37  26    67  43  31    76  50  37    73  47  34    73  45  33    77  49  37    84  56  44    88  60  48    90  60  49    90  60  49    86  54  43    84  52  41    84  50  38    87  53  41    93  59  47    96  62  50    96  60  48    91  57  45    94  57  48    94  60  50    97  60  52    96  62  52    97  60  52    92  58  48    88  54  45    86  52  43    86  52  43    86  52  43    87  53  44    87  53  44    86  52  43    85  51  42    85  51  42    85  51  42    88  50  39    91  53  40    96  56  46   101  61  49   103  63  51   103  64  49   104  62  48   104  62  48   100  58  44    98  55  39    97  54  38    99  56  39   104  58  42   106  60  44   106  60  44   105  59  44   110  62  52   115  67  57   116  68  58   109  63  50   100  57  41    93  51  35    82  46  30    73  41  26    62  34  20    57  31  18    52  28  16    59  32  21    70  42  30    85  53  42    93  59  47    99  61  48   103  61  47   105  62  46   109  63  48   112  63  49   113  61  50   113  59  49   113  61  50   114  64  53   107  59  49   104  60  49   102  58  47    99  57  45    97  54  45    98  55  46   103  59  50   108  64  55   105  62  55   105  65  57   107  67  59   107  67  59   105  65  57   104  64  56   105  65  57   106  66  58    97  57  49    94  54  46    92  52  44    92  52  44    96  56  48   103  63  55   110  70  62   114  74  66   114  75  68   108  71  65   107  68  63   105  66  61   102  63  58    98  59  54    93  53  51    88  48  46    83  45  42    81  43  40    79  44  42    80  46  44    79  48  45    77  48  44    74  46  43    68  44  40    52  33  29    43  28  23    42  26  26    41  27  26    37  23  23    29  17  17    27  17  15    27  17  15    22  15   9    24  17   9    27  18   9    29  20  13    30  19  15    30  19  15    29  15  15    24  12  12    24  13  11    26  16  14    27  16  14    24  13  11    24  13  11    27  16  14    26  15  13    20   6   5    23   9   8    21   7   6    22   8   7    26  12  11    28  14  13    28  14  13    30  14  14    35  17  15    38  17  14    42  18  14    35  11   7    40  17  11    45  20  13    48  24  14    63  39  29    66  42  32    66  42  32    75  53  42    82  57  50    78  55  47    79  56  50    82  58  54    71  50  45    59  35  31    73  45  42    77  49  46    74  46  43    71  46  42    77  52  48    74  50  46    68  44  40    65  44  39    72  51  46    64  43  38    66  42  38    76  52  48    80  55  51    73  48  44    73  45  42    79  49  47    82  46  46    89  51  50    95  57  54    97  60  54    94  57  51    91  54  46    92  55  46    94  57  48    89  53  41    88  52  40    86  50  38    84  48  36    84  47  38    85  48  39    87  50  41    89  51  42    94  54  46    92  52  44    94  54  46    99  59  51    99  59  49    94  54  44    92  52  42    93  53  43    86  44  32    86  44  32    87  45  33    89  47  35    88  46  32    81  42  27    82  40  26    82  42  30    95  52  43    91  48  41    89  46  39    90  47  40    92  49  40    91  48  39    87  44  35    83  40  31    94  50  39    84  40  29    89  45  34    92  48  37    93  49  36    92  48  35    84  40  27    88  44  31    87  45  31    80  41  26    69  32  16    68  32  16    74  38  24    66  33  18    56  24   9    57  25  10
133 123  98   133 123  98   133 123  98   133 123  98   133 123  98   133 123  98   132 122  97   133 121  97   131 117  91   129 115  89   137 123  96   136 127  98   131 121  94   128 122  96   117 111  87    91  86  66    85  78  62    69  61  48    49  36  27    42  28  19    50  33  23    57  37  26    64  42  31    73  49  37    73  47  34    71  45  32    76  48  36    85  57  45    91  63  51    90  62  50    85  55  44    80  50  39    85  53  42    85  53  42    88  54  42    93  59  47    99  65  53   103  69  57   103  69  57   101  67  57    96  62  53    97  63  54    97  63  54    96  62  53    94  60  51    90  57  48    88  55  48    86  53  46    88  55  48    89  56  49    89  56  49    85  55  47    85  52  47    81  51  43    83  50  45    83  50  43    85  48  39    84  46  35    84  46  35    89  51  40    93  55  44    98  58  46   104  64  52   109  70  55    99  57  43    97  55  41    97  53  40   100  57  41   104  58  43   104  58  42   105  59  43   108  62  47   111  63  53   115  67  57   116  68  58   110  64  51   104  58  43    96  54  38    86  50  34    76  44  29    65  37  23    58  32  19    52  28  16    58  31  20    70  42  30    85  53  42    93  59  47    98  62  48   103  64  49   105  63  47   107  64  48   111  65  50   110  62  50   107  57  46   107  59  47   109  63  50   103  59  48   100  58  46    97  57  45    95  57  44    92  54  43    91  53  42    96  56  46   103  63  53   101  61  53   105  65  57   109  69  61   109  69  61   107  67  59   105  65  57   105  65  57   107  67  59    99  59  51    95  55  47    91  51  43    91  51  43    94  54  46   101  61  53   107  67  59   109  71  62   110  73  67   104  67  61   107  68  63   110  71  66   107  68  63   101  62  57    95  55  53    88  48  46    82  44  41    77  42  38    77  42  40    77  46  43    78  49  45    74  46  42    68  43  39    64  40  36    46  28  24    40  25  20    42  28  25    42  28  27    30  18  18    24  12  12    24  14  12    26  17  12    26  19  13    28  21  13    30  21  12    30  21  12    32  21  15    32  21  17    30  16  15    23  11  11    20   9   7    19   9   7    23  12  10    22  11   9    19   8   6    20   9   7    20   9   7    13   2   0    20   9   7    15   5   3    16   5   3    21  11   9    24  13  11    21  10   8    20   9   7    25  11  10    29  14  11    34  19  14    32  17  12    41  24  17    43  24  17    41  21  12    53  30  22    56  32  22    60  35  28    71  46  39    80  55  48    81  56  51    81  56  52    78  54  52    70  46  44    59  35  33    74  46  43    78  48  46    73  43  41    69  41  38    73  48  44    72  48  44    65  41  37    61  40  35    68  47  42    63  42  37    67  43  39    76  52  48    81  56  52    76  51  47    71  43  40    71  41  39    77  41  41    82  43  44    88  50  49    92  54  51    93  56  50    90  53  45    92  55  47    95  58  49    88  52  40    87  51  39    86  50  38    85  49  37    85  48  39    85  48  39    85  48  39    85  48  39    92  54  45    91  51  43    93  53  45    98  58  50    98  58  48    94  54  44    92  52  42    94  54  44    93  51  39    92  50  38    92  50  38    92  50  38    90  48  34    87  45  31    86  44  30    87  45  33    95  52  43    91  48  41    89  46  39    92  49  42    93  50  41    90  47  38    87  44  35    85  42  33    89  45  34    84  40  29    96  52  41    95  51  40    86  42  29    83  39  26    82  38  25    90  48  34    83  44  29    79  40  25    69  32  16    68  32  16    73  37  23    65  32  17    57  25  10    59  27  12
128 116  92   129 117  93   129 117  93   129 117  93   129 117  93   129 117  93   130 118  94   130 118  94   129 115  89   124 110  83   130 116  89   129 120  91   123 113  86   123 117  91   114 108  84    86  81  61    75  68  52    62  54  41    46  33  24    42  28  19    54  36  26    59  39  28    64  42  31    73  49  37    74  48  35    75  49  36    81  55  42    89  63  50    91  63  51    85  57  45    81  53  41    80  52  40    85  55  44    87  57  46    93  61  50    97  65  54   101  69  56   103  71  58   102  70  57   101  69  58    97  64  55    96  63  56    95  62  55    94  61  54    93  60  53    89  59  51    88  57  52    87  56  51    86  55  50    87  56  51    88  57  52    85  56  50    83  52  49    80  51  45    82  51  48    83  52  47    86  52  43    83  46  37    81  44  35    83  47  35    86  50  38    90  52  41    96  58  47   103  65  52    99  59  47    97  58  43    99  57  43   101  59  43   102  59  43   100  57  41   101  58  42   108  62  49   110  62  52   114  64  55   113  65  55   108  62  49   106  60  45   101  59  43    91  55  39    81  49  34    68  40  26    59  33  20    50  26  14    55  28  17    68  40  28    86  54  43    97  63  51   103  67  53   105  69  53   104  67  51   107  68  53   111  69  55   109  65  52   105  59  46   104  57  47   105  61  50    99  57  45    95  57  44    96  60  48    96  60  48    92  56  44    88  52  40    91  53  42    98  60  49    97  57  49   103  63  55   109  69  61   110  70  62   107  67  59   104  64  56   104  64  56   105  65  57   101  61  53    97  57  49    92  52  44    91  51  43    95  55  47   101  61  53   106  66  58   107  69  60   107  70  64    97  62  56   103  66  60   110  73  67   107  67  65   102  62  60    97  57  55    88  48  46    83  45  44    76  41  39    75  40  38    76  45  42    76  46  44    69  41  38    60  35  31    56  32  28    45  28  21    36  21  16    38  24  21    40  26  25    29  17  17    23  11  11    23  13  11    21  12   7    27  20  14    30  23  15    32  23  14    31  22  13    34  23  17    36  25  21    34  20  19    26  15  13    18   7   5    12   2   0    17   7   5    22  12  10    17   7   5    16   6   4    18   8   6    14   4   2    20  10   8    16   8   5    16   6   4    17   9   6    21  11   9    22  12  10    22  12  10    22  12  10    21  13  10    30  23  17    34  25  20    45  34  28    45  30  23    37  18  11    41  21  14    43  20  12    51  26  21    60  35  30    72  44  40    74  49  45    72  46  45    67  43  43    62  38  38    59  33  34    75  45  43    77  48  44    71  42  38    65  37  33    69  44  39    70  47  41    64  41  35    60  40  33    62  42  35    63  43  36    67  44  38    71  48  42    74  49  44    72  47  42    71  43  39    71  41  39    74  40  39    74  38  38    77  42  40    83  48  44    86  51  45    87  53  44    91  57  48    96  62  52    87  53  41    87  53  41    87  54  39    85  52  37    84  50  38    82  48  36    80  46  34    81  45  33    90  52  43    88  50  41    89  51  42    94  56  47    94  56  45    91  53  42    91  51  41    93  53  43    95  53  41    93  51  39    93  49  38    92  48  37    91  47  34    90  46  33    90  46  33    89  45  34    94  50  41    90  45  39    90  45  39    92  47  41    92  48  39    88  44  35    85  41  32    87  43  34    89  47  35    84  42  30    94  52  40    91  49  37    81  39  25    82  40  26    81  39  25    84  42  28    81  42  27    78  39  24    69  32  16    68  32  16    71  35  21    64  31  16    58  26  11    62  30  15
124 112  88   124 112  88   125 113  89   125 113  89   126 114  90   126 114  90   127 115  91   127 115  89   129 113  87   121 105  79   122 108  81   119 107  81   114 104  79   121 113  90   117 111  89    92  85  67    74  67  51    63  53  41    47  34  25    45  28  18    55  37  27    58  38  27    59  37  24    68  45  31    78  52  39    80  54  41    85  59  46    88  62  49    84  56  44    79  51  39    81  53  41    88  60  48    87  57  46    90  60  49    94  64  53    97  67  56    97  67  56    96  66  55    94  64  53    93  63  52    98  65  56    97  64  57    96  63  56    95  62  55    92  61  56    92  61  56    92  61  56    92  61  56    85  54  49    86  55  50    86  57  53    85  56  52    82  53  49    81  52  48    82  53  49    84  55  49    88  55  48    83  50  41    82  48  39    84  50  41    83  49  39    82  45  36    84  47  38    89  51  40   100  62  51    99  59  47    99  59  47   101  62  47   100  58  44    96  54  40    98  56  42   105  61  48   109  61  51   111  63  53   110  62  50   107  61  48   105  62  46   104  62  46    96  59  43    85  52  37    71  42  28    60  32  18    50  24  11    52  25  14    66  38  26    85  55  44   100  68  57   107  73  61   106  73  58   106  70  54   109  71  58   112  73  58   110  68  56   103  61  49   101  59  47   102  62  50    93  55  42    93  57  43    96  60  48    97  63  51    92  58  46    85  51  39    87  51  39    93  57  45    95  55  47   101  61  53   108  68  60   110  70  62   107  67  59   103  63  55   102  62  54   103  63  55   101  61  53    96  56  48    92  52  44    92  52  44    98  58  50   104  64  56   108  68  60   108  70  61   105  68  62    94  59  53   100  63  57   108  71  65   106  66  64   102  62  60    97  57  55    89  49  47    84  46  45    76  41  39    73  39  37    74  43  40    72  44  41    62  37  33    54  29  25    47  26  21    46  28  24    34  19  14    34  20  17    38  24  21    31  17  16    27  13  12    24  13   9    18   7   3    26  17  10    29  20  11    30  21  12    32  22  13    35  24  18    40  29  23    38  27  23    31  20  16    18   9   4    10   1   0    17   7   5    23  15  12    20  10   8    16   8   6    20  12  10    19  11   9    10   2   0    10   5   1    11   6   2    12   7   3    19  14  10    30  25  21    35  30  26    32  28  25    15  14  10    25  24  20    33  29  26    45  37  34    40  31  26    29  16  10    31  16   9    32  15   7    37  18  11    45  26  19    56  35  30    61  40  35    60  36  34    55  31  31    53  29  29    55  29  30    74  44  42    76  47  43    68  39  35    62  34  30    69  41  37    70  45  40    65  42  36    62  39  33    60  37  31    64  41  35    65  42  36    64  39  34    63  38  33    68  40  36    74  46  42    79  50  46    74  40  39    70  36  37    70  36  35    76  42  40    82  49  44    86  51  45    92  58  49    99  65  55    89  55  45    89  55  43    89  55  43    87  53  41    84  50  38    81  47  35    79  43  31    77  41  29    87  50  41    84  47  38    86  49  40    90  53  44    91  54  45    88  52  40    89  51  40    91  53  42    91  51  41    89  49  37    88  46  34    86  44  32    87  45  33    88  46  32    89  45  32    88  44  33    91  47  38    87  44  37    89  44  38    90  47  38    90  46  37    83  40  31    83  39  30    85  43  31    94  52  40    83  41  29    88  46  34    86  44  30    82  40  26    88  46  32    82  40  26    74  35  20    78  41  25    76  39  23    69  33  19    68  32  18    69  36  21    63  30  15    58  26  11    64  32  17
118 108  81   118 108  81   117 107  80   118 108  81   119 109  82   117 107  80   115 105  78   113 101  75   115 100  71   114  97  69   110  96  69   115 103  79   115 104  82   121 113  94   123 114  97    95  86  71    78  66  54    63  49  40    52  35  25    53  35  25    60  40  29    62  43  29    62  43  28    64  43  26    77  51  36    83  55  41    85  57  43    80  52  38    77  49  37    80  52  40    86  58  46    89  61  49    94  66  55    96  68  57    97  69  58    97  69  58    95  67  56    94  66  55    97  69  58    99  71  60   103  73  63   100  67  58    96  63  54    95  62  53    95  65  57    95  65  57    91  61  53    87  57  49    89  60  54    84  55  49    83  54  48    86  57  51    85  56  52    81  52  48    80  52  48    84  55  51    82  53  47    78  47  42    83  50  45    89  56  51    87  54  47    82  47  41    82  45  37    84  47  39    92  55  47    96  59  50    99  62  53    98  62  50    94  58  46    92  56  42    94  58  44    97  59  46   107  61  48   108  60  48   109  61  47   108  62  47   106  62  49   104  62  48   100  62  49    98  62  48    79  45  33    77  45  32    62  32  21    54  26  14    66  38  26    80  54  41    90  62  50    99  69  58   105  71  59   107  71  57   108  72  60   108  70  57   106  68  57   101  63  52    97  59  48    94  56  45    87  51  39    97  61  49    97  61  49    99  63  51    92  56  44    83  47  35    91  55  43    91  55  43    94  54  46    98  58  50   104  64  56   107  67  59   103  63  55    98  58  50   100  60  52   107  67  59   103  63  55    98  58  50    90  50  42    88  48  40    96  56  48   106  66  58   109  69  61   104  66  57   104  67  61    96  61  55   104  67  61   113  76  70   110  70  68   101  61  59    95  54  52    87  47  45    86  48  47    80  45  43    76  42  40    74  45  41    69  44  40    60  36  32    52  31  26    49  30  26    37  22  19    30  16  13    29  14  11    32  17  14    35  20  17    33  18  13    32  17  10    34  19  12    39  24  17    34  21  12    35  22  13    35  25  15    43  33  24    57  46  40    52  41  35    26  17  10    19  10   3    14   7   0    22  15   9    26  21  17    21  13  11    16  10  10    18  12  12    15  11  10    14  10   7    13   9   6    16  15  10    18  17  12     7   8   3    62  63  58    70  71  66    53  53  51    40  44  45    14  18  19    37  37  37    55  54  52    26  22  19    15  10   4    27  23  14    18  11   1    22  15   5    25  18   8    34  25  16    44  31  23    47  30  23    46  25  22    52  26  25    61  33  32    64  36  32    63  36  29    64  37  30    67  40  33    70  43  36    69  44  37    67  42  35    64  39  32    59  34  27    67  42  35    65  40  33    66  39  32    71  44  37    71  42  36    70  41  35    77  48  44    73  42  40    73  41  42    72  41  39    72  41  38    74  43  40    82  49  44    90  57  52    96  63  56    87  53  44    89  55  45    93  56  47    92  56  44    88  52  40    84  48  36    82  44  31    80  44  32    73  39  29    76  42  33    80  46  37    84  50  40    84  50  40    82  48  38    81  44  35    78  42  30    80  44  32    80  44  32    81  43  32    81  43  30    82  44  31    83  45  32    84  46  33    85  45  33    86  46  36    79  39  29    86  43  34    90  50  38    86  44  32    81  41  29    84  42  30    79  39  27    89  49  37    84  45  30    80  41  26    81  42  25    85  46  29    84  45  28    76  37  20    68  31  15    76  40  26    69  36  21    68  34  22    73  39  27    71  39  26    64  32  19    62  30  17    64  32  19
115 105  78   114 104  77   113 103  76   113 103  76   114 104  77   113 103  76   111 101  74   110  99  71   111  96  67   109  92  64   107  93  66   114 102  78   111 103  82   115 107  88   116 107  92    92  80  68    72  58  49    61  44  36    52  32  23    53  33  22    60  40  29    65  46  31    68  49  34    73  52  35    78  52  37    83  55  41    84  56  42    81  53  39    83  55  43    90  62  50    95  67  55    97  69  57    97  69  58    97  69  58    97  69  58    96  69  58    96  67  59    96  69  60    99  70  62   101  72  64   104  71  62   100  67  58    95  62  53    93  60  51    93  60  53    90  60  52    88  58  50    85  55  47    86  57  51    82  53  47    82  53  47    84  55  49    84  55  51    81  53  49    82  54  50    85  57  53    79  51  47    78  49  45    80  51  47    83  52  49    82  51  46    81  48  43    81  46  40    81  46  40    81  47  38    86  52  43    91  57  47    94  60  50    96  60  48    96  60  48    95  61  49   100  62  49   103  59  46   106  60  45   108  62  47   107  64  48   108  64  51   106  64  50   103  63  51   101  63  50    89  53  41    84  50  38    69  37  26    60  30  19    72  44  32    86  60  47    94  67  56   102  74  62   105  71  61   108  72  60   109  73  61   108  72  60   106  70  58   101  65  53    96  60  48    93  57  45    91  55  43    98  62  50    97  61  49    96  60  48    89  53  41    82  46  34    88  52  40    88  52  40    90  52  43    94  54  46   100  60  52   104  64  56   100  60  52    95  55  47    98  58  50   105  65  57   100  60  52    96  56  48    90  50  42    87  47  39    94  54  46   105  65  57   109  69  61   106  68  59   104  67  61    99  64  58   109  72  66   115  78  72   109  69  67   102  62  60    96  55  53    86  46  44    83  43  43    75  40  38    73  39  37    74  45  41    71  46  42    62  41  36    56  35  30    51  33  29    40  25  22    33  19  18    30  15  12    31  16  13    33  15  11    33  16   9    35  18  11    39  22  14    42  25  17    37  23  14    41  28  19    50  37  28    55  45  36    60  51  42    49  40  33    26  17  10    21  14   4    17  10   2    24  17  11    27  22  18    20  15  12    16  10  10    16  10  10    13   9   8    14  10   7    11  10   6    15  14   9    16  17  12    33  34  29   109 111 108   115 115 115   100 102 101    85  89  90    19  23  24    21  22  24    43  43  43    21  20  18    20  19  15    36  36  28    23  23  15    27  29  18    25  25  15    25  25  15    31  27  18    36  25  19    38  23  18    46  27  23    55  31  27    57  32  27    59  34  27    62  37  30    66  39  32    65  38  31    64  37  30    64  37  30    64  37  30    59  32  25    65  38  31    64  37  30    64  37  30    69  42  35    68  41  34    65  38  31    70  42  38    70  42  39    71  41  41    70  40  38    71  41  39    74  43  40    79  48  45    86  53  48    90  57  50    90  55  49    90  56  47    91  54  45    87  50  41    84  46  35    82  44  33    81  43  30    81  45  33    72  38  28    73  40  31    77  44  35    79  46  37    80  48  37    78  46  35    77  43  33    75  41  31    76  42  30    77  43  31    80  44  32    81  45  33    81  45  31    82  46  32    82  46  32    83  45  32    80  40  30    75  35  25    80  40  28    87  47  35    84  44  32    82  42  30    84  44  32    82  42  30    87  48  33    84  45  30    81  42  25    81  42  25    84  45  28    82  43  26    76  37  20    69  32  16    72  39  24    69  37  24    68  36  23    71  39  26    72  40  27    70  38  25    68  36  23    68  36  23
111  99  73   109  97  71   107  95  69   106  94  68   107  95  69   107  95  69   106  94  68   105  94  66   105  90  61   103  88  59   102  91  63   110 100  75   105  97  74   104  97  78   107  98  83    86  74  60    67  53  42    59  42  32    53  33  24    55  33  22    61  39  28    68  46  32    74  52  38    80  57  41    79  53  38    81  53  39    81  53  41    80  52  40    86  58  46    95  67  55   100  72  61    98  70  59   100  72  61    98  70  59    95  66  58    95  66  58    97  67  59    98  69  61   101  71  63   102  72  64   103  68  62   100  65  59    95  60  54    89  56  49    87  54  47    86  53  46    83  52  47    83  52  47    83  54  48    81  52  46    79  51  47    81  53  49    82  54  50    79  54  49    81  56  51    84  59  54    74  49  45    78  50  47    78  50  46    76  47  43    77  48  42    79  48  43    78  48  40    79  46  39    79  46  37    83  49  40    88  54  44    93  56  47    96  58  49    95  57  48    94  56  45    94  54  42   100  58  44   103  59  46   106  62  49   107  65  51   109  67  55   107  67  55   105  67  56   104  66  55    96  59  50    89  55  45    73  41  30    66  34  23    77  47  37    92  62  52   100  70  60   105  75  64   107  73  63   110  74  62   110  74  62   108  72  60   105  69  57   101  65  53    97  61  49    94  58  46    94  58  46    98  62  50    95  59  47    93  57  45    86  50  38    80  44  32    84  48  36    85  49  37    87  49  40    89  51  42    95  57  48    98  60  51    95  57  48    90  52  43    93  55  46    99  61  52    96  58  49    94  56  47    89  51  42    85  47  38    90  52  43   101  63  54   108  70  61   108  70  61   103  66  60   104  69  63   115  78  72   116  79  73   108  69  64   103  64  59    97  56  54    84  44  42    81  41  39    73  38  34    72  38  36    74  45  41    73  48  43    64  44  37    56  35  30    51  33  29    42  27  24    35  21  20    31  16  13    30  15  12    30  12   8    30  13   6    36  19  12    43  26  18    40  26  17    39  25  16    50  37  28    67  54  45    71  61  52    63  54  45    45  36  29    24  17   9    24  15   6    20  13   5    26  19  13    30  22  19    24  16  14    15  10   7    14   9   6    12   8   5    13   9   6    19  15  12    23  19  16    13  12   8    43  41  42   132 132 134   152 150 155   167 167 169   145 143 144    36  35  33     9   5   4    30  26  25    26  22  21    45  41  38    62  61  57    48  49  43    50  53  46    46  49  42    41  44  35    35  36  28    31  28  21    30  23  15    36  25  19    46  31  24    49  30  23    56  33  27    60  37  31    61  36  31    59  31  27    57  29  25    58  30  26    61  32  28    57  28  24    60  32  28    60  32  28    60  35  30    64  41  35    62  39  33    56  36  29    57  37  30    67  42  38    69  41  38    70  40  38    72  42  40    74  45  41    77  48  44    79  48  43    82  49  42    86  51  45    87  53  44    89  52  43    86  49  40    82  46  34    79  43  31    79  41  30    79  43  31    72  38  28    72  39  30    74  41  32    75  42  33    77  43  33    76  42  32    74  40  30    73  39  29    76  40  28    78  42  30    80  44  32    81  45  33    83  45  34    83  45  34    82  44  31    82  44  31    78  38  28    76  33  24    80  37  28    87  44  35    85  43  31    83  41  29    85  43  31    84  42  30    86  44  30    85  43  29    84  42  28    84  42  28    84  42  26    82  40  24    77  35  19    72  33  18    69  36  21    70  38  25    70  38  25    70  38  25    72  40  27    77  45  32    76  44  31    71  39  26
104  92  66   102  90  64    99  87  61    98  86  60    98  86  60    99  87  61    99  87  61    98  86  60   101  87  60    98  84  55    96  86  59   103  96  70    96  90  66    95  88  69   100  91  74    84  72  58    64  50  39    61  43  33    58  35  27    56  34  23    60  38  25    67  45  32    76  53  39    81  58  42    79  53  38    79  51  37    76  48  36    77  49  37    85  57  45    94  66  54    96  68  57    91  63  52   103  75  64    98  70  59    95  65  57    93  63  55    95  65  57    98  68  60   101  68  61   101  68  61   103  68  62    99  64  58    93  58  52    86  53  46    81  48  41    79  49  41    80  49  44    81  52  46    83  54  48    80  53  46    79  51  47    77  52  47    77  52  47    77  54  48    79  56  50    81  58  52    70  45  41    77  52  48    74  49  44    69  44  39    73  45  41    77  50  43    76  47  41    75  46  38    76  46  38    80  47  38    84  50  41    90  52  43    93  53  45    96  53  46    95  52  43    94  51  42    99  57  45    99  60  45   102  62  50   106  66  54   108  68  56   108  70  59   108  70  59   107  69  58   101  64  55    95  58  49    76  42  32    69  37  26    83  49  40    97  64  55   102  69  60   105  72  63   111  77  67   111  75  63   109  73  61   106  70  58   103  67  55   101  65  53    99  63  51    98  62  50    95  59  47    95  59  47    92  56  44    88  52  40    83  47  35    80  44  32    83  47  35    85  49  37    88  50  41    89  51  42    93  55  46    95  57  48    92  54  45    87  49  40    88  50  41    94  56  47    94  56  47    94  56  47    90  52  43    85  47  38    88  50  41    97  59  50   104  66  57   105  68  59   102  65  57   107  72  66   119  82  76   117  80  74   108  69  64   103  64  59    97  56  54    83  43  41    82  42  40    74  39  35    73  39  37    75  46  42    73  48  43    63  43  36    54  33  28    47  29  25    43  28  25    37  23  22    33  18  15    31  16  13    30  12   8    30  13   6    36  19  11    44  27  19    39  25  16    41  27  18    56  43  34    76  66  56    80  70  61    61  52  43    37  30  22    22  15   7    23  14   5    23  14   5    27  18  13    30  23  17    25  17  14    18  10   8    16   8   6    15  10   7    10   5   2    17  13  10    29  24  21    18  14  13    36  31  35    86  81  88    83  77  87   113 108 115   147 141 141    49  44  40    21  13  11    26  18  16    23  14  15    46  40  40    71  67  66    80  80  78    90  92  89    88  93  87    82  89  82    65  70  63    42  45  36    26  27  19    23  23  13    32  25  17    42  29  21    46  29  21    48  29  22    49  29  22    50  27  21    51  26  21    54  26  22    56  27  23    54  25  21    55  27  23    56  28  24    57  34  28    59  39  32    57  38  31    52  35  27    50  31  24    66  41  37    68  40  37    71  41  39    73  43  41    75  46  42    76  47  43    75  44  39    74  43  38    75  42  35    81  47  38    87  50  42    89  52  43    86  49  40    81  45  33    77  39  28    74  37  28    73  39  30    73  40  31    73  40  31    73  40  31    74  40  30    74  40  30    73  39  29    72  38  28    74  38  26    76  40  28    79  43  31    81  45  33    83  45  34    83  45  34    82  44  31    82  42  30    84  41  32    81  38  29    82  39  30    87  44  35    85  43  31    82  40  28    82  40  28    83  41  29    84  42  28    85  43  29    85  43  29    85  43  29    83  41  25    80  38  22    77  35  19    73  34  19    67  34  19    72  40  27    72  40  27    68  36  23    71  39  26    79  47  34    79  47  34    72  40  27
 96  86  61    94  84  59    91  81  56    90  80  55    90  80  55    91  81  56    91  81  56    90  80  53    96  85  57    92  83  52    90  83  55    94  88  62    88  82  58    89  82  63    98  89  72    83  71  57    60  43  33    59  41  31    59  37  26    59  35  25    63  39  27    69  45  33    78  52  39    79  56  42    76  50  37    76  50  37    75  49  36    77  51  38    85  58  47    94  67  56    95  67  56    90  62  51   107  77  69   102  72  64    99  66  59    97  64  57    98  65  60   100  67  62   102  67  63   101  68  63   101  68  61    96  63  56    88  55  50    79  48  43    75  44  39    74  45  39    78  49  45    80  52  48    84  56  52    81  56  51    77  53  49    72  51  46    71  50  45    72  51  46    74  53  48    74  53  48    67  43  39    76  52  48    72  48  44    65  42  36    70  47  41    73  50  42    71  46  39    74  47  38    70  41  33    72  42  32    78  44  35    84  45  38    92  49  42    98  53  47   103  56  50   102  58  49    98  58  48    99  61  48   101  63  52   104  66  55   106  68  57   107  70  61   108  71  62   108  71  62   107  70  62   101  64  56    85  48  40    77  43  34    91  54  46   102  68  59   105  70  64   107  73  64   115  78  69   112  76  64   107  71  59   102  66  54    99  63  51   100  64  52   102  66  54   103  67  55    93  57  45    91  55  43    89  53  41    85  49  37    82  46  34    83  47  35    83  47  35    86  50  38    91  53  44    91  53  44    92  54  45    93  55  46    90  52  43    84  46  37    85  47  38    89  51  42    94  56  47    95  57  48    92  54  45    86  48  39    86  48  39    93  55  46    99  61  52   100  63  54   100  63  55   105  71  62   118  81  75   118  81  75   109  70  65   104  65  60    97  56  54    82  42  40    79  39  37    72  37  33    72  38  36    74  45  41    72  47  42    61  41  34    53  33  26    47  30  23    41  26  23    36  22  21    35  20  17    34  19  16    33  15  11    32  15   8    36  19  11    44  27  19    39  25  14    43  29  18    59  46  37    80  70  60    83  73  63    57  49  38    30  23  13    20  13   3    21  12   3    23  13   4    26  15  11    28  19  14    27  17  15    21  11   9    19   9   7    21  13  10    20  12   9    17  12   9    27  19  17    27  21  23    34  27  35    41  33  46    31  22  39    73  65  78    73  63  64    31  20  16    38  27  25    40  28  28    32  22  23    44  35  36    62  58  59    97  97  97   117 121 120   120 126 124   115 124 119    96 107  99    68  78  69    44  52  41    29  35  23    25  27  16    34  30  19    32  22  13    29  16   8    31  16   9    39  20  14    47  23  19    49  24  20    50  22  19    53  23  21    51  23  20    53  25  22    54  30  26    54  33  28    54  35  29    51  34  27    47  30  23    63  39  35    66  41  37    70  42  39    72  44  41    74  45  41    74  45  41    73  42  37    72  41  36    71  38  31    75  42  33    82  48  39    85  51  41    85  48  39    81  44  35    78  41  32    76  39  30    76  42  33    76  42  33    75  41  32    75  41  32    76  39  31    76  39  31    75  38  29    75  38  29    74  36  27    76  38  29    79  41  30    81  43  32    84  44  34    84  44  34    82  42  32    82  42  32    86  43  34    85  41  32    85  41  32    88  44  35    88  44  35    84  40  31    83  39  28    86  42  31    84  40  29    86  42  31    87  43  30    86  42  29    84  40  27    81  37  24    79  36  20    75  36  21    66  33  18    74  42  29    74  42  29    67  35  22    68  36  23    77  45  32    78  46  33    71  39  26
 90  80  55    86  79  53    86  76  51    83  76  50    86  76  51    84  77  51    85  75  50    82  75  47    87  80  51    87  80  51    84  79  50    85  81  54    80  76  51    87  82  62    98  91  73    81  69  55    53  36  26    56  36  27    60  36  26    63  36  27    68  41  30    74  47  36    77  51  38    77  51  38    72  49  35    76  53  39    81  55  42    84  58  45    91  64  53    98  71  60   100  72  61    96  68  57   104  74  66   101  71  63   100  67  60    99  66  59   100  65  61   102  67  63   103  68  64   102  69  64    96  65  60    88  59  51    78  49  43    71  42  36    68  41  34    71  44  37    74  49  44    78  53  48    83  58  53    82  59  53    76  55  50    71  50  45    68  49  43    69  50  44    70  51  45    70  49  44    65  41  37    74  50  46    68  47  42    64  43  38    71  50  45    70  50  43    65  45  38    72  49  41    72  45  38    74  45  37    78  45  38    84  45  38    89  46  40    96  49  43   101  52  47   103  56  50   101  61  53    99  63  51   100  63  54   101  64  55   103  66  57   105  68  59   108  71  62   109  72  63   112  75  67   109  72  64    96  59  51    89  52  44   100  63  55   110  73  65   111  74  68   113  76  68   114  77  68   110  74  62   104  68  56   100  64  52    98  62  50   100  64  52   103  67  55   106  70  58    91  55  43    87  51  39    87  51  39    83  47  35    83  47  35    86  50  38    84  48  36    86  50  38    92  54  45    90  52  43    90  52  43    91  53  44    88  50  41    82  44  35    82  44  35    86  48  39    93  55  46    94  56  47    92  54  45    86  48  39    86  48  39    91  53  44    95  57  48    94  57  48    95  61  52   100  66  57   114  77  71   118  81  75   111  72  67   104  65  60    96  55  53    82  42  40    74  34  32    69  34  30    70  36  34    72  43  39    69  44  39    59  39  32    54  34  27    51  34  27    40  25  22    35  21  18    34  19  16    35  20  15    37  20  13    35  18  11    38  21  13    43  26  18    42  25  15    48  34  23    65  51  42    84  71  62    83  73  63    54  46  35    27  18   9    21  12   3    21  11   2    23  12   6    23  12   6    25  14  10    27  16  12    21  12   7    20   9   5    26  17  12    26  16  14    23  15  12    27  17  18    31  22  27    27  15  27    35  24  41    93  81 103   184 171 188    97  85  89    39  25  22    32  18  17    28  14  14    28  16  18    43  34  35    54  48  50    92  90  91   115 117 116   117 123 121   118 127 122   113 124 116   104 114 103    88  98  87    67  78  64    54  60  48    43  43  31    34  30  19    23  16   6    22  12   3    31  16   9    40  21  15    46  22  18    45  20  16    50  22  19    47  19  16    47  22  18    49  25  21    47  26  21    49  30  24    52  33  27    50  31  25    60  36  32    63  38  34    69  41  38    70  42  39    70  41  37    70  41  37    72  41  36    74  43  38    74  41  34    75  42  35    78  44  35    78  44  35    79  42  34    79  42  33    80  43  34    81  44  35    77  43  34    77  43  34    77  43  34    76  42  33    77  40  32    76  39  31    74  37  28    74  37  28    73  35  26    75  37  28    77  39  28    80  42  31    82  42  32    83  43  33    82  42  32    82  42  32    85  41  32    85  41  32    84  40  31    86  42  33    90  46  37    86  42  33    84  40  29    90  46  35    85  41  30    86  42  31    87  43  30    87  43  30    85  41  28    83  39  26    80  37  21    78  36  22    68  32  18    75  43  30    77  45  32    69  37  24    67  35  22    74  42  29    77  45  32    75  43  30
 83  76  50    81  75  49    81  74  48    80  74  48    82  75  49    80  74  48    79  72  46    76  71  42    77  72  42    80  77  46    79  75  46    76  75  47    73  71  46    87  82  62    98  91  73    75  63  47    51  33  21    58  36  25    64  37  28    67  38  30    72  44  33    76  48  37    74  46  35    67  40  29    71  47  35    79  57  44    87  63  51    90  66  54    94  67  58    98  71  62    99  70  62    97  68  60    91  60  55    91  60  55    93  60  55    93  60  55    95  60  58    96  61  59   101  63  62   100  67  62    89  62  55    77  54  46    66  43  37    59  36  30    60  37  31    66  43  37    72  48  44    73  52  47    79  58  53    80  59  54    75  56  52    68  49  45    66  47  43    68  49  45    69  50  46    69  48  45    65  41  39    72  48  46    66  45  42    66  45  40    74  55  49    68  49  42    61  42  35    71  51  42    73  50  42    78  51  42    82  52  44    87  50  42    89  46  40    92  44  40    96  47  43    98  50  46   104  63  57   101  64  55    99  62  54    99  62  54   100  63  55   103  66  58   106  69  61   109  72  64   113  76  68   113  76  68   102  65  57    95  58  50   104  67  61   111  74  68   111  74  68   113  76  68   110  73  64   107  71  59   103  67  55   100  64  52    99  63  51   101  65  53   103  67  55   106  70  58    92  56  44    85  49  37    87  51  39    83  47  35    84  48  36    88  52  40    83  47  35    85  49  37    87  50  41    85  48  39    85  48  39    87  50  41    85  48  39    81  44  35    81  44  35    85  48  39    89  52  43    91  54  45    89  52  43    85  48  39    87  50  41    91  54  45    93  56  47    91  54  45    93  59  50    94  60  51   107  70  62   117  80  72   113  74  67   103  64  57    94  53  49    82  43  38    72  32  30    69  34  30    70  37  32    70  41  35    64  39  32    55  35  26    52  32  25    51  34  27    40  25  20    35  20  17    32  17  14    35  20  15    38  21  14    38  21  14    41  22  15    44  27  17    45  28  18    55  41  30    72  58  47    89  77  65    86  76  66    56  48  37    28  19  10    22  13   4    21  10   4    25  12   6    23  10   4    23  10   4    27  14   8    20   9   3    22   9   3    29  18  12    21  10   6    27  17  15    26  14  16    31  20  26    17   3  18    37  24  44   153 139 165   255 248 255   147 131 141    39  23  24    17   1   2    27  12  15    34  22  24    52  42  43    57  48  49    85  81  80   109 108 106   112 114 109   117 122 116   125 130 123   131 139 128   129 137 124   113 121 108    98 104  92    77  79  68    62  62  52    44  41  32    32  25  17    29  18  12    34  19  14    39  21  17    42  21  18    44  20  18    40  14  13    43  17  16    44  18  17    40  16  14    46  22  20    54  30  28    54  30  28    54  30  26    58  34  30    63  38  33    63  38  33    62  34  30    63  35  31    70  41  35    75  46  40    74  44  36    75  45  37    77  44  37    76  43  34    75  41  32    75  41  32    76  42  33    78  44  35    76  41  35    76  41  35    78  41  35    78  41  35    77  40  32    75  38  30    72  35  27    71  34  26    74  36  27    74  36  27    77  37  29    79  39  31    80  40  30    82  42  32    83  43  33    83  43  33    85  40  34    87  42  36    83  38  32    84  39  33    89  45  36    84  40  31    81  37  28    88  44  35    87  43  32    87  43  32    87  43  32    88  44  33    87  43  30    85  41  28    82  38  25    79  37  23    68  32  18    76  42  30    80  46  34    74  40  28    70  36  24    74  40  28    80  46  34    83  49  37
 79  75  48    78  74  47    78  74  47    78  74  47    79  75  48    78  74  47    75  71  44    73  69  42    69  65  36    74  73  43    74  73  45    72  71  43    70  68  45    88  83  61    97  90  71    71  59  43    53  35  23    61  39  28    67  40  31    69  40  32    74  44  34    75  45  35    68  40  29    57  30  19    72  48  36    82  60  47    92  68  56    93  69  59    91  67  57    93  66  57    93  66  57    92  63  55    76  45  40    79  48  43    84  51  46    85  52  47    87  52  50    89  54  52    95  57  56    95  61  59    84  59  54    70  50  43    58  38  31    52  32  25    55  35  28    62  42  35    68  47  42    71  50  45    78  57  52    79  58  53    75  54  51    68  47  44    66  45  42    70  49  46    71  50  47    71  47  45    66  40  39    72  46  45    67  43  41    67  46  43    76  57  53    68  49  43    59  40  34    71  52  45    65  45  38    73  48  41    81  52  46    87  52  46    89  48  44    92  47  42    99  50  46   101  53  49   106  65  59   103  64  57   100  61  54    97  60  52    99  60  53   101  64  56   105  68  60   108  71  63   110  73  65   111  74  66   102  65  57    96  59  51   103  66  60   106  71  65   108  71  65   110  73  65   106  69  60   105  69  57   103  67  55   101  65  53   101  65  53   102  66  54   103  67  55   104  68  56    93  57  45    86  50  38    87  51  39    83  47  35    85  49  37    89  53  41    81  45  33    83  47  35    84  47  38    81  44  35    82  45  36    84  47  38    83  46  37    80  43  34    81  44  35    85  48  39    86  49  40    88  51  42    87  50  41    85  48  39    88  51  42    93  56  47    93  56  47    90  53  44    92  58  49    89  55  46   103  66  58   116  79  71   114  75  68   103  64  57    93  52  48    83  44  39    75  35  33    72  37  33    72  39  34    70  41  35    61  36  29    50  30  21    47  27  20    49  30  24    43  25  21    34  19  16    31  16  11    35  17  13    38  21  14    40  21  14    43  25  15    47  29  19    48  30  20    62  45  35    80  63  53    94  80  69    91  78  69    60  50  40    31  21  12    24  14   5    25  12   6    27  14   8    22   9   3    21   8   2    25  12   6    21   8   2    20   7   1    31  18  12    32  18  15    32  21  19    21   6   9    31  18  25    25   8  24    49  34  55   171 152 180   255 240 255   158 142 155    27  12  19    18   3   8    43  28  33    33  21  23    42  30  30    52  42  41    86  78  75   120 115 111   126 121 115   132 129 122   139 136 127   144 144 134   146 146 136   137 137 127   124 124 114   115 112 103    98  95  86    72  68  59    49  42  34    33  24  17    31  18  12    34  19  14    40  22  18    38  19  15    34  13  10    39  15  13    39  15  13    34  10   8    43  17  16    54  28  27    56  30  29    50  26  22    55  31  27    60  35  30    59  34  29    55  30  25    59  31  27    67  40  33    76  47  41    73  42  37    76  46  38    80  47  40    80  47  40    77  44  37    75  41  32    73  39  30    72  38  29    75  40  34    75  40  34    78  41  35    78  41  35    76  39  31    73  36  28    71  34  26    69  32  24    74  36  27    74  36  27    76  36  28    77  37  29    79  39  29    81  41  31    83  43  33    84  44  34    88  43  37    89  44  38    84  39  33    83  38  32    87  43  34    80  36  27    75  31  22    83  39  30    88  44  33    87  43  32    87  43  32    88  44  33    88  44  31    87  43  30    83  39  26    79  37  25    68  32  20    76  42  30    82  48  36    78  44  32    72  38  26    74  40  28    82  48  36    89  55  43
 67  67  41    68  68  42    69  69  43    68  68  42    66  66  40    66  66  40    68  68  42    71  71  43    70  71  40    71  72  41    74  74  46    74  74  46    65  63  40    83  78  56    98  90  71    71  58  41    55  36  22    63  39  27    74  45  37    78  48  40    71  41  33    63  33  25    63  35  24    70  43  32    82  60  49    82  62  51    85  63  52    83  60  52    78  55  47    75  50  43    76  49  42    76  49  42    63  34  30    71  42  38    76  45  42    74  43  40    79  45  44    85  51  50    85  49  49    74  43  41    64  40  36    56  37  31    45  26  20    39  20  14    47  26  21    62  41  36    74  50  48    76  52  50    85  61  59    85  61  59    71  47  47    57  33  33    62  36  37    66  40  41    67  41  42    73  47  48    69  40  42    75  49  50    63  39  39    69  48  45    71  52  48    67  48  42    72  55  48    56  37  30    68  48  41    70  47  39    72  45  38    82  49  42    89  52  46    82  41  37    83  38  35    97  52  49   104  60  57    99  58  54    99  58  54   100  61  56   101  60  54    99  60  53   104  65  58   110  71  64   106  69  61   104  67  59   101  67  58   102  68  59   103  69  60   103  70  61   104  70  61   103  69  60    99  62  53   104  68  56   100  64  52    96  60  48   101  65  53   102  66  54    97  61  49    94  58  46    95  59  47    91  55  43    87  51  39    86  50  38    89  53  41    89  53  41    86  50  38    82  46  34    81  44  35    81  44  35    82  45  36    82  45  36    82  45  36    83  46  37    83  46  37    83  46  37    82  45  36    84  47  38    87  50  41    88  51  42    88  51  42    89  52  43    93  56  47    96  59  50    94  60  50    84  50  40    93  56  48   108  71  63   112  73  66   108  69  62    99  58  52    83  44  37    73  34  29    66  31  25    70  37  32    71  42  36    59  34  27    48  28  19    47  27  18    44  25  18    40  22  18    38  20  18    35  17  13    37  18  14    42  23  17    48  28  21    50  30  21    51  31  22    49  29  18    57  39  27    74  57  47    92  78  67    91  77  66    64  52  40    36  23  14    25  12   4    26  13   7    24  11   5    24  10   7    28  14  11    28  15   9    25  12   6    27  12   7    31  16  11    27  12   7    27  13  10    27  11  12    28  13  20    24   6  22    47  29  51   112  92 119   151 133 159    93  79  96    38  24  37    23  10  20    33  20  27    41  29  31    34  23  21    57  46  42    89  78  72   119 106  98   128 115 106   138 125 116   145 132 123   149 136 127   150 137 129   143 130 122   135 122 114   133 122 116   115 104  98    91  80  74    68  57  51    50  39  33    41  30  24    40  27  21    38  25  19    36  21  16    30  12   8    26   7   3    28   9   5    34  13  10    39  15  13    47  21  20    53  27  26    49  25  21    50  30  23    56  33  27    56  33  27    54  31  25    57  32  27    64  36  32    69  42  35    69  40  34    66  37  31    68  37  32    73  42  37    75  44  39    74  41  34    72  39  32    72  39  32    74  39  35    71  36  32    72  37  31    75  40  34    75  40  34    70  35  29    71  34  26    74  37  29    78  41  33    79  42  34    79  41  32    75  37  28    71  33  24    71  33  24    77  37  29    82  42  34    83  38  32    85  40  34    87  42  36    87  42  36    85  40  34    85  40  34    87  43  34    89  45  36    84  40  31    85  41  32    86  42  31    88  44  33    87  43  32    85  41  30    83  39  28    80  38  26    77  41  29    75  41  29    74  40  28    72  38  26    71  37  25    74  40  28    80  46  34    86  52  40
 66  69  42    66  69  42    66  69  42    65  68  41    65  68  41    65  68  41    66  69  42    68  71  44    70  70  42    70  71  40    73  73  45    72  72  44    66  64  39    84  79  57    96  88  69    68  55  38    56  37  23    64  40  28    74  45  37    77  47  39    71  41  33    64  35  27    67  39  28    74  47  36    87  65  54    82  62  51    77  54  46    69  46  38    62  39  31    59  36  28    62  37  30    66  39  32    60  32  28    65  36  32    64  35  31    64  33  30    69  38  36    77  46  44    76  42  41    63  33  31    60  36  32    53  34  28    44  25  19    36  17  11    41  20  15    54  33  28    67  43  41    71  47  45    89  63  62    88  62  61    66  40  41    51  25  26    64  35  37    70  41  43    69  40  42    77  48  50    73  44  48    83  57  60    73  48  51    72  51  50    65  45  44    62  43  39    77  59  55    75  56  50    72  51  46    71  48  42    69  41  37    77  46  41    89  54  50    89  50  45    88  44  41    94  50  47    98  54  51    97  53  50    96  55  51    99  58  54   100  59  53    99  58  52   103  64  57   109  70  63   104  67  59   103  66  58   100  66  57   101  67  58   102  69  60   104  72  61   103  70  61   102  70  59    95  61  49   103  67  55    99  63  51    95  59  47   100  64  52   101  65  53    95  59  47    93  57  45    95  59  47    90  54  42    85  49  37    84  48  36    86  50  38    87  51  39    84  48  36    81  45  33    81  44  35    81  44  35    81  44  35    81  44  35    81  44  35    81  44  35    81  44  35    81  44  35    82  45  36    84  47  38    86  49  40    87  50  41    87  50  41    86  49  40    86  49  40    87  50  41    92  58  48    86  52  42    93  56  48   103  66  58   109  70  63   110  71  64   101  60  54    81  42  35    71  32  27    65  30  24    70  37  32    70  41  35    59  34  27    48  28  19    47  27  18    43  24  17    45  26  22    42  23  19    40  21  17    41  20  15    43  23  16    48  25  19    49  26  18    48  25  17    50  28  17    54  34  23    71  53  43    92  75  65    94  77  67    70  56  45    42  28  19    26  13   4    23  10   4    21   8   2    23   9   6    28  14  11    28  14  11    25  12   6    25  10   5    28  13   8    22   7   2    23   8   5    24   8   8    31  14  20    28  10  22    34  15  34    59  40  62    67  49  73    54  41  59    27  16  32    28  16  28    28  17  25    31  19  21    44  33  31    55  42  34    90  76  65   121 103  91   130 110  99   138 116 103   141 119 108   143 120 112   143 120 114   133 110 104   121  97  93   107  86  81    95  74  71    77  58  54    60  42  38    47  32  27    41  28  22    39  26  20    36  25  19    31  20  14    26  13   7    22   7   2    24   9   4    30  11   7    31  12   8    36  12  10    39  15  11    44  24  17    47  27  20    52  29  23    53  30  24    52  29  23    53  30  24    59  34  29    66  38  34    65  36  30    60  31  25    60  29  24    64  33  28    66  35  30    66  35  30    69  36  31    72  39  34    71  38  33    70  35  31    71  36  30    74  39  33    74  39  33    69  34  28    70  33  25    72  35  27    75  38  30    76  39  31    77  39  30    75  37  28    73  35  26    74  36  27    79  41  32    84  44  36    85  42  35    87  44  37    89  44  38    88  45  38    87  42  36    85  42  35    87  43  34    88  45  36    87  43  34    85  42  33    87  43  32    86  44  32    88  44  33    85  43  31    84  40  29    79  39  27    76  40  28    74  40  28    74  40  28    73  39  27    73  39  27    76  42  30    82  48  36    87  53  41
 67  71  44    66  70  43    65  69  42    64  68  41    65  69  42    66  70  43    66  70  43    67  70  43    69  69  41    67  67  39    70  70  42    71  71  43    69  67  42    88  83  61    96  85  67    66  50  34    60  38  25    67  40  29    73  45  34    74  44  34    68  39  31    65  36  28    70  41  33    75  51  41    78  58  49    71  53  43    63  43  36    53  33  26    46  26  19    46  23  17    48  25  19    52  27  22    52  27  23    53  25  22    50  22  19    51  21  19    59  29  29    69  39  39    66  34  35    54  26  25    51  27  25    45  24  21    38  17  14    31  10   7    34  10   8    43  19  17    52  26  27    56  30  31    80  54  55    82  56  57    61  32  36    48  19  23    66  35  40    71  40  45    66  35  40    73  44  48    67  40  45    78  53  56    68  46  48    69  48  47    64  44  43    59  40  36    70  51  47    67  48  42    72  51  46    72  49  43    68  43  38    74  45  39    87  54  49    92  54  51    91  51  49    94  53  51    95  51  48    94  50  47    95  54  48   100  59  53   102  61  55   101  60  54   103  64  57   109  70  63   102  65  56   101  64  55    99  65  55   101  67  57   102  70  59   104  72  59   101  71  60   102  70  57    93  59  47   100  64  52    97  61  49    94  58  46    98  62  50    98  62  50    92  56  44    92  56  44    94  58  46    89  53  41    84  48  36    82  46  34    83  47  35    84  48  36    83  47  35    81  45  33    79  45  35    79  45  35    78  44  34    78  44  34    77  43  33    76  42  32    76  42  32    76  42  32    80  46  36    81  47  37    82  48  38    83  49  39    83  49  39    81  47  37    77  43  33    75  41  31    87  53  43    86  52  42    92  55  46    99  62  53   108  70  61   113  75  66   101  60  54    79  40  33    69  30  23    64  30  21    69  36  29    69  40  32    58  34  24    49  29  18    46  26  17    40  21  14    43  22  17    42  21  18    40  19  16    43  19  15    45  22  16    49  24  19    50  25  18    51  27  17    52  28  18    54  32  21    71  49  38    93  73  62    98  80  70    77  60  50    48  31  23    25  11   2    23  10   4    19   8   2    24  10   7    29  15  12    31  17  14    27  13  10    26  11   6    28  13   8    28  13   6    28  13   8    29  11   9    33  14  16    35  15  24    38  18  30    42  21  38    29  12  31    28  15  33    21  12  29    22  11  25    36  26  34    33  23  24    51  37  34    55  41  32    95  77  63   118  95  81   127  99  85   130 100  89   128  96  85   125  92  83   122  89  82   111  78  73    97  63  61    88  54  53    80  49  47    68  38  36    55  30  26    47  26  21    40  23  16    34  19  12    30  20  11    28  18   9    22  12   3    19   9   0    22  12   3    29  14   7    30  15   8    32  13   7    31  12   6    36  17  10    39  20  13    43  23  16    43  23  16    43  23  16    47  24  18    53  28  23    57  32  27    61  33  29    57  29  25    57  28  24    61  32  28    63  34  30    62  33  29    63  32  29    65  34  29    66  35  30    67  34  29    69  36  31    72  39  34    72  39  32    68  35  28    67  32  26    67  32  26    71  37  28    71  37  28    74  37  29    75  38  30    76  39  30    79  42  33    82  45  36    85  47  38    86  45  39    87  46  40    90  47  41    87  46  40    88  45  38    85  45  37    88  45  38    87  47  39    90  47  38    86  46  36    86  43  34    84  44  34    87  45  33    85  45  33    84  42  30    80  40  28    78  42  30    78  42  30    78  42  30    77  41  29    77  41  29    79  43  31    82  46  34    85  49  37
 71  74  47    68  72  45    66  69  42    65  69  42    68  71  44    68  72  45    68  71  44    67  70  43    66  66  38    65  65  37    69  69  41    70  70  42    74  72  47    94  90  65    95  84  64    64  48  32    63  41  28    69  42  31    72  44  33    69  41  30    63  34  26    60  33  24    65  38  29    70  46  36    57  37  28    54  36  26    51  31  24    47  27  20    44  24  17    42  22  15    42  22  15    44  21  15    45  21  17    46  21  17    43  18  14    42  17  13    49  23  22    58  32  31    60  32  31    53  27  26    48  27  24    41  22  18    34  15  11    30  11   7    32  13   9    38  17  14    40  19  18    40  19  18    51  30  29    55  34  33    45  20  23    38  13  16    49  24  27    54  29  32    51  26  29    56  31  34    69  49  51    74  54  56    64  44  45    70  50  51    79  59  60    74  54  53    71  51  50    62  41  38    68  47  44    72  48  44    74  46  43    74  45  41    81  47  45    87  52  48    94  54  52    96  56  54    94  53  49    94  53  49    98  57  51   102  63  56   104  63  57   101  62  55   103  64  57   107  69  60   102  65  56   101  64  55    99  65  55   101  67  55   104  70  58   104  72  57   103  71  58   101  69  56    92  58  46    98  62  50    95  59  47    93  57  45    97  61  49    95  59  47    90  54  42    92  56  44    93  57  45    88  52  40    83  47  35    80  44  32    80  44  32    81  45  33    81  45  33    80  44  32    79  45  35    78  44  34    77  43  33    76  42  32    75  41  31    74  40  30    73  39  29    72  38  28    82  48  38    80  46  36    79  45  35    80  46  36    81  47  37    79  45  35    75  41  31    71  37  27    82  48  38    83  49  39    91  54  45   102  65  56   114  76  67   114  76  67    97  56  50    76  37  30    71  32  25    65  31  22    70  37  30    69  40  32    58  34  24    49  29  18    44  24  15    37  17  10    46  22  18    45  19  18    43  18  14    42  17  13    45  17  13    48  21  14    51  24  15    53  26  17    57  30  21    54  30  20    71  47  37    95  73  62   101  81  72    84  66  56    54  35  28    26   9   1    27  14   8    22  11   5    25  11   8    30  16  13    32  18  17    29  15  14    29  14  11    31  16  11    29  14   7    30  15   8    28  10   6    24   6   4    27   8  10    36  17  23    42  22  33    35  17  31    21   8  25    59  51  66    13   5  16    36  27  32    42  30  30    47  34  28    61  44  34    88  66  52   101  73  59   112  80  65   116  80  68   107  69  58    99  61  52    95  56  49    88  49  44    78  40  37    78  38  38    76  37  38    66  30  30    57  26  24    52  27  23    45  24  19    38  21  14    36  23  15    40  27  19    33  23  14    28  18   9    29  19  10    35  22  14    37  22  15    36  19  12    34  17  10    32  13   6    34  15   8    37  17  10    38  18  11    38  18  11    41  21  14    46  23  17    51  26  21    60  32  28    58  30  26    61  32  28    67  38  34    69  40  36    64  35  31    61  30  27    60  29  26    65  34  29    65  34  29    67  36  31    69  38  33    71  38  31    68  35  28    66  33  26    65  32  25    72  38  29    72  38  29    73  39  30    75  41  32    80  43  34    82  45  36    84  47  38    85  48  39    83  44  37    85  44  38    86  45  39    86  45  39    86  46  38    86  46  38    87  47  39    88  48  40    91  51  41    88  48  38    85  45  35    84  44  34    86  46  34    86  46  34    84  44  32    81  43  30    84  48  36    83  47  35    82  46  34    79  43  31    78  42  30    77  41  29    78  42  30    79  43  31
 76  76  52    71  73  49    71  71  47    68  70  46    72  72  48    71  73  49    72  72  48    70  70  44    66  66  38    65  65  37    71  71  43    72  72  44    81  79  54   101  95  71    94  83  63    64  49  30    67  45  31    72  46  33    72  44  33    66  38  27    58  29  21    54  27  18    55  30  23    57  34  26    42  22  15    41  22  15    42  23  16    43  24  17    43  24  18    43  24  18    41  22  16    41  20  15    43  22  19    47  23  21    46  22  20    42  18  16    42  18  18    46  22  22    50  26  26    48  27  26    47  29  25    38  23  18    32  17  14    33  18  15    37  22  19    39  24  21    36  21  18    33  18  15    33  19  18    37  23  22    37  23  23    31  17  17    30  16  16    35  21  21    41  27  27    44  30  30    59  45  45    62  48  48    53  39  39    62  46  46    76  60  60    75  57  55    72  52  51    68  47  44    69  45  43    71  46  42    75  45  43    76  45  42    79  45  43    85  50  48    93  53  53    94  54  52    92  53  48    92  53  46    96  57  50   100  63  55   101  63  54    96  59  50    97  60  51   101  64  55   103  66  57   103  67  55   103  67  55   105  69  55   106  70  56   105  72  55   103  70  55   101  68  53    94  58  46    97  61  49    95  59  47    94  58  46    97  61  49    93  57  45    89  53  41    93  57  45    93  57  45    89  53  41    84  48  36    80  44  32    79  43  31    79  43  31    80  44  32    80  44  32    78  44  34    78  44  34    77  43  33    75  41  31    74  40  30    72  38  28    71  37  27    71  37  27    83  49  39    80  46  36    78  44  34    77  43  33    78  44  34    78  44  34    75  41  31    73  39  29    77  43  31    78  44  32    89  52  43   107  70  61   119  81  72   111  73  64    90  49  43    74  35  28    73  34  27    68  34  25    71  38  31    68  39  31    57  33  23    50  30  19    45  25  14    35  15   6    51  26  22    51  23  22    46  18  15    43  15  12    43  14  10    46  17  11    51  22  14    55  26  18    56  28  17    52  25  14    70  43  34    94  70  60   101  79  68    89  69  58    63  43  34    33  16   8    30  17  11    22  13   8    20   9   7    24  13  11    26  14  14    25  14  12    27  13  12    29  15  12    30  15  10    34  19  12    34  17  10    26   9   2    26   8   6    31  13  13    32  13  15    29  12  18    57  45  55   177 167 176    62  52  60    38  29  32    58  47  45    49  34  27    63  45  33    63  40  26    78  46  33    90  54  40    96  56  44    89  49  39    80  40  30    77  39  30    78  39  32    80  41  36    72  30  31    73  33  33    66  28  27    60  26  24    62  33  29    57  32  27    49  29  22    51  34  26    58  41  33    51  37  28    43  30  21    39  26  17    41  27  18    42  28  19    43  26  18    41  24  16    38  19  12    40  21  14    41  22  15    42  23  16    44  24  17    46  26  19    51  28  22    53  30  24    57  32  27    55  30  25    59  31  28    65  37  34    68  38  36    65  35  33    61  31  29    61  32  28    63  34  28    65  36  30    67  38  32    67  38  32    68  37  32    67  36  31    64  34  26    62  32  24    72  39  32    72  39  32    73  40  31    74  41  32    78  44  35    80  46  37    82  48  39    84  47  39    80  41  34    80  41  34    81  42  35    82  43  36    84  45  38    85  46  39    86  48  39    86  48  39    89  51  42    87  49  40    85  47  36    84  46  35    85  47  36    85  47  36    84  46  33    83  45  32    85  49  37    84  48  36    81  45  33    79  43  31    78  42  30    78  42  30    78  42  30    77  41  29
 79  77  54    77  75  52    75  73  50    75  73  50    75  73  50    75  73  50    75  73  50    74  72  49    71  71  45    71  71  43    78  78  50    79  78  50    89  85  60   106 100  76    92  81  61    63  48  29    68  46  32    72  49  35    73  45  34    64  36  25    54  27  18    48  24  14    45  22  14    42  22  13    38  19  12    37  18  11    36  17  10    37  18  11    39  20  14    41  22  16    41  22  16    40  21  15    44  25  21    46  27  23    45  24  21    38  19  15    33  12  11    32  12  11    36  15  14    38  20  18    33  20  14    25  16   9    22  13   8    26  17  12    29  22  16    31  24  18    31  24  18    29  24  18    30  25  21    32  29  24    35  31  28    26  25  21    15  14  10    17  18  13    27  26  22    29  28  24    33  25  23    46  36  35    47  37  36    54  42  42    67  53  52    66  48  48    66  46  47    77  53  53    75  49  48    71  43  42    74  43  41    80  46  45    82  47  45    87  49  48    91  51  51    89  49  47    88  51  45    86  52  43    89  55  46    94  60  51    93  59  49    92  55  46    93  56  47    97  61  49   107  71  59   106  70  56   106  70  56   108  71  55   108  71  55   107  70  54   104  67  51   101  64  48    94  58  44    98  62  50    96  60  48    96  60  48    98  62  50    92  56  44    89  53  41    95  59  47    92  56  44    90  54  42    86  50  38    82  46  34    80  44  32    79  43  31    80  44  32    80  44  32    77  43  33    77  43  33    76  42  32    75  41  31    73  39  29    72  38  28    71  37  27    70  36  26    82  48  38    80  46  36    78  44  34    76  42  32    76  42  32    76  42  32    75  41  31    74  40  30    74  40  28    76  42  30    85  48  39   102  65  56   115  77  68   103  65  56    83  42  36    73  34  27    75  36  29    70  36  27    72  39  32    67  38  30    58  34  24    53  33  22    49  29  18    39  19  10    46  21  17    48  18  18    46  16  14    45  16  12    48  17  14    54  23  18    61  31  23    67  37  29    54  24  14    48  20   9    65  36  28    87  60  51    93  69  59    90  68  57    73  50  42    45  26  19    30  17  11    20  11   6    17   6   4    19   8   6    21   9   9    20   8   8    22   8   8    24  10   7    29  14   9    31  16   9    32  15   7    26   9   1    28  11   4    29  12   5    22   4   0    22   6   6    90  78  82   238 227 233   104  94  95    43  33  32    73  59  56    51  37  28    59  39  28    58  31  20    65  33  20    74  36  25    82  42  30    85  45  33    82  42  32    79  41  30    82  45  36    90  53  45    74  36  33    76  41  39    69  34  32    62  31  28    69  40  36    65  37  33    56  31  26    59  36  30    63  43  36    59  40  33    54  35  28    49  30  23    50  31  24    55  36  29    58  39  32    58  39  32    53  34  27    53  34  27    54  35  28    54  35  28    56  36  29    58  38  31    61  38  32    63  40  34    57  32  27    52  27  22    52  24  21    56  28  25    60  30  28    61  31  29    63  33  31    66  36  34    63  34  30    65  36  30    65  36  30    63  34  28    63  34  28    64  35  29    64  34  26    62  32  24    68  38  30    68  38  30    71  38  29    71  38  29    72  39  30    75  42  33    78  44  35    81  47  38    78  41  33    78  39  32    78  39  32    80  41  34    83  44  37    85  46  39    85  47  38    84  46  37    86  48  39    86  48  39    87  49  38    86  48  37    86  48  37    85  47  36    85  47  34    85  47  34    82  46  34    79  43  31    77  41  29    76  40  28    78  42  30    80  44  32    81  45  33    82  46  34
 82  77  55    82  77  55    81  76  54    80  75  53    78  73  51    77  72  50    78  73  51    79  74  52    79  77  52    80  78  53    88  86  61    85  83  58    94  90  65   108 100  77    89  76  57    61  44  26    69  47  33    74  51  37    75  47  36    66  38  27    55  28  19    46  22  12    40  17   9    34  14   5    33  14   7    32  13   7    32  13   7    33  14   8    36  17  11    38  19  13    36  18  14    35  17  13    39  21  17    37  19  15    35  15  14    29  11   9    27   7   6    25   7   5    27   7   6    25  10   7    15   8   2    12   9   2    16  13   6    17  17   9    17  18  10    19  20  12    29  32  25    38  43  36    48  55  47    51  61  52    54  64  56    44  55  47    32  45  36    24  40  30    23  36  29    20  31  25    33  33  31    45  41  40    44  39  36    52  42  41    65  53  53    64  48  48    65  45  46    81  57  57    81  53  52    73  43  43    80  46  45    88  52  52    86  47  48    84  44  45    88  48  48    90  50  48    87  52  46    85  52  43    88  56  45    93  61  50    93  61  50    92  58  48    94  60  48   101  65  53   111  75  63   111  73  60   110  72  59   111  72  57   110  71  56   107  68  51   103  64  47    99  60  45    97  59  46    99  63  51    97  61  49    98  62  50    99  63  51    93  57  45    90  54  42    97  61  49    92  56  44    91  55  43    88  52  40    85  49  37    82  46  34    80  44  32    80  44  32    80  44  32    76  42  32    76  42  32    75  41  31    74  40  30    73  39  29    72  38  28    71  37  27    71  37  27    79  45  35    79  45  35    79  45  35    77  43  33    75  41  31    72  38  28    71  37  27    70  36  26    72  38  26    77  43  31    81  45  33    89  53  41   100  62  53    94  56  47    80  40  32    73  35  26    75  36  29    70  36  27    71  38  29    66  38  27    59  35  25    58  38  27    56  36  25    46  26  17    46  18  15    49  17  18    52  21  19    53  22  19    58  24  22    63  30  25    70  37  30    75  42  35    59  26  17    49  19   9    61  31  21    76  48  37    78  51  42    80  56  46    75  50  43    52  32  25    33  20  14    22  13   8    18   8   6    20  10   9    23  11  13    21   9   9    19   7   7    20   9   7    21   8   2    19   6   0    21   7   0    19   5   0    27  10   0    30  13   3    26   9   0    36  21  14    80  66  63   149 138 136    85  74  72    49  38  34    67  54  46    57  40  32    70  48  37    80  53  42    77  44  35    76  38  29    83  43  33    96  56  46    99  61  50    92  56  44    87  53  41    90  60  49    75  45  37    80  51  45    74  45  39    70  41  35    78  51  44    73  46  39    63  36  29    68  41  34    72  45  38    72  47  40    69  44  37    63  38  31    62  37  30    68  43  36    73  48  41    73  50  42    65  46  39    63  46  38    63  46  38    63  46  38    64  45  38    65  46  39    67  47  40    68  48  41    59  35  31    52  28  24    49  24  20    51  26  22    55  27  24    56  28  25    59  29  27    63  33  31    60  32  28    62  34  30    61  34  27    57  30  23    57  30  23    60  33  26    61  32  26    59  30  24    60  31  23    62  33  25    64  34  24    64  34  24    63  33  23    66  36  26    73  40  31    79  45  36    81  44  36    79  42  34    78  41  33    79  42  34    82  45  37    83  46  38    81  44  35    80  43  34    80  43  34    84  47  38    87  51  39    87  51  39    85  49  37    83  47  35    84  48  36    86  50  38    81  45  33    77  41  29    74  38  26    74  38  26    77  41  29    80  44  32    83  47  35    83  47  35
 84  78  56    85  79  57    85  79  57    83  77  55    80  74  52    79  73  51    80  74  52    81  76  54    87  83  58    87  85  60    94  94  68    88  88  62    96  92  67   107 101  79    86  73  54    58  41  25    68  46  32    74  50  38    76  49  38    66  39  30    54  30  20    46  23  15    37  17   8    29  10   3    25   6   0    26   7   1    29  10   4    33  16   9    37  20  13    37  19  15    31  16  11    28  13  10    28  14  11    23   9   6    19   5   4    18   4   3    20   6   5    20   6   5    20   6   5    17   6   2    10   5   1    13  12   7    20  21  15    21  24  17    16  21  14    19  26  19    37  47  39    57  68  62    95 108 101   103 118 111   105 120 113    95 115 106    86 107 100    69  92  84    51  74  66    42  61  55    44  55  49    41  46  42    25  25  23    28  24  23    51  41  42    58  43  46    58  38  40    72  46  49    81  51  53    76  44  45    88  52  52    95  60  58    85  46  47    77  39  38    85  47  46    91  56  52    89  56  47    87  57  46    90  60  49    94  65  51    98  66  53    98  64  52   101  68  53   108  72  58   115  78  62   115  76  61   113  74  59   114  72  56   114  71  55   110  67  51   104  61  45    99  57  41    99  60  45   100  62  49    99  61  48   100  62  49   101  63  50    94  56  43    91  53  40   100  62  49    94  56  43    93  55  42    91  53  40    87  51  37    85  47  34    81  45  31    81  43  30    80  44  32    76  42  30    76  42  32    75  41  31    74  40  30    73  39  29    73  39  29    72  38  28    72  38  28    76  42  32    79  45  35    80  46  36    78  44  34    74  40  30    69  35  25    67  33  23    66  32  22    71  37  25    78  44  32    76  42  30    76  40  28    86  49  40    87  49  40    78  40  31    73  35  26    73  36  27    69  35  25    70  37  28    66  38  27    60  36  24    64  42  29    62  43  29    54  32  21    57  28  24    60  29  27    62  31  29    62  31  28    61  30  25    60  29  24    62  32  24    65  35  27    64  34  26    53  23  13    59  29  21    68  39  31    66  37  29    71  44  35    73  46  39    54  31  25    38  23  16    27  18  11    24  13   9    27  16  14    29  18  16    28  14  13    24  10   9    23  10   4    28  13   6    28  14   3    35  19   6    34  18   5    42  24  12    46  28  16    47  29  17    68  50  40    88  71  64    57  42  37    73  58  53    73  58  51    66  49  41    72  53  46    92  69  61   102  75  66    97  64  57    84  50  41    89  50  43   108  70  61   115  78  69   103  66  57    90  56  46    87  57  47    69  42  35    77  52  47    76  48  44    77  49  45    89  61  57    85  58  51    76  47  43    82  53  47    89  60  54    92  63  57    88  59  53    78  49  43    71  42  36    73  44  38    75  46  40    74  47  40    72  49  41    69  49  40    68  48  39    67  47  38    70  47  39    71  48  40    71  48  40    71  48  42    64  41  35    59  34  30    56  31  27    57  32  28    57  32  28    55  27  24    53  25  22    54  26  23    58  30  26    60  33  26    58  31  24    53  26  19    53  26  19    57  30  23    59  30  24    57  28  22    54  25  17    57  28  20    58  30  19    58  30  19    58  28  18    61  31  21    69  39  29    77  44  35    83  49  40    82  45  37    80  43  37    80  43  35    82  45  39    80  46  37    80  43  35    76  42  32    77  40  32    80  46  36    88  51  42    86  52  40    85  48  39    80  46  34    82  48  38    85  51  39    84  47  38    79  43  31    74  37  28    70  36  26    73  39  29    76  42  32    79  45  35    79  45  35
 86  82  57    84  80  55    84  78  54    84  78  54    85  79  55    83  77  53    80  74  50    76  72  47    87  82  60    72  72  48    83  85  61    92  96  71    98  98  74   116 111  91    82  71  53    58  40  26    67  43  31    73  49  39    74  50  40    63  40  32    44  24  15    31  12   5    29  12   4    33  16   8    32  15   7    33  16   8    34  17  10    32  17  10    30  17  11    29  15  12    25  14  12    22  12  10    18  10   8    17   9   7    15   7   5    14   6   4    14   6   4    15   7   5    16   8   6    16  11   7    14  10   7    15  14  10    12  13   8    32  37  33    28  34  30    23  34  30    40  50  49    64  76  76   112 124 124   152 166 166   145 159 159   136 155 153   141 163 161   140 165 161   119 148 143   113 140 133    91 114 106    52  69  61    25  37  33    41  45  44    19  14  18    47  34  41    48  27  34    66  37  42    67  35  38    79  43  43    96  61  59    87  52  48    77  43  41    87  53  51    86  55  52    84  53  48    80  50  40    92  63  49   100  68  55    99  67  52   102  69  54   110  77  60   113  78  59   109  72  54   115  76  59   119  77  61   112  69  53   106  63  47   111  65  50   106  60  45   100  52  38   101  55  40   102  59  42   102  59  42   100  59  41   101  60  42   100  59  41   100  59  41    97  58  41    98  59  42    95  56  39    92  53  36    89  50  35    86  49  33    87  48  33    84  47  31    82  43  28    78  41  25    80  44  30    77  43  31    75  41  29    73  39  27    71  37  25    70  36  24    70  36  24    70  36  24    75  41  31    74  40  30    74  40  31    75  41  32    75  41  32    72  38  29    68  34  25    64  30  20    73  41  28    71  39  26    70  38  25    74  40  28    77  43  31    79  43  31    75  39  27    70  34  22    70  34  22    67  33  21    66  34  23    65  37  25    66  40  27    62  39  25    58  35  21    56  29  18    61  30  25    75  41  39    79  45  43    68  37  32    59  28  23    57  28  22    57  28  22    53  24  18    60  31  25    56  27  19    52  23  17    55  26  20    65  36  30    72  43  37    66  37  31    51  26  19    38  21  13    32  22  12    35  22  13    39  26  18    45  32  24    47  33  24    44  30  21    40  26  15    44  28  15    48  32  19    49  31  17    46  28  14    50  31  17    60  41  27    73  51  38    78  56  45    81  58  52    69  48  43    69  48  43    98  78  71    86  63  57    81  58  52   120  95  90   107  80  73   102  73  67    89  58  53    96  61  57   114  79  75   122  84  81   117  79  76   109  69  67    96  61  57    74  44  42    78  53  49    78  53  49    79  54  50    86  58  55    82  54  50    75  45  43    76  47  43    85  54  51    87  56  53    90  59  56    87  56  53    79  48  43    82  51  46    86  53  48    80  47  40    87  54  47    81  51  41    77  47  37    77  47  37    79  50  42    79  50  42    76  47  39    71  44  37    67  40  33    62  37  32    59  34  29    57  32  27    56  31  26    56  33  27    56  32  28    55  32  26    61  34  27    64  37  28    65  38  29    63  36  27    62  35  26    62  35  26    59  32  23    54  27  18    56  29  20    56  29  20    55  28  19    54  27  18    55  26  18    58  29  21    63  34  26    69  39  31    70  37  30    74  39  33    76  41  37    76  41  35    75  40  36    73  40  33    74  39  33    74  41  32    74  39  33    75  42  33    82  48  39    86  54  43    84  50  41    77  45  34    77  44  35    82  50  39    78  44  35    80  43  34    74  40  31    67  34  25    64  34  26    70  40  32    74  44  36    73  43  35
 87  83  58    86  82  57    87  81  57    86  80  56    86  80  56    84  78  54    82  76  52    79  75  50    81  79  56    72  72  48    80  84  59    88  94  68    96  98  76   118 116  95    87  75  59    64  46  32    64  40  30    68  44  34    68  45  37    57  37  28    43  24  17    33  16   8    30  15   8    33  18  11    41  24  16    40  23  15    37  22  15    33  20  12    30  16  13    22  13   8    19   9   8    14   9   6    15   9   9    13   9   8    12   8   7    11   7   6    12   8   7    13   9   8    15  11   8    16  12   9    16  12   9    28  27  23    17  17  15    37  41  40    47  56  55    52  62  63    65  75  77    81  90  95   124 133 138   160 169 174   177 188 192   171 186 189   184 204 205   196 218 216   195 221 218   197 226 221   171 198 191   138 161 153   134 150 147   137 147 148    54  53  58    41  31  39    54  34  43    66  41  47    64  34  36    75  44  42    86  52  50    82  49  44    88  57  52    95  66  60    85  57  53    85  56  50    91  61  50   102  73  59   111  79  64   110  78  63   113  80  63   121  86  67   121  84  66   115  78  59   120  79  61   122  81  63   118  72  56   112  66  50   114  66  52   109  61  47   103  54  40   104  57  41   105  58  42   104  59  40   102  59  40   101  58  39   101  58  39   101  58  39   100  57  40    99  58  40    96  55  37    94  53  35    91  49  33    88  49  32    89  50  33    88  49  32    85  46  29    82  45  29    81  45  31    78  45  30    76  42  30    73  39  27    71  37  25    70  36  24    69  35  23    69  35  23    74  40  30    73  39  29    73  39  30    73  39  30    74  40  31    72  38  29    69  35  26    65  32  23    68  38  27    66  37  23    68  36  23    70  38  25    75  41  29    75  41  29    73  37  25    67  33  21    69  35  23    67  35  22    65  36  22    64  36  22    65  37  23    62  36  21    57  34  18    56  30  17    61  31  23    72  39  34    74  41  36    62  31  26    54  25  19    55  28  21    56  29  22    53  26  19    59  32  25    59  32  25    58  31  24    57  30  23    63  34  28    68  39  33    67  36  31    60  33  26    53  35  25    51  34  24    51  34  24    55  38  28    61  43  33    63  45  35    61  41  30    57  37  26    60  38  25    61  39  26    61  37  25    58  34  22    65  38  27    76  49  38    85  59  46    87  60  49    80  53  46    79  54  49    88  63  59   108  83  78    90  65  61    87  62  57   123  98  94   122  94  90    94  64  62    82  53  49    95  61  60   115  81  79   115  76  77   106  68  67   106  64  66   102  63  64    92  62  60    92  66  65    94  66  65    92  64  63    91  63  60    88  58  56    83  53  51    83  54  50    88  57  54    89  58  55    94  60  58    90  56  54    82  49  44    84  49  45    88  53  49    82  47  41    91  54  45    87  50  41    81  47  37    81  47  37    82  50  39    84  51  42    80  50  40    78  48  40    71  42  34    70  43  36    67  42  35    63  38  31    58  35  29    55  32  26    55  35  28    59  36  30    61  36  29    67  40  31    67  40  31    63  36  27    63  36  27    66  39  30    65  38  29    60  33  24    62  35  26    61  34  25    60  33  24    58  31  22    57  30  21    59  32  23    63  36  27    67  38  30    75  42  37    75  42  37    74  39  35    70  37  32    69  36  31    71  38  33    76  43  36    80  47  40    76  43  36    77  44  37    81  48  39    85  52  43    83  50  41    77  44  35    76  43  34    79  46  37    77  43  34    78  44  35    75  42  33    67  37  27    66  37  31    70  41  35    72  43  37    70  41  35
 86  84  61    87  85  62    90  85  63    89  84  62    87  82  60    85  80  58    84  79  57    84  79  57    80  78  55    75  75  51    80  84  61    84  89  66    96  98  76   120 118  97    88  76  60    66  48  34    61  37  27    62  38  28    59  36  28    50  31  24    41  24  16    34  20  11    34  19  12    35  20  13    46  29  21    45  28  20    39  24  17    34  21  13    28  14  11    20  11   6    16   6   5    11   6   3    16  10  10    14  10   9    13   9   8    12   8   7    13   9   6    14  10   7    16  12   9    18  14  11    13  10   5    14  13   8    13  14   9    66  70  69    88  94  94    82  90  92    87  94 100    87  94 102   127 131 140   157 161 170   217 224 232   222 231 236   236 250 253   238 254 254   235 255 254   234 255 253   231 253 250   208 228 226   210 226 226   210 220 222   107 110 115    56  53  60    49  38  44    38  23  26    48  28  27    60  36  32    66  41  34    69  42  33    91  64  55   100  73  64    86  59  50    93  64  56   104  74  63   116  84  71   122  90  75   122  90  75   123  90  73   128  93  74   127  90  72   121  84  65   124  83  65   126  85  67   124  78  62   118  72  56   117  69  55   111  63  49   107  58  44   107  60  44   104  57  41   104  59  40   104  59  40   102  57  38   102  57  38   101  58  39   100  57  40    99  56  39    95  52  35    93  52  34    91  49  33    91  49  33    92  50  34    92  50  34    90  48  34    87  48  33    82  46  32    78  45  30    76  42  30    74  40  28    71  37  25    70  36  24    69  35  23    69  35  23    72  40  29    71  39  28    69  36  27    70  37  28    71  38  29    71  38  29    69  36  27    68  35  26    65  35  24    64  34  23    64  34  23    66  36  25    72  40  29    72  40  29    70  36  26    67  33  23    70  36  26    68  36  25    64  34  23    62  34  22    62  34  22    60  34  21    56  33  19    57  30  19    61  31  23    66  35  30    64  33  28    55  26  20    51  22  16    54  27  20    57  30  23    52  27  20    57  32  25    61  36  29    65  38  31    61  34  27    61  32  26    65  34  29    69  36  31    65  36  30    65  40  33    63  40  32    63  40  32    66  43  35    71  46  39    72  47  40    71  44  35    68  41  32    72  43  35    71  42  34    68  38  28    68  38  28    78  45  36    90  57  48    96  63  54    95  62  55    75  46  42    89  61  58   107  81  80   119  94  90   101  75  74    99  74  70   130 102 101   136 108 105    88  58  58    81  51  49   105  71  72   127  93  92   120  81  84   108  69  70   111  69  73   109  70  71   102  71  69   100  72  69   103  73  71   101  71  69    94  64  62    92  61  59    93  62  59    91  60  57    94  60  58    94  61  56    99  64  60    95  60  56    85  50  46    87  49  46    91  54  48    88  51  43    91  55  43    87  51  39    81  47  35    80  46  34    82  50  37    85  53  42    83  53  42    81  51  41    73  45  34    76  49  40    75  51  41    70  46  36    61  38  30    57  34  26    59  36  28    63  40  32    61  36  29    69  42  35    69  42  35    61  34  27    61  34  27    68  41  34    68  41  34    62  35  28    64  37  30    64  37  30    63  36  29    62  35  28    61  34  27    62  35  28    66  39  32    70  41  35    75  44  39    75  44  39    75  42  37    73  40  35    73  40  35    76  43  38    81  48  41    85  52  45    81  48  41    81  48  41    83  50  41    85  52  43    84  51  42    79  46  37    77  44  35    78  44  35    77  43  34    79  45  36    77  44  35    70  40  30    68  39  33    70  43  36    71  42  36    68  39  33
 88  86  63    90  88  65    92  90  67    90  88  65    89  84  62    87  82  60    87  82  60    88  83  61    83  81  58    81  81  57    81  85  62    82  86  63    96  98  76   120 118  97    83  71  55    62  44  30    60  36  26    56  31  24    50  27  21    42  23  16    38  21  13    35  21  12    35  20  13    34  20  11    44  27  19    42  25  15    36  22  13    31  18  10    27  14   8    20  11   6    17   7   5    14   6   4    19  13  13    16  12  11    15  11  10    13   9   8    13   9   6    14  10   7    16  12   9    17  14   9    21  18  13    14  13   8    28  29  24   108 110 109   128 132 135   130 135 141   152 156 165   148 152 163   126 128 141   142 141 155   224 226 238   235 238 247   249 255 255   246 255 255   245 255 255   240 254 254   231 247 247   215 231 231   196 210 213   206 215 220   158 165 171   117 120 125    81  79  82    40  34  34    33  22  18    40  25  18    47  30  20    55  35  24    82  60  49    95  71  59    92  65  56   106  78  67   114  84  73   123  91  78   127  95  80   126  93  78   127  91  75   128  93  74   127  90  72   124  86  67   128  87  69   130  87  70   129  83  67   124  78  62   120  72  58   114  66  52   110  61  47   110  61  46   103  56  40   104  59  40   104  59  40   101  56  37   100  55  36   102  57  38   101  55  39    97  54  37    93  50  33    93  50  33    92  49  33    90  48  32    90  48  32    90  48  32    89  47  33    86  47  32    81  45  31    77  44  29    76  42  30    74  40  28    72  38  26    71  37  25    71  37  25    70  38  25    71  39  28    69  37  26    67  34  25    67  34  25    69  36  27    69  39  29    71  38  29    68  38  28    64  34  23    63  33  22    64  34  23    66  36  25    71  39  28    72  40  29    70  38  27    68  36  25    69  37  26    65  35  24    63  33  22    61  33  21    59  33  20    59  33  20    57  34  20    59  32  21    59  30  22    61  32  26    59  30  24    52  25  18    51  24  17    54  29  22    56  31  24    53  28  21    56  31  24    61  36  29    65  38  31    62  35  28    62  31  26    63  32  27    66  33  28    63  32  27    61  32  26    59  32  25    60  31  25    62  33  27    65  36  30    67  36  31    65  35  27    65  32  25    73  40  33    71  36  30    67  33  24    70  33  25    81  44  36    96  57  50   100  61  54    94  59  53    75  44  42    90  62  61   113  85  84   119  93  92   109  83  82   111  85  84   129 101 100   135 107 106    82  52  52    84  54  54   113  79  80   133  99 100   126  87  90   118  79  82   119  78  82   110  71  74    99  65  64    97  66  64   103  72  70   104  73  71    95  64  62    96  62  60   100  66  64    98  65  60   100  67  62   100  65  61   104  69  65   103  65  62    92  54  51    90  53  47    94  57  51    93  56  48    92  56  44    88  52  38    82  48  36    80  46  34    80  48  35    82  50  37    81  51  40    81  51  40    74  46  35    76  48  37    75  48  37    69  45  33    64  40  30    60  38  27    60  38  27    63  39  29    60  33  26    69  42  35    69  42  35    60  33  26    59  32  25    66  39  32    66  39  32    59  32  25    60  33  26    61  34  27    62  35  28    63  36  29    63  36  29    65  38  31    69  42  35    72  45  38    69  40  34    74  43  38    78  47  42    80  49  44    81  50  45    84  51  46    85  52  45    87  54  47    84  51  44    84  51  44    85  52  43    86  53  44    86  53  44    84  51  42    82  48  39    80  46  37    79  45  36    80  47  38    76  46  36    70  42  31    68  41  34    70  43  36    71  42  36    69  40  34
 90  90  66    93  93  69    94  94  70    94  94  70    92  90  67    90  88  65    90  88  65    91  89  66    86  84  63    86  85  64    84  86  64    84  88  65   102 104  83   122 117  98    79  65  52    60  40  29    58  35  27    51  28  20    41  21  14    35  16   9    35  18  11    34  19  12    34  19  12    32  18   9    41  24  16    39  22  12    33  19  10    27  14   6    23  10   4    18   9   4    16   6   4    15   7   4    22  17  14    20  15  12    18  13  10    16  11   8    15  10   7    15  10   7    16  11   8    17  12   8    20  17  12    28  27  22    39  40  35    97  99  98   108 109 114   120 123 132   169 171 184   189 188 204   128 125 144   120 117 136   188 184 201   196 194 207   214 212 223   212 213 218   219 223 226   224 229 232   225 235 237   212 221 226   182 191 198   186 195 200   179 186 192   167 175 177   140 144 145    82  82  80    40  40  32    29  25  14    37  27  17    52  38  25    78  60  48    99  77  66   104  79  72   119  90  82   126  94  83   131  97  85   131  98  83   128  95  80   127  91  75   127  92  73   128  91  73   127  89  70   130  89  71   129  86  69   129  83  67   126  80  64   121  73  59   116  68  54   113  64  50   109  60  45   103  54  39   105  58  40   104  57  39   100  53  35    99  52  36   101  55  39   100  54  38    96  50  34    93  47  32    91  48  32    90  47  31    89  46  30    88  44  31    87  43  30    86  42  29    85  43  29    79  43  29    76  43  28    75  41  29    74  40  28    72  40  27    72  40  27    72  40  27    72  40  27    70  38  27    65  35  24    63  33  23    64  34  24    66  36  26    67  39  28    69  39  29    68  40  29    65  37  25    64  36  24    66  36  25    67  37  26    70  40  29    70  40  29    70  40  29    69  39  28    65  35  24    64  34  23    63  33  22    60  32  20    57  31  18    55  32  18    56  33  19    57  33  21    56  29  20    55  30  23    54  29  22    52  27  20    53  28  21    55  32  24    55  32  24    52  29  21    54  29  22    57  32  25    60  33  26    59  32  25    62  31  26    64  33  28    63  30  25    57  24  19    55  24  21    53  24  20    55  24  21    56  25  22    58  27  22    61  28  23    60  27  22    60  25  21    68  33  27    67  30  24    64  27  21    67  28  23    79  40  33    94  53  47    98  57  51    94  55  50    82  51  49    84  55  57    95  66  68   101  72  74   103  74  76   112  83  85   120  91  93   122  93  95    82  52  54    88  58  60   111  76  80   121  86  90   120  81  86   124  85  90   123  82  88   105  66  69   100  64  64   100  66  64   108  74  72   110  76  74   103  69  67   103  68  64   107  72  68   104  69  65   105  70  66   105  68  62   109  72  66   109  70  65    99  60  55    96  57  50    99  60  53    96  59  50    93  57  45    87  54  39    82  49  34    79  46  31    77  45  32    78  46  33    77  48  34    77  48  34    75  47  35    71  43  31    67  41  28    64  41  27    65  41  29    65  41  29    62  38  26    60  36  26    62  35  28    71  43  39    73  45  41    66  38  34    63  35  31    66  38  34    65  37  33    59  31  27    59  31  27    61  33  29    63  35  31    63  35  31    63  35  31    64  36  32    67  39  35    69  41  37    63  36  29    68  39  33    75  46  40    79  50  44    81  52  46    82  51  46    83  53  45    83  53  45    85  52  45    86  53  46    88  54  45    89  55  46    89  55  46    89  55  46    89  52  44    85  51  42    82  48  39    82  49  40    77  47  37    70  42  31    68  41  34    71  44  37    73  44  38    71  42  36
 95  97  73    98  98  74   100 100  76    99  99  75    98  98  74    97  97  73    96  96  72    97  95  72    89  87  66    90  89  68    87  89  67    91  93  71   114 113  93   125 120 101    75  61  48    61  41  30    56  33  25    47  24  16    35  15   8    28  11   3    28  13   6    32  17  10    33  18  11    32  17  10    42  25  17    39  22  12    32  18   9    25  12   3    21   8   2    15   6   0    14   4   2    13   5   2    23  18  15    22  17  14    19  14  11    17  12   9    16  11   8    17  12   9    19  11   9    20  12   9    17  12   8    26  23  18    26  25  23    58  58  60    49  48  56    46  44  58    83  80  99   109 106 127   107 102 125   105 100 123   170 162 185   202 195 213   222 216 230   211 205 215   208 206 211   214 213 218   210 211 216   202 205 212   190 193 200   186 191 197   172 177 181   174 179 182   175 181 179   123 128 122    74  75  67    45  43  31    46  40  28    68  56  44    92  74  64   114  91  83   122  95  88   127  98  90   134 102  91   136 102  90   134 101  86   130  97  82   128  92  76   129  92  74   130  91  74   133  92  74   131  88  71   126  83  66   127  81  65   125  79  63   120  72  58   117  69  55   114  65  51   106  57  43   100  51  36   105  56  39   103  56  38    97  50  32    96  49  33   100  53  37    99  52  36    93  47  31    90  44  29    90  44  29    91  45  30    87  44  28    85  41  28    84  40  27    84  40  27    84  42  28    80  42  29    76  43  28    75  41  29    74  40  28    72  40  27    72  40  27    73  41  28    73  41  28    66  36  25    64  34  23    63  33  23    62  34  23    65  37  26    67  39  28    68  40  29    67  39  28    66  38  26    66  38  26    68  38  27    69  39  28    70  40  29    70  40  29    70  40  29    70  40  29    66  36  25    64  36  24    63  35  23    59  33  20    54  31  17    53  30  16    53  30  16    55  31  19    50  28  17    51  28  20    52  29  21    50  30  21    53  30  22    52  32  23    53  30  22    51  28  20    52  29  21    54  29  22    53  28  21    54  27  20    58  29  23    62  31  26    60  27  22    53  20  15    55  24  21    54  25  21    56  25  22    57  26  23    58  27  22    59  28  23    62  29  24    62  29  24    64  29  23    64  29  23    65  28  22    66  29  23    76  37  30    88  49  42    94  53  47    92  53  48    91  57  56    78  48  50    76  46  48    80  51  53    85  56  58    96  67  69   107  78  80   110  81  83    96  66  68   103  73  75   110  75  79   107  72  76   113  74  79   126  87  92   126  85  91   109  68  72   110  71  72   110  75  73   118  80  79   117  82  78   114  76  73   112  74  71   112  74  71   110  73  67   107  70  64   104  67  61   109  70  65   112  73  66   104  65  58   100  61  54    99  60  53    96  58  49    90  56  44    88  55  40    84  50  38    80  46  34    77  45  32    77  45  32    75  46  32    75  45  34    77  49  37    70  42  30    63  37  24    62  36  23    64  41  27    66  43  29    63  39  27    59  35  25    67  40  33    74  46  42    78  50  46    74  46  42    70  42  38    70  42  38    68  40  36    66  38  34    65  37  33    67  39  35    68  40  36    67  39  35    65  37  33    63  35  31    63  35  31    64  36  32    63  36  29    65  38  31    68  41  34    70  41  35    71  42  36    73  44  38    78  48  40    81  51  43    84  51  44    88  55  48    90  56  47    89  55  46    88  54  45    89  55  46    90  53  45    86  52  43    82  49  40    81  51  41    77  49  38    70  43  32    67  42  35    71  46  39    74  47  40    74  45  39
103 107  82   103 105  81   103 105  81   104 106  82   105 107  83   104 106  82   102 104  80   103 103  79    99  97  76    98  97  76    94  96  74   102 104  82   127 124 105   128 121 103    70  56  43    59  39  28    53  30  22    41  21  12    29  10   3    24   7   0    25  10   3    30  17   9    34  19  14    34  19  12    43  26  18    39  22  12    32  18   9    25  12   3    21   8   2    16   7   0    15   5   3    14   6   3    23  15  13    22  14  12    21  13  11    20  12  10    20  12  10    21  13  11    24  14  12    24  16  13    25  17  14    21  16  13    25  19  21    41  36  43    33  27  41    73  68  88    91  86 109    35  29  57    80  73 104   104  95 124   167 157 184   228 218 242   242 233 250   211 203 216   189 182 190   191 184 192   199 194 201   195 192 199   190 187 194   184 183 188   173 174 176   168 170 169   179 181 178   155 156 151   109 109 101    73  69  60    73  64  55    94  80  71   111  92  85   124 101  95   126  98  94   129  98  93   136 102  92   138 102  90   136 100  86   133  97  83   130  93  77   127  90  72   128  89  72   131  90  72   129  86  69   121  78  61   122  76  60   122  76  60   119  71  57   117  69  55   112  64  50   101  53  39    98  49  34   104  55  40   103  54  39    96  47  32    94  45  30    98  51  35    97  49  35    91  43  29    87  39  25    88  42  27    89  43  30    89  43  30    87  41  28    86  40  27    87  41  28    86  44  30    83  45  32    81  45  31    77  43  31    75  41  29    73  39  27    72  38  26    71  39  26    71  39  26    65  35  24    64  34  23    62  34  23    63  35  24    65  37  26    65  38  27    65  38  27    64  37  26    67  39  28    67  39  28    68  40  29    68  40  29    67  39  28    68  40  29    68  40  29    69  41  30    68  40  29    67  40  29    65  38  27    59  35  23    53  29  17    49  25  13    47  25  12    48  26  13    45  25  14    47  27  18    48  28  19    48  30  20    49  29  20    47  29  19    48  28  19    48  28  19    49  29  20    52  29  21    51  26  19    50  23  16    52  23  17    58  27  22    60  27  22    55  24  19    54  25  21    54  26  22    55  27  23    56  28  24    58  29  25    60  31  27    62  31  26    63  32  27    61  28  23    64  31  26    65  30  24    63  28  22    70  33  27    79  42  36    85  48  40    84  49  43    93  59  58    80  48  49    77  45  46    83  53  53    80  50  50    84  54  54   100  70  70   104  74  74   108  78  78   116  86  86   114  80  81   104  70  71   113  74  77   122  83  86   118  77  81   106  66  67   113  73  73   115  77  74   115  75  73   113  75  72   114  74  72   112  73  68   109  70  65   111  72  67   106  67  62   100  61  54   105  66  59   111  72  65   106  67  60   101  63  54    99  59  51    92  54  45    89  55  45    86  54  41    84  52  41    81  49  38    79  47  36    78  46  35    76  46  35    77  47  37    80  52  41    75  47  36    68  41  30    65  38  27    65  38  27    67  40  29    67  40  29    66  39  30    70  42  38    72  44  41    76  48  45    77  49  46    74  46  43    70  42  39    72  44  41    76  48  45    71  43  40    73  45  42    74  46  43    73  45  42    70  42  39    67  39  36    66  38  35    66  38  34    67  42  35    67  42  35    66  41  34    66  39  32    65  38  31    67  40  33    73  44  36    77  47  39    83  50  43    88  55  48    91  57  48    87  53  44    86  49  41    87  50  42    87  50  42    84  50  41    78  48  38    79  51  40    78  50  39    72  45  34    70  45  38    73  48  41    75  48  41    74  45  39
109 113  88   107 111  86   108 110  86   109 111  87   111 113  89   111 113  89   108 110  86   106 108  84   109 107  86   108 106  85   103 102  81   112 111  90   136 131 112   129 120 103    67  51  38    56  36  25    50  27  19    38  18   9    25   8   0    19   5   0    22   9   1    30  17   9    35  20  15    36  21  14    42  25  17    36  22  11    31  17   8    25  12   3    20  10   1    19   8   2    19  10   5    19  11   8    21  13  11    20  12  10    20  12  10    20  12  10    21  13  11    24  14  13    26  16  14    28  18  16    24  14  12    19  10  11    33  24  29    26  18  29    41  32  49   192 184 207   220 211 240    47  40  71    76  66 100   111 102 133   163 152 182   236 226 251   250 238 255   219 208 224   200 190 201   212 200 210   230 218 230   221 211 222   193 183 192   178 171 178   190 184 188   170 166 165   165 161 158   166 161 157   130 123 115    98  88  79    99  84  77   116  97  90   124 101  95   127  99  95   123  94  90   130  97  92   132  98  88   134  98  86   134  98  84   132  94  81   128  91  75   125  86  69   125  83  67   126  85  67   128  85  68   118  75  58   118  72  56   120  74  58   118  70  56   117  69  55   112  64  50    99  51  37    97  48  33   103  54  39   102  53  38    94  45  30    93  44  29    98  49  34    96  48  34    89  41  27    85  37  23    87  39  25    89  43  30    89  43  30    87  41  28    88  42  29    90  44  31    90  46  33    86  48  35    84  48  34    81  45  33    75  41  29    73  39  27    71  37  25    68  36  23    68  36  23    64  34  23    63  33  22    62  34  23    63  35  24    64  37  26    65  38  27    64  37  26    63  36  25    67  39  28    67  39  28    67  38  30    67  39  28    66  37  29    66  38  27    67  38  30    66  39  28    70  43  34    68  44  32    66  42  32    60  36  24    52  28  18    46  22  10    43  21  10    41  21  10    43  25  15    43  26  16    45  27  17    44  27  17    44  26  16    43  26  16    45  27  17    47  29  19    48  30  20    51  31  22    51  28  20    46  21  14    47  18  12    54  23  18    59  28  23    59  30  24    48  23  18    48  25  19    50  27  21    52  27  22    53  28  23    57  29  25    59  32  25    61  32  26    56  27  21    62  31  26    62  32  24    61  28  21    61  28  21    67  34  27    75  41  32    77  44  37    92  58  56    84  53  51    88  57  55    99  68  66    87  56  54    79  49  47    97  67  65   102  72  70   105  75  73   116  85  83   112  78  77   103  69  68   111  72  73   111  72  73   102  62  63    95  55  56   106  66  66   109  69  67   104  64  62   102  62  60   107  68  63   106  67  62   103  64  59   107  68  63   103  64  57    96  57  50   101  62  55   110  71  64   107  69  60   101  63  54    95  57  48    87  50  41    87  53  44    84  54  44    85  52  43    82  52  42    82  49  40    79  49  39    79  49  39    78  50  39    83  54  46    80  52  41    74  47  38    69  42  31    65  38  29    65  38  27    68  41  32    70  43  34    68  40  36    67  39  36    70  42  39    75  47  44    72  44  41    68  40  37    72  44  41    81  53  50    73  45  42    75  47  44    78  50  47    77  49  46    75  47  44    73  45  42    72  44  41    73  45  41    73  48  43    73  48  41    72  47  40    69  44  37    69  42  35    68  41  34    71  42  34    73  44  36    80  50  42    89  56  49    92  58  49    86  52  43    82  45  37    82  45  37    83  46  38    80  46  37    75  45  35    78  50  39    77  50  39    75  48  37    72  47  40    75  50  43    76  49  42    73  44  38
117 121  98   117 121  98   116 120  97   116 120  97   117 119  97   117 119  97   118 120  98   118 120  98   123 120 101   118 115  96   115 114  94   120 119  99   153 147 131   114 105  90    62  45  35    57  37  28    49  26  20    37  17  10    27  10   3    24  11   3    26  13   7    28  15   9    34  19  14    40  25  18    38  24  13    39  25  12    35  21  10    25  12   3    18   8   0    20   9   3    21  12   7    20  11   6    17   9   6    18  10   7    21  11   9    23  13  11    25  15  13    27  16  14    27  16  14    27  16  14    25  13  13    22  11  15    26  15  23    20  10  21    56  44  64   234 224 249   251 242 255    81  71 105    55  45  80    91  81 115   165 156 187   249 239 255   251 239 255   207 196 213   196 184 198   245 231 244   255 245 255   255 241 255   228 210 224   177 161 172   172 157 164   191 176 179   176 162 161   156 141 138   126 109 102   110  91  84   116  93  87   125 100  93   123  96  87   128  98  90   136 103  96   130  96  87   130  93  84   134  96  85   134  96  83   131  91  79   129  90  75   128  89  72   126  84  68   121  80  62   120  77  60   118  75  58   119  73  57   118  72  56   117  69  55   113  65  51   107  59  45   102  54  40    96  47  32   103  54  39   101  52  37    91  42  27    88  39  25    94  45  31    95  47  33    91  43  29    89  41  29    84  36  24    89  43  30    93  47  34    90  43  33    93  46  36    96  49  39    88  44  33    84  44  32    83  45  32    81  43  32    76  40  28    71  35  23    67  33  21    67  35  22    69  37  24    64  34  23    64  34  23    62  34  23    62  34  23    60  33  22    60  33  22    60  33  22    60  33  22    61  32  24    61  32  24    61  34  27    62  35  26    64  37  30    66  39  30    68  41  34    67  43  33    64  39  32    66  44  33    69  46  38    66  44  33    58  35  27    49  27  16    42  19  11    37  17   8    37  20  10    35  21  10    39  22  12    40  26  15    46  29  19    46  32  21    48  31  21    47  30  20    45  27  17    46  26  17    48  25  17    49  24  17    51  24  17    53  24  18    53  24  18    52  25  18    46  23  17    44  23  18    43  22  17    46  22  18    47  24  18    50  25  20    52  27  22    56  28  24    60  33  26    63  34  28    62  33  27    59  28  23    60  30  22    69  39  31    80  47  40    84  51  44    94  61  56    88  54  52   100  66  64   107  76  73   102  71  68   109  78  75   117  86  83   109  78  75   121  90  87   122  91  88   120  86  84   114  80  78   114  76  75   113  75  74   109  69  69   103  63  63   109  69  67   109  69  67   109  69  67   109  69  67   108  69  64   108  69  64   107  68  63   107  68  63   100  63  55    95  58  50    94  57  49    99  62  54   101  64  55    95  58  49    87  50  41    80  46  37    83  50  43    80  51  45    80  49  44    74  45  39    70  39  34    67  38  32    68  39  33    70  41  33    74  45  39    75  48  39    78  51  44    78  51  42    75  48  41    74  47  38    73  48  41    74  49  42    73  45  41    70  42  39    70  42  39    74  46  43    76  48  45    75  47  44    78  50  47    82  54  51    78  50  47    80  52  49    81  53  50    80  52  49    77  49  46    74  46  43    73  45  42    73  45  41    72  47  42    73  50  42    76  51  44    77  52  45    79  52  45    78  51  44    77  48  40    76  47  39    80  50  42    83  53  45    87  54  45    84  51  42    80  46  37    78  44  35    82  45  37    83  49  40    81  51  41    81  53  42    79  52  41    77  50  39    72  47  40    70  45  38    72  45  38    74  45  39
126 130 107   125 129 106   124 128 105   124 128 105   125 127 105   125 127 105   126 128 106   127 129 107   125 122 103   123 120 101   122 121 101   129 126 107   153 146 130   109  97  83    56  38  28    50  30  21    46  23  17    35  16   9    26  11   4    22  12   3    23  12   6    25  14   8    32  19  13    40  25  18    37  23  12    39  25  12    34  22  10    26  14   2    19   9   0    20  10   1    22  13   8    22  13   8    17   9   6    18  10   7    21  11   9    23  13  11    25  14  12    26  15  13    26  15  13    26  15  13    29  17  17    31  19  23    29  16  25    30  18  30    57  44  64   177 165 189   184 173 203    79  70 101    58  48  82    84  75 106   155 146 175   220 210 235   216 204 226   204 191 209   202 188 203   232 214 230   255 232 254   255 244 255   243 220 238   181 159 172   164 141 151   179 156 162   163 138 141   138 114 112   128 103  98   118  91  84   124  95  87   133 103  93   129  97  86   130  98  87   135 101  89   129  93  81   130  92  81   135  95  85   135  95  83   131  91  79   127  88  73   126  87  70   125  83  67   120  79  61   122  79  62   120  77  60   119  73  57   115  69  53   113  65  51   109  61  47   104  56  42   102  54  40    97  48  33   103  54  39   102  53  38    92  43  28    88  39  25    92  44  30    94  46  32    90  42  28    89  41  29    83  37  24    87  41  28    90  44  31    88  41  31    91  44  34    93  46  36    86  42  31    82  42  30    82  44  31    82  42  32    78  40  29    73  35  24    70  34  22    67  33  21    67  35  22    67  35  24    64  34  23    63  33  23    61  33  22    61  33  22    60  33  22    61  34  23    62  35  26    64  35  29    63  34  28    62  35  28    62  35  28    63  36  29    63  38  31    66  41  34    66  43  35    59  36  28    62  39  31    66  43  35    66  43  35    63  40  32    56  33  25    50  27  19    45  25  16    38  21  11    35  21  10    34  20   9    36  22  11    39  25  14    41  27  16    42  28  17    41  27  16    41  24  14    42  24  14    43  23  14    45  22  14    48  23  16    52  25  18    53  26  19    52  27  20    45  21  17    44  23  18    44  23  18    46  22  18    47  24  18    50  25  20    51  26  21    54  26  22    59  32  25    63  34  28    63  34  28    61  30  25    64  34  26    73  43  35    81  51  43    86  53  46   101  66  62    93  58  54    99  64  60   102  69  64    96  63  58   100  69  64   110  79  74   104  73  68   115  84  79   118  87  82   119  86  81   114  81  76   112  77  73   114  76  73   112  72  70   108  68  66   112  72  70   111  71  69   109  69  67   106  68  65   106  66  64   105  68  62   107  68  63   106  69  63   104  67  61    96  62  53    94  57  49    94  60  51    93  59  50    86  52  42    78  44  34    73  40  31    80  51  45    77  49  45    75  45  43    70  42  38    67  38  34    65  37  33    69  40  36    71  44  37    73  46  39    75  48  41    77  50  43    78  51  44    76  49  42    73  48  41    74  49  42    75  50  43    80  52  48    77  49  46    77  49  46    79  51  48    79  51  48    75  47  44    74  46  43    76  48  45    76  48  45    77  49  46    78  50  47    77  49  46    75  47  44    73  45  42    73  45  42    74  46  42    75  50  43    76  53  45    79  54  47    79  54  47    79  52  45    77  50  43    77  48  40    76  47  39    80  50  42    83  53  45    87  54  45    84  51  42    81  47  38    79  45  36    82  48  39    85  51  42    84  54  44    80  52  41    77  49  38    76  49  38    77  52  45    77  52  45    77  50  43    74  45  39
134 137 116   133 136 115   134 136 115   133 135 114   133 135 114   134 136 115   134 136 115   135 137 116   134 131 112   132 129 110   131 128 111   137 131 115   148 139 124    96  82  69    50  32  22    48  25  17    39  19  12    33  14   7    26  11   4    21  11   2    21  10   4    23  12   6    32  18  15    39  24  17    36  22  11    39  25  12    36  24  12    29  17   5    20  10   1    19   9   0    21  12   7    23  14   9    18   8   6    19   9   7    21  10   8    23  12  10    26  12   9    26  12   9    26  12   9    26  12  11    25  11  11    31  16  19    24   9  16    29  15  28    44  30  47    93  78 101    89  76 102    61  51  78    54  43  73    90  80 107   151 141 166   198 186 210   194 179 200   198 181 199   193 175 191   196 173 191   235 209 236   255 229 255   239 209 233   173 144 162   151 121 133   166 137 142   154 124 126   132 101  99   131  98  93   125  91  82   133  99  89   141 105  93   134  98  84   133  97  81   134  99  80   128  91  75   130  90  78   137  94  85   138  96  84   132  90  78   126  84  70   125  83  67   124  81  65   121  78  61   123  77  61   122  76  60   118  72  56   113  67  51   107  61  46   103  57  42   102  54  40   102  54  40   100  51  37   104  55  41   100  52  38    92  44  30    88  40  26    91  43  29    92  44  32    87  41  28    88  42  29    83  37  24    84  37  27    84  40  29    84  40  29    86  42  31    88  44  35    84  40  31    82  40  28    82  42  30    85  42  33    81  41  31    78  38  28    73  35  24    69  33  21    66  32  20    67  35  24    64  34  23    62  32  22    59  31  20    59  31  20    61  33  22    62  35  24    64  37  28    66  39  32    65  37  33    64  36  32    63  35  31    61  36  31    62  39  33    64  41  35    63  43  36    55  35  28    58  38  31    61  41  34    64  44  37    65  45  38    61  41  34    57  34  28    50  30  23    43  26  16    38  24  13    34  20   9    33  19   8    34  22  10    36  24  12    38  26  14    39  25  14    39  25  14    41  24  14    41  23  13    43  23  14    43  23  14    47  24  16    50  25  18    51  26  19    45  21  17    45  21  17    46  22  18    48  23  19    49  24  20    49  24  20    51  23  19    52  23  19    57  28  24    62  31  28    64  33  28    66  33  28    70  37  32    78  45  40    85  52  47    88  53  49   100  65  59    93  58  52    96  61  55    97  64  57    90  57  50    93  60  53    98  68  60    93  63  55   102  72  64   108  78  70   113  80  73   109  76  69   106  71  65   107  72  66   110  73  67   109  71  68   111  73  70   109  71  70   106  68  67   101  66  62   102  64  61   100  65  61   103  65  62   102  67  61   100  65  59    92  59  52    89  54  48    87  54  45    85  52  43    77  44  35    71  38  29    67  37  29    75  47  43    71  46  42    69  41  40    63  38  34    63  35  32    62  37  33    68  40  37    69  44  39    69  44  39    71  46  41    73  48  43    74  49  44    73  48  43    72  49  43    72  49  41    74  49  42    81  53  49    80  52  48    81  53  49    85  57  53    83  55  51    77  49  45    73  45  41    73  45  41    74  46  42    75  47  43    76  48  44    75  47  43    73  45  41    73  45  41    74  46  42    76  48  44    77  52  45    80  55  48    82  57  50    81  56  49    80  53  46    77  50  43    77  48  40    78  49  41    81  52  44    83  54  46    85  55  45    83  53  43    82  49  40    81  48  39    84  51  42    88  55  46    89  56  47    80  50  40    74  46  35    76  49  38    81  56  49    84  59  52    81  54  47    75  46  40
139 142 121   138 141 120   139 141 120   138 140 119   138 140 119   139 141 120   139 141 120   142 141 121   146 143 124   142 139 120   137 134 117   140 134 118   137 128 113    79  65  52    48  28  19    50  27  19    34  14   7    31  14   6    25  12   4    20  11   2    19  10   3    22  11   5    31  17  14    38  23  16    37  23  12    40  27  11    39  27  13    32  20   8    21  11   1    17   7   0    19  10   3    22  13   8    18   8   6    18   8   6    21  10   8    22  11   9    25  11   8    25  11   8    25  10   7    25  10   7    26  10  10    33  19  19    25  10  15    34  18  28    39  21  35    45  28  46    37  24  44    51  39  61    35  23  47   111  99 123   139 125 148   171 156 177   191 172 191   194 171 187   190 166 182   185 158 177   181 151 177   192 162 190   177 145 168   130  99 115   122  90 101   143 111 116   141 107 106   130  97  92   131  96  90   131  94  85   139 101  90   142 104  91   134  97  81   131  94  76   132  95  76   128  89  72   129  87  75   135  92  83   137  95  83   130  88  76   123  81  67   121  79  63   122  79  63   120  77  60   119  73  57   119  73  57   116  70  54   111  65  49   105  59  44   101  55  40   101  53  39   101  53  39   100  52  38   102  54  40    99  51  37    92  44  30    89  41  27    89  43  28    89  43  30    85  39  26    89  43  30    83  39  26    81  37  26    81  37  26    83  39  28    86  42  31    86  42  33    84  40  31    82  38  27    85  41  30    87  43  34    86  43  34    84  41  32    78  38  28    73  35  24    69  33  21    69  35  25    66  34  23    63  30  21    59  29  19    60  30  20    61  33  22    64  36  25    65  38  29    67  40  33    67  39  35    67  39  35    65  40  35    63  40  34    61  41  34    61  41  34    61  41  34    56  36  29    57  37  30    60  40  33    64  44  37    65  45  38    63  43  36    59  36  30    52  32  25    50  33  23    44  30  19    37  23  12    34  20   9    33  21   9    35  23  11    37  25  13    37  25  13    41  29  17    42  28  17    44  27  17    44  26  16    44  26  16    44  24  15    45  22  14    44  21  15    45  21  17    46  22  18    48  23  19    49  24  20    49  24  20    51  23  20    51  22  18    50  21  17    55  24  21    60  29  26    65  32  27    66  33  28    71  38  33    79  46  41    85  50  46    85  50  46    90  53  47    87  50  44    93  56  50    95  60  54    89  54  48    88  55  48    90  57  50    81  51  43    88  58  50    96  66  58   103  70  63    99  66  59    96  61  55    97  62  56   102  65  59   104  66  63   107  69  68   103  68  66   100  65  63    97  63  61    96  61  59    94  61  56    93  60  55    93  60  55    88  55  50    81  51  43    79  49  41    80  50  42    77  48  40    71  43  32    68  40  29    67  40  31    68  43  39    65  41  39    62  38  36    60  36  34    59  35  31    61  37  33    64  40  36    66  43  37    65  42  36    67  44  38    69  44  39    69  46  38    69  46  40    69  46  38    69  46  38    69  46  38    73  48  43    76  48  44    80  52  48    87  59  55    87  59  55    80  52  48    76  48  44    75  47  43    76  48  44    77  49  45    77  49  45    75  47  43    73  45  41    73  45  41    76  48  44    78  50  46    78  53  46    80  55  48    83  58  51    82  57  50    81  54  47    79  52  45    80  51  43    82  53  45    83  54  46    84  55  47    85  55  45    84  54  44    82  52  42    83  53  43    88  55  46    91  58  49    90  57  48    84  51  42    77  47  37    78  50  39    83  56  49    85  58  51    81  52  46    75  46  40
147 149 128   146 148 127   146 148 127   145 147 126   147 146 126   148 147 127   148 147 127   149 148 128   152 149 132   149 146 129   146 140 124   150 143 127   135 123 111    69  52  42    49  26  20    50  27  21    30   9   4    29  12   5    23  12   6    18  11   3    18  11   5    22  13   8    32  18  15    37  22  15    40  26  15    42  29  13    41  29  15    35  23  11    23  13   3    16   6   0    16   7   0    20  11   4    18   9   4    19  10   5    21  10   6    24  10   7    25  10   7    24   9   6    26   8   6    23   8   5    23   8   5    28  13  10    25   9  10    31  15  18    33  13  22    32  14  26    31  15  28    43  29  44   117 103 120   219 205 222   173 156 174   155 134 151   169 145 161   150 122 136   143 109 125   135 101 118   128  94 118   122  90 114   111  80  98    97  67  77   112  81  86   135 104 102   134 101  96   135 102  95   131  97  88   131  97  87   137 101  89   136 100  88   130  92  79   128  91  75   131  92  75   128  89  72   127  85  73   134  90  81   135  91  80   128  84  73   122  78  65   120  77  61   122  76  61   121  75  59   113  67  51   114  68  52   114  68  52   111  65  49   105  59  44   101  55  40   100  54  39   100  54  39    99  53  38    99  53  38    96  50  35    91  45  30    88  42  29    88  42  29    86  40  27    81  37  24    87  43  32    84  40  29    80  36  25    79  37  25    84  41  32    86  43  34    84  41  32    84  40  31    84  37  27    86  39  29    88  41  33    88  44  35    87  43  34    83  40  31    77  37  27    73  35  24    71  34  25    67  33  23    64  31  22    60  30  20    60  30  20    61  33  22    63  35  24    66  37  29    64  37  30    67  39  35    68  43  38    70  45  40    68  45  39    64  44  37    61  41  34    57  38  31    54  35  28    55  36  29    57  38  31    60  41  34    64  44  37    63  43  36    59  39  32    55  35  28    54  37  27    49  32  22    39  25  14    34  20   9    32  20   8    33  21   9    32  22  10    32  22  10    38  28  16    41  29  17    43  31  19    44  30  19    45  28  18    44  26  16    42  24  14    41  21  14    45  21  17    47  21  20    48  23  19    50  25  21    52  24  21    51  23  20    51  21  19    50  20  18    52  21  18    57  26  23    62  28  26    63  29  27    69  34  30    77  42  38    79  44  40    78  43  39    79  41  38    79  41  38    85  47  44    87  52  48    85  50  46    85  52  47    85  52  47    81  48  43    81  50  45    90  59  54    97  64  59    93  60  55    89  54  50    90  55  51    96  58  55    98  60  57    96  61  59    95  61  60    95  61  60    91  60  58    91  57  56    86  55  52    83  52  49    81  52  46    77  48  42    74  45  39    73  46  39    75  48  41    72  45  38    67  40  31    64  40  30    66  43  35    61  40  35    60  39  36    60  39  34    60  39  34    61  40  35    62  41  36    62  42  35    63  43  36    62  42  35    63  43  34    65  42  34    64  44  33    65  45  36    65  45  34    65  45  34    66  44  33    69  44  37    72  45  38    78  51  44    86  59  52    87  60  53    81  54  47    77  50  43    76  49  42    81  54  47    81  54  47    80  53  46    78  51  44    76  49  42    75  48  41    77  50  43    79  52  45    79  52  45    81  54  47    84  57  50    84  57  50    83  56  49    82  55  48    83  56  47    84  57  48    85  56  48    86  57  49    86  58  47    85  57  46    85  57  46    86  58  47    89  59  49    91  61  51    89  56  47    87  54  45    83  53  43    81  53  42    79  52  45    78  51  44    77  48  42    76  47  41
157 159 138   156 158 137   156 158 137   155 157 136   157 156 136   158 157 137   158 157 137   159 158 138   154 151 134   152 149 132   153 147 131   163 156 140   138 126 114    61  44  34    46  23  17    44  21  15    28   7   2    26  11   4    22  11   5    18  11   3    19  12   6    25  16  11    33  19  16    35  20  13    42  28  17    42  29  13    41  29  15    37  25  11    26  16   6    18   8   0    16   7   0    19  10   3    20  11   6    21  10   6    24  10   7    24  10   7    25  10   7    24   9   6    25   7   5    24   6   2    21   6   1    23   8   3    24   6   4    28  10  10    28   9  13    36  17  23    40  23  31    46  29  39   135 119 130   235 217 229   160 140 152   116  92 105   130 100 112   118  82  96   117  76  90   109  68  84    98  64  81    88  57  73    89  59  69    97  68  72   122  94  91   138 109 101   131 103  92   135 105  94   128  96  85   130  98  87   132  98  88   130  93  84   126  88  79   126  88  77   128  88  76   127  87  75   127  83  74   131  87  78   131  87  76   125  81  70   120  76  63   120  77  61   122  76  61   120  74  58   111  65  49   112  66  50   111  65  49   109  63  47   106  60  45   102  56  41   100  54  39    99  53  38    98  52  37    96  50  35    93  47  32    90  44  29    88  42  29    85  41  28    82  38  25    79  35  22    85  41  30    83  41  29    77  35  23    78  36  24    86  43  34    87  44  35    83  40  31    83  39  30    83  36  26    85  37  27    86  37  30    87  40  32    88  41  33    86  42  33    82  39  30    78  38  28    73  35  26    70  33  24    66  32  23    63  30  21    60  30  20    61  31  21    62  34  23    63  34  26    62  35  28    65  37  33    69  44  39    72  49  43    72  49  43    67  47  40    61  42  35    57  40  32    52  35  27    53  36  28    56  37  30    58  39  32    62  42  35    63  43  36    63  43  36    61  42  35    56  38  28    50  33  23    42  28  17    37  23  12    34  22  10    32  20   8    29  19   7    28  18   6    33  23  11    35  25  13    39  27  15    42  30  18    44  30  19    45  28  18    43  26  16    43  24  17    46  22  18    47  23  21    48  24  20    49  24  20    50  25  21    50  25  21    52  24  21    53  23  21    52  23  19    56  25  22    58  27  24    60  26  24    64  31  26    70  37  32    71  38  33    69  34  30    76  36  34    76  36  34    78  38  36    79  41  38    79  44  40    81  46  42    83  50  45    83  50  45    79  48  43    87  56  51    94  61  56    90  57  52    87  52  48    88  53  49    93  55  52    93  58  56    89  55  54    88  57  55    88  57  55    88  57  55    86  55  53    81  51  49    77  48  44    74  46  42    76  48  44    71  46  39    70  45  38    69  46  38    66  41  34    60  37  29    62  40  29    66  46  37    63  44  38    61  44  37    63  44  38    64  45  39    66  47  41    67  48  41    66  47  40    65  47  37    66  48  38    66  46  35    66  46  35    67  48  34    68  48  37    68  49  35    66  47  33    66  44  33    71  47  37    73  46  39    77  50  43    84  57  50    84  57  50    79  52  45    75  48  41    76  49  42    82  55  48    83  56  49    83  56  49    81  54  47    79  52  45    78  51  44    79  52  45    80  53  46    81  54  47    81  54  47    81  54  47    83  56  49    84  57  50    85  58  51    85  58  49    85  58  49    87  58  50    87  58  50    88  60  49    89  61  50    89  61  50    89  61  50    90  62  51    91  61  51    90  57  48    92  58  49    91  58  49    85  55  45    79  50  44    74  47  40    75  46  40    76  47  41
163 165 144   163 165 144   164 163 143   163 162 142   163 162 142   164 163 143   166 163 144   166 163 144   160 157 140   158 155 138   158 152 136   171 164 148   139 125 114    56  38  28    45  22  16    41  18  12    28   7   2    25  10   3    21  10   4    17  10   2    20  13   7    28  19  14    34  20  17    34  19  12    41  29  17    39  27  11    39  27  13    38  26  12    29  19   9    21  11   1    18   9   2    20  11   4    22  11   7    22  11   7    25  11   8    25  11   8    25  10   7    24   9   6    25   7   3    24   6   2    31  17   8    32  18   9    33  16   9    36  18  14    40  20  19    44  24  25    53  34  36    67  48  52    86  67  71   142 121 128   102  79  87    85  55  63    93  57  67   101  59  71   107  59  71    93  50  60    85  52  61    85  58  63    96  70  71   103  78  73   121  97  85   130 107  91   119  96  78   122  96  79   121  93  81   126  96  85   127  94  87   123  88  82   123  86  80   125  86  81   125  84  80   123  82  76   125  80  74   128  84  75   129  82  72   124  77  67   122  76  63   123  77  62   122  76  61   119  73  57   115  69  53   113  67  51   109  63  47   106  60  44   104  58  43   102  56  41   100  54  39    98  52  37    96  50  35    93  47  32    88  44  31    87  43  30    86  42  29    84  40  27    80  36  23    76  34  20    80  38  26    80  38  26    74  31  22    74  34  24    85  45  35    85  45  35    79  39  29    80  37  28    82  34  24    80  32  22    80  31  24    81  34  26    84  37  29    84  40  31    83  40  31    80  40  30    73  35  26    71  34  25    67  33  24    64  31  22    61  31  21    61  31  21    61  31  21    61  32  24    61  33  29    65  37  34    68  43  39    72  48  44    73  49  45    69  48  43    64  45  39    60  43  36    57  40  33    56  41  34    58  41  34    58  41  34    59  40  34    61  42  36    64  43  38    65  46  39    60  42  32    56  39  29    49  35  24    45  31  20    41  29  17    38  26  14    33  23  11    30  20   8    31  23  10    31  23  10    33  23  11    36  24  12    38  26  14    40  26  15    41  27  16    44  27  19    44  25  19    45  24  21    46  25  22    48  24  22    49  25  21    51  27  23    53  28  24    54  29  25    55  27  23    57  28  24    57  28  24    56  25  22    59  28  23    64  33  28    64  33  28    63  28  24    74  34  34    75  35  35    76  36  36    76  38  37    77  42  40    78  43  41    78  44  42    80  46  44    77  43  41    85  51  49    89  55  53    86  52  50    84  49  47    85  50  48    90  52  51    89  54  52    85  54  52    84  54  54    84  54  54    83  53  53    82  52  50    78  50  47    75  47  44    72  47  42    76  51  46    72  49  43    68  45  39    63  43  36    60  37  29    56  36  27    63  43  34    71  53  43    70  53  45    67  53  44    68  51  43    69  52  44    72  55  47    73  56  46    73  56  46    72  56  43    73  57  44    73  55  41    72  54  40    73  56  40    74  56  42    73  56  40    71  54  38    69  50  35    73  49  39    74  47  38    77  50  41    82  55  46    83  56  47    79  52  43    77  50  41    78  51  42    80  53  44    82  55  46    83  56  47    83  56  47    81  54  45    80  53  44    81  54  45    82  55  46    85  56  50    82  53  47    81  52  46    82  53  47    86  57  51    87  58  52    86  57  49    84  55  47    87  60  51    88  61  52    89  62  51    91  64  53    91  64  53    91  64  53    89  62  51    89  61  50    94  60  51    94  60  51    92  59  50    87  57  47    81  52  46    77  48  42    77  48  42    77  48  42
165 166 148   164 166 145   163 164 146   163 165 144   165 164 146   165 164 144   166 165 147   167 166 148   167 166 148   163 160 143   160 154 138   172 162 150   135 121 110    51  32  25    46  23  17    43  19  15    27   8   2    25  10   5    19  10   5    17  10   4    21  13  10    30  20  18    35  21  20    32  18  15    39  26  17    36  24  12    36  24  12    38  25  16    31  21  11    24  14   5    21  10   4    23  12   6    25  12   6    25  12   6    26  11   6    26  11   6    28  10   6    26   9   2    26   7   1    25   6   0    33  16   6    35  18   8    34  16   6    38  19  12    43  22  17    38  17  12    50  26  24    81  57  57    79  55  55    84  58  59    87  58  60    94  64  66    86  51  55   102  66  70   106  65  71    90  51  56    91  61  63   107  81  80   122  97  92   117  93  83   123 100  86   131 108  92   122  99  81   121  98  82   117  91  78   123  95  84   123  93  85   120  87  82   123  85  82   125  85  83   122  83  78   120  79  73   123  80  71   126  82  71   127  80  70   122  76  63   122  76  63   124  78  63   123  77  61   119  74  55   120  75  56   115  70  51   108  62  46   104  58  42   102  56  41   101  55  40    99  53  38    98  52  37    95  49  34    90  47  31    87  44  28    86  42  29    85  41  28    82  40  26    79  37  23    74  35  20    74  34  22    75  35  23    70  30  20    71  33  22    83  45  34    84  46  35    76  38  27    76  36  26    76  32  21    76  29  19    74  27  19    74  30  21    78  34  25    81  38  29    80  40  30    80  40  30    73  35  26    71  34  25    68  34  25    65  32  23    64  31  22    61  31  21    60  30  20    60  30  22    61  34  27    62  37  32    67  42  37    71  48  42    71  51  44    70  50  43    66  47  40    63  46  38    64  47  39    63  49  40    63  46  38    60  43  35    57  40  32    57  40  32    61  42  35    64  45  38    66  47  40    64  46  36    59  42  32    56  39  29    51  37  26    47  33  22    41  29  17    37  25  13    35  25  13    33  23  11    31  21   9    30  20   8    32  20   8    34  22  10    37  25  13    39  25  14    45  26  20    46  25  22    45  24  21    46  25  22    47  26  21    49  28  23    52  31  26    55  31  27    56  31  27    56  31  26    56  28  25    54  26  22    56  28  24    60  32  28    59  31  27    56  27  23    67  32  30    73  35  34    75  40  38    78  43  41    79  45  43    75  44  41    71  40  37    68  39  35    69  38  35    75  46  42    81  50  47    78  47  44    76  45  42    79  48  45    83  49  47    81  50  47    85  55  53    83  55  52    82  54  51    80  52  49    77  52  48    75  50  45    74  49  45    73  50  44    76  53  47    71  48  42    64  44  37    60  40  33    55  35  26    56  36  27    67  47  38    78  60  50    79  60  53    75  58  50    72  55  47    73  56  48    77  59  49    79  61  51    80  62  50    80  62  50    82  64  52    80  62  48    79  60  46    80  61  47    81  62  48    80  61  47    77  58  43    76  54  40    75  48  39    75  46  38    77  48  40    82  53  45    84  55  47    82  53  45    82  53  45    83  56  47    77  48  40    79  52  43    82  55  46    83  56  47    82  55  46    81  54  45    82  55  46    84  55  47    89  58  53    85  54  49    81  50  45    83  52  47    87  56  51    89  58  53    85  56  48    81  52  44    89  60  52    89  62  53    91  64  53    93  66  55    93  66  55    92  65  54    89  62  51    88  60  49    95  62  53    95  61  52    92  59  50    87  57  47    85  55  47    83  52  47    81  50  45    79  48  43
166 169 152   166 169 150   166 169 152   166 169 150   167 168 152   167 168 150   167 168 152   167 168 152   164 165 149   170 168 153   165 159 145   181 168 159   127 110 102    53  32  27    55  31  27    39  18  15    29  11   9    23   9   6    18   8   6    20  12   9    25  15  14    26  16  15    26  11  14    22   8   8    28  14  13    25  14  10    28  17  13    32  21  15    33  20  14    26  13   7    22   9   3    23   8   3    25   8   1    28  11   4    32  13   6    35  16   9    37  17   8    38  18   9    39  19  10    40  20   9    51  29  18    50  28  17    46  26  15    53  33  24    56  33  25    62  37  30    81  52  46    80  49  46    86  52  50    90  56  54    94  60  58    99  68  65   106  78  74    99  76  70    93  73  66    99  79  72   105  85  78   112  89  83   118  93  86   123  96  87   123  94  86   120  92  81   117  89  78   116  88  77   121  93  82   122  94  83   123  95  84   122  92  82   123  89  80   123  86  78   124  85  78   125  85  77   124  82  70   125  82  66   124  81  65   121  78  61   118  75  58   116  73  54   117  75  53   118  76  54   120  78  56   115  73  51   109  66  47   104  61  42   100  57  40    98  55  38    96  53  37    96  53  37    93  50  33    88  47  29    87  46  28    90  48  32    90  48  32    82  43  26    76  37  22    74  37  21    77  39  26    74  38  24    72  36  24    73  37  25    75  38  29    75  38  29    72  38  28    72  35  26    75  37  26    73  33  21    72  32  20    72  34  21    75  37  24    77  41  27    77  41  29    76  40  28    73  39  27    70  36  24    67  35  24    67  35  24    69  37  26    70  38  27    69  37  26    65  35  25    60  33  24    62  39  31    67  44  36    70  47  39    68  48  39    67  47  38    68  50  40    69  52  42    69  52  42    69  52  42    67  53  42    64  50  39    61  47  36    59  45  34    61  47  36    65  48  38    64  44  37    67  44  38    67  44  38    63  43  36    58  39  32    56  37  30    56  39  29    57  40  30    47  33  22    45  31  20    39  27  13    32  20   6    25  16   1    24  15   0    28  19   4    34  20   9    38  17  12    39  15  13    38  17  14    41  20  17    45  26  22    48  29  25    50  31  27    50  31  27    52  31  28    55  31  27    55  31  29    53  29  25    49  28  23    47  28  22    49  30  24    51  32  26    58  33  29    61  33  30    64  36  33    66  38  35    68  40  37    66  41  37    65  40  35    64  41  35    66  41  36    67  44  38    71  46  39    71  46  39    70  45  38    71  46  39    73  48  41    76  51  44    77  54  48    74  54  47    72  52  45    71  51  44    73  50  44    74  51  43    75  52  46    75  52  44    77  54  46    71  48  40    63  40  32    57  34  26    56  33  25    61  38  30    69  46  38    74  51  43    76  53  45    77  54  46    77  54  46    76  53  45    75  52  44    77  54  46    80  57  49    82  59  51    84  61  53    80  58  47    78  56  45    81  59  48    82  60  49    81  59  48    84  62  51    90  66  56    86  57  49    83  53  45    80  50  42    82  52  44    81  51  43    78  48  40    79  49  41    82  53  45    84  54  46    82  53  45    85  56  48    92  63  55    95  66  58    92  63  55    91  62  54    94  64  56    90  57  52    89  54  50    86  53  48    87  54  49    89  56  51    89  56  51    85  55  47    82  53  45    85  56  48    91  62  54    94  67  58    93  66  57    92  68  56    95  71  59    93  69  57    88  64  52    93  65  54    92  62  52    90  60  50    90  60  50    91  61  51    92  59  52    90  55  49    87  52  46
169 172 155   169 172 155   169 172 155   169 172 155   169 172 155   169 172 155   169 172 155   169 172 155   168 171 154   172 173 157   171 165 153   186 173 164   129 110 104    52  31  26    55  31  29    38  17  14    28  13  10    22  11   9    18   8   7    18  10   8    23  13  14    25  15  16    25  10  15    22   7  10    28  16  16    28  17  15    33  22  20    39  28  24    42  28  25    37  22  17    34  19  14    37  20  13    42  23  16    44  24  17    46  26  17    50  28  17    52  30  19    54  32  21    55  31  19    54  30  18    70  46  36    71  44  35    65  41  31    70  46  36    70  43  34    75  46  38    94  61  54    92  57  51    96  59  53    99  62  56    98  63  57   102  72  64   107  82  75   102  84  74    98  84  73   103  91  79   110  92  82   115  92  84   119  92  85   120  91  85   120  90  82   120  90  82   121  91  83   123  93  85   125  95  85   122  94  83   120  92  81   120  90  80   123  89  79   124  87  78   122  84  75   121  81  71   127  85  71   128  85  69   126  83  66   122  79  62   117  74  55   114  72  50   114  72  48   115  73  49   118  76  52   114  72  48   109  67  45   106  63  44   104  61  44   101  58  41    97  54  38    93  50  34    93  52  34    90  49  31    90  49  31    92  51  33    88  49  32    80  41  24    74  37  21    73  36  20    79  43  29    78  42  28    76  40  28    73  39  27    73  39  29    72  38  28    70  36  27    69  35  25    73  39  27    72  39  24    73  37  23    71  38  23    72  39  24    73  41  26    75  41  29    74  42  29    73  41  28    71  39  26    68  36  25    69  37  26    71  39  28    72  40  29    72  40  29    68  40  28    63  36  25    63  41  30    67  43  33    68  46  35    69  47  36    67  47  36    68  48  37    67  49  37    73  55  43    73  57  44    73  57  44    69  55  42    66  52  39    64  50  37    64  50  37    67  51  38    67  44  38    68  43  38    69  44  39    68  43  38    65  42  36    62  42  33    61  41  32    60  42  32    55  38  28    54  38  25    48  34  21    41  29  15    35  23   9    30  21   6    31  22   5    36  22   9    36  16   9    37  13   9    35  14  11    36  17  11    38  20  16    41  24  17    41  23  19    40  23  16    41  22  18    43  22  17    44  23  20    42  23  17    40  22  18    38  23  16    40  27  21    43  28  23    46  27  23    49  28  25    54  30  26    54  33  28    58  34  30    56  35  30    56  36  29    55  35  28    55  35  28    57  37  30    58  38  29    59  39  30    58  38  29    58  38  29    59  39  30    60  40  31    61  43  33    61  43  31    61  43  33    60  42  30    62  42  33    62  42  31    63  43  34    65  43  32    67  44  36    65  41  31    61  36  29    59  35  25    62  35  28    65  38  29    70  43  36    74  47  40    72  45  38    73  46  39    73  46  39    73  46  39    72  45  38    73  46  39    76  49  42    79  52  45    88  61  54    84  57  50    83  56  49    86  59  52    87  60  53    86  59  52    88  61  54    93  64  56    88  58  50    87  54  47    86  53  46    88  55  48    87  54  47    84  51  44    83  50  43    84  54  46    86  56  48    83  53  45    83  54  46    87  58  50    87  58  50    86  57  49    89  60  52    95  65  57    90  55  51    89  54  50    89  54  50    91  56  52    93  58  54    92  59  54    88  58  50    86  56  48    89  60  52    94  65  57    94  67  58    91  64  55    88  64  52    91  67  55    90  68  55    89  65  53    96  69  58    94  66  55    92  62  52    91  61  51    94  61  52    94  60  51    94  57  51    92  55  49
174 177 160   174 177 160   174 177 160   174 177 160   174 177 160   174 177 160   174 177 160   174 177 160   174 178 161   177 178 162   177 171 159   193 180 171   130 111 105    51  30  25    53  32  29    37  18  14    29  14  11    23  12  10    18   8   7    17   9   7    21  11  10    23  13  12    25  10  13    24   9  12    33  19  19    34  20  19    41  27  26    49  35  32    53  38  35    49  34  29    49  31  27    51  32  26    57  38  31    56  36  29    58  35  27    62  38  28    66  42  32    68  44  32    68  41  30    66  39  28    77  49  38    77  49  38    74  46  35    79  51  40    76  46  36    80  47  38    97  62  56    97  60  54    97  60  54    98  61  55    94  59  55    98  65  60   105  78  71   105  82  74   102  84  74   107  90  80   115  95  84   118  96  85   120  93  84   120  91  83   120  90  82   123  90  83   126  93  84   126  96  86   127  97  87   124  94  84   120  90  79   118  88  77   122  88  78   123  86  77   120  82  73   118  78  68   126  84  70   127  84  68   125  82  65   122  79  62   118  75  56   115  73  51   115  73  49   116  74  50   116  74  50   113  71  47   109  67  45   108  65  46   108  65  48   105  62  45    98  55  39    90  47  31    92  51  33    92  51  33    92  54  35    93  55  36    88  49  32    80  41  24    74  37  21    72  35  19    84  46  33    83  47  33    81  45  33    78  42  30    75  38  29    72  35  26    71  34  25    68  34  22    75  42  27    74  43  25    75  42  25    74  43  25    73  42  24    72  43  25    75  43  28    74  45  29    74  45  29    72  43  27    71  42  28    72  43  29    74  45  31    75  46  32    76  47  33    74  46  34    71  44  33    68  44  34    70  43  34    70  46  36    72  48  38    72  50  39    71  49  38    68  48  37    75  55  44    76  56  45    77  57  46    74  56  44    72  54  42    69  53  40    69  53  40    70  52  40    68  45  39    69  44  39    69  44  37    70  45  38    69  46  38    66  46  37    64  44  35    61  43  31    60  44  31    59  43  30    55  41  28    50  38  22    46  34  18    43  31  15    40  31  14    44  30  17    40  20  13    41  18  12    37  16  11    37  18  11    37  20  13    36  22  13    36  19  12    35  18  10    34  15   9    36  17  10    37  18  12    37  18  11    36  19  12    35  21  12    37  24  16    39  26  18    39  22  15    42  23  17    46  25  20    48  29  23    50  30  23    50  31  24    49  30  23    49  30  23    50  30  21    50  30  21    50  30  21    52  32  23    53  33  22    52  32  21    51  31  20    49  29  18    51  33  21    52  34  20    54  34  23    55  36  22    58  36  25    58  36  23    58  36  25    59  35  23    64  37  28    65  37  26    66  37  29    69  39  29    73  40  33    75  42  33    76  43  36    77  44  37    76  46  38    78  48  40    80  50  42    80  50  42    80  50  42    81  51  43    84  54  46    86  56  48    90  60  52    88  58  50    88  58  50    90  60  52    91  61  53    90  60  52    91  61  53    93  63  55    92  59  52    91  57  48    92  58  49    95  61  52    95  61  52    88  55  46    86  53  44    87  54  45    85  55  45    81  51  41    79  49  39    79  49  39    78  48  38    78  48  38    83  55  44    93  63  55    86  53  48    87  54  49    89  56  51    93  60  55    95  62  57    93  62  57    91  60  55    89  58  53    93  64  56    95  66  58    93  66  57    89  62  53    84  60  50    87  63  53    90  66  56    92  68  58    99  72  61    97  69  58    95  65  55    93  63  53    94  61  52    95  61  52    96  59  53    95  58  52
178 181 164   178 181 164   178 181 164   178 181 164   178 181 164   178 181 164   178 181 164   178 181 164   179 183 166   180 183 166   181 177 165   198 188 178   132 115 108    51  30  25    54  33  30    38  19  15    31  16  13    24  13   9    19   9   7    17   9   7    20  10   9    22  12  11    26  11  14    26  12  12    35  21  20    37  23  20    43  29  26    53  38  33    57  42  37    57  40  33    56  37  31    58  38  31    62  42  35    61  38  30    59  35  25    64  37  28    71  43  32    74  46  35    71  43  32    67  39  28    71  41  31    75  42  33    75  42  33    81  48  39    79  45  36    80  46  37    96  59  53    93  56  50    93  56  50    93  58  52    91  56  52    94  61  56   104  75  69   108  81  74   107  84  76   113  90  82   118  96  85   121  97  87   126  97  89   127  97  89   127  94  87   126  93  84   128  94  85   128  95  86   129  96  87   125  95  84   125  93  82   122  90  79   122  85  76   121  83  74   120  80  72   121  78  69   124  80  67   124  81  64   124  81  64   122  79  60   120  78  56   119  77  55   120  78  54   122  80  56   114  72  48   112  70  46   108  66  44   106  64  42   107  64  45   107  64  47    99  56  40    89  46  29    91  50  32    93  52  34    95  57  38    94  56  37    89  50  33    82  43  26    77  40  24    75  38  22    84  46  33    85  47  34    85  47  36    81  45  33    76  39  30    73  36  27    73  36  27    73  37  25    75  42  27    76  45  27    79  46  29    78  47  29    77  46  28    77  46  28    79  47  32    82  50  35    81  49  34    81  49  34    80  48  35    81  49  36    83  51  38    85  53  40    84  55  41    85  55  44    84  56  45    81  52  44    79  50  42    80  51  43    82  55  46    84  57  48    80  56  46    77  53  43    79  55  45    79  55  45    78  56  45    77  55  44    75  55  44    75  55  44    76  56  45    78  56  45    75  50  43    74  49  42    75  48  41    74  49  42    75  50  43    72  50  39    69  47  36    63  43  32    63  45  33    62  46  31    60  44  29    56  43  27    55  42  26    54  41  25    54  42  26    56  43  27    51  31  22    52  29  21    48  28  19    46  28  18    44  27  17    41  27  16    40  23  13    37  20  10    38  20  10    39  21  11    40  22  12    40  22  12    40  22  12    40  23  13    39  27  15    42  29  20    39  22  14    42  23  16    45  26  20    47  28  21    49  30  23    49  30  23    49  30  23    48  30  20    50  30  21    49  29  20    50  30  21    52  32  21    57  35  24    57  35  24    55  33  22    50  31  17    53  34  20    54  35  20    58  36  22    60  38  24    62  39  25    63  40  26    64  38  25    65  37  25    69  39  28    73  41  30    77  43  33    80  46  36    85  48  39    85  48  39    85  48  39    84  47  39    87  53  44    89  55  46    92  57  51    93  59  50    93  58  52    94  60  51    96  61  55    98  64  55    92  57  51    92  58  49    93  58  52    94  60  51    95  60  54    94  60  51    94  59  53    95  61  52    93  59  50    92  58  49    95  61  52    99  65  56    99  65  56    92  58  49    89  55  46    88  55  46    92  59  50    86  56  46    84  54  44    82  52  42    79  49  39    78  48  38    86  56  46    96  66  56    81  51  43    84  53  48    90  57  52    92  61  56    94  63  58    94  63  58    92  61  56    90  59  54    92  63  55    94  65  57    92  65  56    88  61  52    84  60  50    85  61  51    90  66  56    95  68  59   101  73  62    99  71  60    96  66  56    95  62  53    94  60  51    94  60  51    97  60  54    97  60  54
184 187 168   184 187 168   184 187 168   184 187 168   184 187 168   184 187 168   184 187 168   184 187 168   182 186 169   185 188 171   186 183 168   203 193 181   140 123 115    54  35  28    53  32  27    40  21  15    33  18  13    26  15  11    22  13   8    19  11   8    21  11   9    23  13  11    29  15  15    30  16  16    37  22  19    37  22  17    43  28  23    53  35  31    56  38  34    54  35  29    54  33  28    58  35  29    63  38  33    61  34  27    58  29  21    61  32  24    69  39  29    72  42  32    71  38  29    67  34  25    72  38  28    75  41  31    79  42  33    87  50  41    85  47  38    84  46  37    94  57  49    88  51  43    85  50  44    90  57  50    91  60  55    98  67  62   113  82  79   121  92  88   123  94  90   128  99  93   126  99  90   127 100  89   131 101  91   132  99  90   131  97  88   130  96  87   133  96  88   132  98  88   129  95  85   130  98  87   131  97  87   126  92  80   122  84  73   120  80  70   124  81  72   129  85  74   126  83  67   127  84  67   126  83  66   125  82  63   122  80  58   121  79  57   123  81  59   124  82  60   114  72  50   112  70  48   107  65  43   102  60  38   105  62  43   107  64  45   101  58  41    91  48  31    90  49  31    94  53  33    96  58  39    95  57  38    91  52  35    87  48  31    83  44  29    81  42  27    83  43  31    85  45  33    85  45  35    82  44  33    79  41  32    77  39  30    78  40  31    78  42  30    76  40  24    77  44  25    82  47  28    82  49  30    82  49  30    83  50  31    86  53  36    89  56  39    89  56  39    89  56  39    90  57  42    90  57  42    91  58  43    93  60  45    95  62  47    97  63  51   100  67  58    94  64  56    91  61  53    93  63  55    97  67  59    99  69  61    95  66  58    92  63  55    90  61  53    89  60  52    86  59  50    86  59  50    87  60  51    89  62  53    91  64  55    92  65  56    89  62  53    87  60  51    87  58  50    86  59  50    86  59  50    83  59  49    79  55  45    75  53  40    74  52  39    70  51  37    67  48  34    64  47  31    63  46  30    64  48  32    65  49  33    67  49  35    65  43  30    64  40  30    59  39  28    56  38  26    54  38  25    51  35  22    48  30  18    45  27  15    47  27  16    48  28  17    49  29  18    47  27  16    45  27  15    44  28  15    44  30  17    46  32  19    41  24  14    43  26  16    46  27  20    49  31  21    50  32  22    50  32  22    50  30  21    49  29  18    53  31  20    53  31  20    54  32  21    57  35  22    62  38  26    64  40  28    62  38  26    60  37  23    62  39  23    62  41  24    66  43  27    70  44  29    72  44  30    73  45  31    74  45  31    75  43  30    78  44  32    82  46  34    85  47  36    89  49  39    92  49  40    93  50  41    92  49  40    92  49  40    90  52  43    92  55  46    96  59  51    98  61  52    98  61  53    98  61  52    99  62  54   100  63  54    95  58  50    96  59  50    97  60  52    97  60  51    97  60  52    97  60  51    97  60  52    96  59  50    96  59  50    95  58  49    98  61  52   102  65  56   101  64  55    93  59  49    90  56  46    90  56  46   101  67  57    98  66  55    97  65  54    96  64  53    92  60  49    89  57  46    95  63  52   101  71  61    80  50  42    82  53  47    88  57  52    90  61  55    92  63  57    91  62  56    90  61  55    89  60  54    89  60  54    89  60  54    89  62  55    89  62  55    88  61  54    88  61  54    91  64  57    95  68  59    99  71  60    98  68  58    97  64  55    94  61  52    93  59  50    93  59  50    94  59  53    95  60  54
191 194 175   191 194 175   191 194 175   191 194 175   191 194 175   191 194 175   191 194 175   190 195 175   185 192 174   192 196 179   190 188 173   209 201 188   149 135 126    60  41  34    53  32  27    42  23  17    33  18  13    28  17  11    25  16  11    22  15   9    24  15  10    28  17  15    33  19  18    36  20  20    38  23  18    39  22  15    41  23  19    48  29  23    50  31  25    49  29  22    51  28  22    54  29  22    62  35  28    59  30  24    56  26  18    61  28  21    68  35  26    73  39  30    73  36  28    69  32  23    74  37  28    75  39  27    76  38  29    84  46  37    82  42  34    79  41  32    85  48  40    75  41  32    72  39  32    84  54  46    95  66  60   106  77  71   124  93  90   134 100  98   136 101  99   138 105 100   136 106  98   134 106  95   135 102  93   133  99  89   133  96  88   136  98  89   139 101  92   142 105  96   132  95  86   135  99  87   136 100  88   131  95  83   127  87  77   126  84  72   131  87  76   138  92  79   134  91  75   134  91  72   132  89  70   129  86  67   125  83  61   122  80  58   122  80  58   124  82  60   115  73  51   114  72  50   109  67  45   102  60  38   104  61  42   108  65  46   105  62  45    96  53  36    93  52  32    97  56  36    97  59  40    95  57  38    93  54  37    92  53  36    89  50  35    85  46  31    81  41  29    82  42  30    83  43  33    83  43  33    82  42  34    81  43  34    82  42  34    82  44  33    79  42  26    81  44  26    84  47  29    87  50  32    90  53  35    92  55  37    94  57  41    95  58  42    97  60  44    98  61  45   100  60  48    99  61  48   100  60  48   102  62  50   104  64  52   105  67  56   111  74  66   106  71  65   105  70  64   107  72  66   112  77  71   113  78  72   110  77  70   107  74  67   107  74  67   105  72  65   101  71  63   101  71  63   102  72  64   104  74  66   105  75  67   105  75  67   102  72  64   101  71  63    99  69  61    98  68  60    97  67  59    95  67  56    94  66  55    92  65  54    89  62  51    83  60  46    79  56  42    75  53  39    74  52  38    75  54  37    75  53  39    76  53  39    75  49  36    74  48  35    70  47  33    68  46  32    65  46  31    61  44  28    57  38  23    54  35  20    58  36  22    58  36  22    59  36  22    56  34  20    53  31  17    50  33  17    51  34  18    52  36  21    47  29  17    48  30  18    50  32  22    53  33  22    53  33  24    52  32  21    53  31  20    52  30  17    57  33  21    57  33  21    60  33  22    62  36  23    65  38  27    68  42  29    70  42  30    70  42  28    71  44  27    72  45  26    73  46  27    76  47  29    79  48  30    81  48  31    83  47  31    84  48  32    87  48  33    88  49  34    91  49  35    93  49  36    96  50  37    97  51  38    97  51  38    95  51  40    96  53  44    96  58  47   102  62  54   103  65  54   104  64  56   102  64  53   103  63  55   103  65  54   101  61  53   101  63  52   102  62  54    99  61  50   100  60  52   101  63  52   103  63  55   100  62  51   100  62  53    97  61  49    99  61  52   102  66  54   101  64  55    96  60  48    93  56  47    93  59  47    99  65  55    97  63  51    97  63  53    97  65  52    94  62  51    90  58  45    93  61  50    99  67  56    81  52  44    84  55  49    88  59  53    90  61  55    90  61  55    90  61  55    89  60  54    89  60  54    89  60  54    87  58  52    86  59  52    88  61  54    90  63  56    90  63  56    91  64  57    94  65  59    96  66  58    96  66  56    97  64  55    94  61  52    93  59  50    92  58  49    94  59  53    95  60  54
199 202 183   199 202 183   199 202 183   199 202 183   199 202 183   199 202 183   199 202 183   198 203 183   192 199 181   203 207 190   198 196 181   216 208 195   162 148 139    67  48  41    50  31  24    41  24  16    34  19  12    30  20  11    28  19  12    27  18  11    29  18  12    32  21  17    37  23  20    40  25  22    40  23  16    39  20  13    40  21  15    45  25  18    46  26  19    47  24  18    49  24  19    54  27  20    59  30  24    56  26  18    56  23  16    59  24  18    67  30  22    71  34  26    72  33  26    69  31  22    70  33  24    68  32  20    65  27  16    74  34  24    74  34  26    73  35  26    78  44  35    67  34  25    67  38  30    88  61  52   106  79  72   120  93  86   135 104  99   142 107 103   141 103 102   141 103 100   141 108  99   141 109  98   140 106  96   140 104  92   139 101  92   140 100  90   143 103  93   146 106  96   140 100  90   137  99  86   135  97  84   134  94  82   135  93  81   137  93  80   141  93  81   142  94  80   140  94  78   140  95  76   138  93  74   134  89  68   130  85  64   127  82  61   127  82  61   128  83  62   118  73  52   120  75  54   116  71  50   108  63  42   108  63  42   113  68  47   111  66  47   101  58  39    99  58  38   101  60  40   101  60  40    97  56  36    96  55  37    97  56  38    94  52  36    89  47  31    83  41  27    83  41  27    82  40  28    83  41  29    85  42  33    84  44  34    86  43  34    85  43  31    86  44  28    88  45  28    90  47  30    93  50  33    97  54  37    99  56  39   100  57  41    99  56  40   103  60  44   104  61  45   107  61  48   105  61  48   106  60  47   107  61  48   110  64  51   111  67  56   115  75  67   112  75  67   113  76  68   116  79  71   120  83  75   122  85  77   120  83  75   118  81  73   120  83  75   118  81  73   117  80  72   118  81  73   117  83  74   116  82  73   112  78  69   109  75  66   108  71  63   108  71  63   107  70  62   103  69  60   102  68  59   103  69  59   104  70  60   105  73  62   102  70  59    97  68  54    93  64  50    90  62  48    90  62  48    89  62  45    88  60  46    87  58  44    86  54  41    83  54  40    81  53  39    80  54  39    78  55  39    75  52  36    71  48  32    67  44  28    69  43  28    70  42  28    70  42  28    67  41  26    65  39  24    61  40  23    62  41  24    62  43  26    57  38  24    58  39  25    60  40  29    63  41  28    62  40  29    62  38  26    62  35  24    61  35  22    65  37  25    66  38  26    67  37  26    67  38  24    70  38  27    73  41  28    77  43  31    80  47  32    80  47  28    81  49  28    81  49  28    83  48  28    84  49  29    87  50  31    89  51  32    90  52  33    94  51  34    95  52  35    98  52  36   100  54  38   103  56  40   103  56  40   103  56  40   102  56  41   102  58  47   103  63  51   109  66  57   110  70  58   111  68  59   107  67  55   109  66  57   106  66  54   108  65  56   108  68  56   109  66  57   103  63  51   105  62  53   107  67  55   110  67  58   106  66  54   105  65  55   101  63  50   101  61  51   102  64  51   101  63  52    98  60  47    97  59  48    99  63  49    98  62  50    95  59  45    95  59  47    96  63  48    95  61  49    91  58  43    92  58  46    95  63  50    86  58  47    87  60  51    90  63  54    91  64  55    89  62  53    88  61  52    89  60  54    91  62  56    92  63  57    87  58  52    84  55  49    88  59  53    91  62  58    91  62  58    90  61  57    91  62  56    94  64  56    97  64  55    98  64  55    97  63  54    95  61  52    94  60  51    95  60  54    97  62  56
204 207 188   204 207 188   204 207 188   204 207 188   204 207 188   204 207 188   204 207 188   203 208 188   199 206 188   211 215 198   203 201 186   221 213 200   170 156 147    72  53  46    49  30  23    41  24  16    34  19  12    33  20  12    31  21  12    31  21  12    32  21  15    36  23  17    40  25  20    44  26  22    42  23  16    40  20  11    40  20  13    45  22  14    46  23  17    46  21  14    50  23  16    56  27  19    56  26  18    55  22  15    54  19  13    58  21  15    65  26  19    69  30  23    70  29  23    68  30  21    68  31  22    64  28  16    60  22  11    69  31  20    72  34  25    74  37  28    80  47  38    68  40  29    79  52  43   102  78  68   123  99  89   137 110 103   149 118 113   150 115 111   145 105 103   143 104  99   139 105  96   142 108  96   146 110  98   148 110  99   147 107  97   146 104  92   145 102  93   145 103  91   146 104  92   140  98  84   135  93  81   135  93  79   141  97  84   147 101  88   147  97  86   144  95  81   141  94  76   140  95  74   139  94  73   136  91  70   132  87  66   131  86  65   131  86  65   133  88  67   118  73  52   123  78  57   121  76  55   113  68  47   112  67  46   116  71  50   114  69  48   106  61  42   105  62  43   105  64  44   103  60  41    97  56  36    97  54  37    98  57  39    95  53  37    88  46  30    84  42  28    82  40  26    81  39  27    83  41  29    86  43  34    87  44  35    86  43  34    85  43  31    90  47  31    92  46  30    93  47  31    97  51  35   101  55  39   103  57  41   102  56  41   100  54  39   106  58  44   107  59  45   109  61  49   108  60  48   107  59  47   108  58  47   111  61  50   113  65  55   115  72  65   113  74  67   117  76  70   120  81  74   125  84  78   125  86  79   125  84  78   122  83  76   125  84  78   123  84  77   125  84  78   125  86  79   124  85  78   120  81  74   113  74  67   108  69  62   105  64  58   105  65  57   107  64  58   104  64  56   102  62  54   104  64  56   109  69  61   112  74  63   108  70  59   105  69  57   104  68  56   104  68  54   106  70  56   105  69  55   103  67  53   100  64  48    96  60  46    95  59  43    93  60  45    92  61  43    90  61  45    87  60  41    84  55  39    81  52  34    80  48  33    80  49  31    81  48  33    79  48  30    75  46  30    73  46  27    74  48  31    74  51  33    70  47  33    70  47  33    72  48  36    74  48  35    73  47  34    72  44  32    71  41  30    69  40  26    74  42  29    76  43  28    76  42  30    77  41  27    76  40  26    79  41  28    83  45  32    88  49  34    89  51  32    89  51  30    90  49  29    90  49  29    91  50  30    93  52  32    95  52  33    97  54  35    99  54  35   102  55  37   105  58  40   108  61  43   111  62  45   111  62  45   111  62  45   110  63  47   102  58  45   105  63  51   109  67  55   111  69  57   111  69  57   109  67  55   107  65  53   107  65  53   113  71  59   114  72  60   112  70  58   107  65  53   107  65  53   112  70  58   114  72  60   112  70  58   109  69  57   105  65  53   102  62  50   103  63  51   103  63  51    99  61  48   100  62  49   104  66  53   105  67  54   101  65  51   100  64  50   103  67  53   103  67  53    98  65  50   100  64  50   100  68  55    90  62  51    91  64  53    93  66  57    92  65  56    89  62  53    89  60  52    90  61  53    92  63  57    97  68  62    88  59  53    83  54  48    86  57  51    90  61  57    90  61  57    89  58  55    90  59  54    94  61  54    98  64  55   100  66  57    99  65  56    97  63  54    95  61  52    96  61  55    98  63  57
213 216 199   213 216 199   213 216 199   213 216 199   213 216 199   213 216 199   213 216 199   212 216 199   207 214 196   212 216 199   217 215 200   221 213 200   199 185 174    77  59  49    48  28  21    44  25  18    37  20  12    35  22  13    35  25  15    37  27  17    41  28  20    44  29  22    47  28  22    47  26  21    45  22  14    47  25  14    46  23  15    43  19   9    43  18  11    50  23  14    54  25  17    53  23  15    57  24  17    56  22  13    55  21  12    58  21  13    63  24  17    67  26  20    67  26  20    65  27  18    64  30  20    62  30  17    65  31  19    69  33  21    66  29  20    63  29  19    68  38  27    77  51  38   102  78  66   127 105  92   144 122 109   145 121 111   145 115 107   141 106 100   143 102  98   148 107 101   147 110 101   146 110  96   148 108  96   149 107  95   148 104  93   146 102  89   145 101  90   144 100  87   143  99  86   136  93  77   135  91  78   145  99  84   154 106  92   154 105  91   151  99  86   148  96  82   142  95  75   142  95  75   140  93  73   138  91  71   136  89  69   136  89  69   135  88  68   134  87  67   126  79  59   129  82  62   126  79  59   119  72  52   116  69  49   118  71  51   118  71  51   113  68  47   114  69  48   110  68  46   109  64  45   104  61  42   102  56  40    98  55  38    96  53  37    95  52  36    83  39  26    82  38  25    80  38  26    82  40  28    85  43  31    87  45  33    87  44  35    86  44  32    82  39  23    84  41  24    90  44  28    95  49  33    99  53  37   101  55  39   103  55  41   103  55  41   109  60  46   111  62  48   108  58  47   104  54  43   105  55  44   114  62  51   119  67  56   115  67  57   119  74  68   116  75  69   122  79  73   129  88  82   136  93  87   130  89  83   128  85  79   124  83  77   123  80  74   117  76  70   111  68  62   112  71  65   123  82  76   117  76  70   107  64  58   108  63  58   113  66  60   113  66  58   113  64  59   109  62  54   107  60  52   109  62  54   113  66  58   115  71  60   110  66  55   112  68  57   111  67  56   108  66  52   110  68  54   114  72  58   112  70  56   106  64  48   105  63  49   104  62  46   102  63  48   102  65  47   102  66  50    99  66  47    98  62  46    95  60  41    97  60  44    93  56  38    91  52  37    91  54  36    93  57  41    91  58  39    86  55  37    80  51  33    84  55  41    85  56  42    86  56  45    88  56  43    87  55  42    87  53  41    86  52  40    86  50  36    85  47  34    86  49  33    89  49  37    91  49  35    90  48  34    92  48  35    94  50  37    96  53  37    98  53  34    96  51  30    96  49  29    97  50  30   100  53  33   102  55  35   102  55  35   101  54  34   106  59  39   107  60  40   109  62  42   111  64  44   113  66  46   115  68  48   115  68  48   114  69  50   111  69  53   108  69  54   107  68  53   108  69  54   109  70  55   110  71  56   110  71  56   110  71  56   120  81  66   109  70  55   106  67  52   112  73  58   116  77  62   111  72  57   109  70  55   112  73  58   110  68  54   110  68  54   109  67  53   108  66  52   107  65  51   105  66  51   105  66  51   105  66  51    97  58  43    98  61  45   101  64  48   104  67  51   105  68  52   103  67  51   104  67  51   100  67  52    97  67  56    94  66  54    94  66  55    95  67  56    92  64  53    89  59  49    91  61  51    97  67  59    98  68  60    94  64  56    90  59  54    88  57  52    90  59  54    92  61  56    95  61  59    94  61  56    93  58  52    94  60  51    96  62  53    97  63  54    98  64  55    98  64  55    97  62  56    97  62  56
217 219 205   217 220 203   217 219 205   217 220 203   217 219 205   217 220 203   217 219 205   217 220 203   216 220 203   219 222 205   221 218 203   227 217 205   207 190 180    83  63  54    48  28  21    43  23  16    38  21  13    41  27  18    45  32  23    48  35  26    49  35  26    49  32  24    50  30  23    51  28  22    47  23  13    51  24  13    49  22  13    46  19   8    46  19  10    52  24  13    55  25  17    55  22  13    58  24  15    56  22  13    57  20  12    59  22  14    63  24  17    67  26  20    68  27  21    65  28  19    66  34  23    60  31  17    62  30  19    64  32  21    60  28  17    57  27  16    75  47  35    99  73  60   127 105  92   139 117 104   142 120 107   140 113 102   141 111 101   144 107  99   143 102  98   146 105  99   144 106  95   144 106  93   148 106  94   149 105  92   150 104  91   149 101  89   147  99  87   145  99  84   144  98  83   139  93  78   139  93  78   147 100  84   154 105  91   154 102  88   152  99  85   150  97  81   148  97  78   144  96  74   142  94  74   141  93  73   139  91  71   138  90  70   138  90  70   139  91  71   131  83  63   132  84  64   130  82  62   127  79  59   124  76  56   123  75  53   119  71  49   114  68  45   118  71  51   117  70  50   114  67  49   110  63  45   105  58  42   100  54  38    96  50  35    92  49  33    84  40  27    82  38  25    80  38  26    80  38  26    82  40  28    84  42  30    84  41  32    84  42  30    84  42  26    86  45  27    89  48  30    93  50  33    95  52  35    96  53  36   100  54  39   102  56  41   104  56  42   106  58  44   105  57  45   103  55  43   106  56  45   113  63  52   117  67  56   115  67  57   110  65  59   112  69  63   122  79  73   135  92  86   139  96  90   131  88  82   120  77  71   115  72  66   113  70  64   108  65  59   102  59  53   107  64  58   118  75  69   114  69  64   102  57  52   102  55  49   108  58  51   111  58  52   111  58  52   111  58  50   111  58  52   113  60  52   114  64  55   116  66  57   113  63  54   116  66  55   116  68  56   115  67  53   116  68  56   119  71  57   118  70  56   113  65  51   115  67  53   113  67  52   113  67  52   110  68  52   110  68  52   106  67  50   102  63  46   101  59  43   108  65  49   105  62  46   103  60  44   104  61  45   104  62  46   102  63  46    98  61  43    93  58  39    91  58  43    92  59  44    94  58  46    95  59  45    96  58  45    96  59  43    97  57  45    96  57  42    93  51  37    95  53  37    98  54  41   100  54  39    99  53  38   101  54  38   102  54  40   104  57  41   105  56  39   106  55  36   106  55  36   108  57  38   109  58  39   108  60  40   107  59  39   107  59  39   111  63  43   112  64  44   113  66  46   115  68  48   116  69  49   116  69  49   116  69  49   114  69  50   111  69  53   108  69  54   108  69  54   109  70  55   110  71  56   112  73  58   113  74  59   114  75  60   119  80  65   110  71  56   107  68  53   113  74  59   116  77  62   111  72  57   110  71  56   114  75  60   111  69  55   110  68  52   111  67  54   109  67  51   109  67  53   108  66  50   107  65  51   105  66  49    99  60  45   103  64  47   104  65  50   100  63  45   100  63  47   103  66  48   103  66  50    98  62  46    99  67  54    95  66  52    94  65  51    94  64  53    91  61  50    87  57  46    90  58  47    93  63  53    96  63  54    92  62  54    92  59  52    91  58  53    91  58  53    92  59  54    93  59  57    94  59  55    91  54  48    93  56  48    96  59  51    95  61  52    96  62  53    96  62  53    97  62  56    98  63  57
223 225 212   223 225 211   223 225 212   223 225 211   223 225 212   223 225 211   223 225 212   223 225 211   223 227 210   226 229 212   226 223 208   233 223 211   216 198 188    92  69  61    51  28  20    42  19  11    39  21  11    47  30  20    56  39  29    59  42  32    55  38  28    50  32  22    51  28  20    52  27  20    50  23  12    52  24  12    51  23  12    48  20   8    49  21  10    53  23  12    55  25  15    56  24  13    58  24  14    57  23  13    58  21  12    60  23  14    64  26  17    67  29  20    68  30  21    67  30  21    62  32  21    58  30  18    57  29  18    56  28  16    59  31  19    73  45  33   103  77  64   132 106  93   148 125 111   149 126 112   142 116 103   137 109  97   145 113 102   148 111 102   144 103  97   145 102  95   140 100  88   143 101  87   146 102  89   150 104  89   152 103  89   150 101  87   148  99  85   147  98  83   146  97  82   142  95  79   143  96  80   149 100  83   154 102  88   154 101  85   155  97  83   153  97  80   153 101  80   146  96  73   143  92  71   145  94  73   144  93  74   140  89  70   142  91  72   146  95  76   140  89  70   137  86  67   135  84  65   136  85  66   135  84  63   129  78  57   122  71  50   119  68  47   121  70  51   118  70  50   117  69  49   114  66  46   110  61  44   104  57  39    99  52  36    96  50  34    87  44  28    83  40  24    79  37  23    77  35  21    76  36  24    78  38  26    79  39  27    78  38  26    81  44  26    83  48  29    85  50  31    87  50  32    87  50  32    88  51  33    93  54  39    97  58  43    96  54  40    98  56  42   101  57  46   101  57  46   105  58  48   110  63  53   113  66  56   111  67  56   109  66  59   111  71  63   121  81  73   133  93  85   137  94  87   126  83  76   114  71  64   109  66  59   105  60  54    99  54  48    93  48  42    99  54  48   110  65  59   109  62  56    98  51  45    95  46  41   102  49  43   104  49  42   106  51  44   109  55  45   112  57  50   114  60  50   113  59  49   113  59  49   113  59  49   117  63  51   121  67  55   121  68  54   122  68  56   123  70  56   122  69  55   120  67  53   123  71  57   121  72  57   121  72  57   120  74  58   120  74  58   114  71  54   111  65  49   107  61  45   113  66  50   113  66  50   115  66  51   115  68  52   114  68  52   111  68  51   109  68  50   106  67  50   102  63  48   102  63  48   103  61  49   104  62  48   104  62  48   105  63  47   107  63  50   108  65  49   103  57  42   105  59  43   108  60  46   108  61  45   107  60  44   108  59  42   110  61  46   113  62  45   113  60  42   115  62  44   117  64  46   118  65  47   117  64  46   115  64  45   114  63  44   114  63  44   115  67  47   116  68  48   118  71  51   119  72  52   119  74  53   118  73  52   116  71  50   113  70  51   112  71  53   111  72  55   111  72  55   112  73  56   113  74  57   115  76  59   117  78  61   118  79  62   118  79  62   112  73  56   110  71  54   115  76  59   116  77  60   112  73  56   112  73  56   119  77  61   114  71  55   114  71  54   115  69  54   112  69  52   111  68  52   110  67  50   110  67  51   108  67  49   104  62  46   109  68  50   107  65  49    97  59  40    97  58  41   102  64  45   102  63  46    95  58  40   100  67  50    97  65  50    96  64  49    95  63  50    92  60  47    88  56  43    89  55  43    91  59  48    93  59  49    93  60  51    94  60  51    93  60  53    91  58  51    91  58  51    91  58  53    93  58  54    88  51  45    91  54  46    95  58  50    96  59  51    94  60  51    94  60  51    96  61  55    99  64  58
228 230 219   228 230 217   228 230 219   228 230 217   228 230 219   228 230 217   228 230 219   228 230 217   227 231 216   230 231 215   231 225 211   241 229 217   219 199 190    97  72  65    54  29  22    44  19  12    41  21  12    50  32  22    60  42  32    62  44  34    55  37  27    49  29  18    50  25  18    53  26  17    53  25  13    54  24  13    53  23  12    52  22  11    54  22  11    55  23  12    57  25  14    57  25  14    58  24  14    58  24  14    58  24  14    61  24  15    63  26  17    65  28  19    67  30  21    66  32  22    63  35  24    61  34  23    56  29  18    55  28  17    71  44  33   104  78  65   134 108  95   149 123 110   151 125 112   150 122 110   142 112 101   143 109  97   152 116 104   152 112 102   146 103  94   143 100  91   139  97  83   142  99  83   148 102  87   151 103  89   155 103  90   153 101  87   152  99  85   149  97  83   147  95  81   145  96  79   149  98  81   151 100  83   152  99  83   153  97  82   155  96  82   155  96  80   156 101  81   147  95  73   145  90  70   145  93  72   146  90  73   140  87  69   145  89  72   149  96  78   149  93  76   139  86  68   137  81  64   139  86  68   140  85  65   131  79  57   126  71  50   122  70  48   117  65  44   118  65  47   118  65  47   116  65  46   114  63  46   108  59  42   105  56  41   101  54  38    92  46  31    86  43  27    80  38  24    77  35  21    74  34  22    76  36  24    76  36  24    75  37  24    76  43  26    78  47  27    80  49  29    81  48  29    79  46  27    84  49  30    90  54  38    96  59  43    91  54  38    94  55  40    97  57  45   101  59  47   103  61  49   106  62  51   107  63  52   105  62  53   110  70  62   109  69  61   113  73  65   118  78  70   118  78  70   114  71  64   109  66  59   108  65  58   104  59  53    95  50  44    89  44  38    94  49  43   103  56  50   101  54  48    94  47  41    91  42  35    98  43  36   101  44  35   104  47  38   109  52  43   113  56  47   114  57  48   111  54  45   108  51  40   110  53  42   115  59  46   120  64  51   122  66  53   122  66  53   122  66  53   122  66  53   123  67  54   125  69  56   124  71  57   125  73  59   125  76  61   125  78  62   122  75  59   116  69  53   112  65  49   113  64  49   115  66  51   120  68  54   121  69  55   118  69  54   116  69  53   113  70  53   114  71  54   110  67  51   110  67  51   108  64  51   108  65  49   110  64  49   111  65  50   112  66  51   113  67  51   109  62  46   111  64  48   114  65  50   114  65  48   113  64  47   113  64  47   115  64  47   117  66  49   116  63  45   119  66  48   124  68  51   123  70  52   121  68  50   118  67  48   117  66  47   117  66  47   116  68  48   117  69  49   119  72  52   122  75  55   121  76  55   121  76  55   119  74  53   118  73  54   117  75  59   115  76  59   117  75  59   115  76  59   117  75  59   116  77  60   121  79  63   121  82  65   120  78  62   114  75  58   116  74  58   117  78  61   119  77  61   114  75  58   117  75  59   122  80  64   120  74  58   119  73  57   116  70  54   114  68  52   113  67  51   111  68  51   112  69  52   113  70  53   106  63  46   107  66  48   105  64  46   101  60  42   101  60  42   101  63  44   100  62  43    95  57  38   102  65  47   100  65  46    99  63  47    98  62  46    96  60  44    94  58  44    94  58  44    92  58  46    93  59  47    96  62  52    98  64  55    98  64  55    94  59  53    90  57  50    89  56  49    91  56  50    90  51  44    94  55  48    97  58  51    97  60  52    94  60  51    94  60  51    96  61  55    98  63  57
232 233 225   232 234 223   232 233 225   232 234 223   232 233 225   232 234 223   232 233 225   232 234 223   230 232 218   232 233 217   234 228 212   245 233 219   213 193 182    95  71  61    60  33  24    51  24  15    53  29  19    59  37  26    63  43  32    63  43  32    58  36  25    53  29  17    55  26  18    58  28  18    58  26  15    57  25  12    56  24  11    56  24  11    57  23  11    57  23  11    57  23  13    58  24  14    59  25  15    59  25  15    59  25  15    60  26  16    60  26  16    62  28  18    64  30  20    64  31  22    66  39  30    57  33  23    52  28  18    62  38  26    93  69  57   129 102  91   145 119 106   146 118 106   149 117 104   150 116 104   147 109  98   146 106  94   152 110  98   149 105  94   143  99  88   143  99  86   140  97  81   144  98  82   148 101  85   152 103  88   156 103  89   154 101  87   154  98  85   150  97  81   147  94  78   148  97  80   151  98  82   150  97  79   152  96  79   153  96  79   156  94  79   156  95  77   156  99  79   148  94  70   146  89  69   145  90  70   145  88  71   141  85  68   144  86  72   148  92  77   151  93  79   140  84  69   136  79  62   136  80  63   138  81  62   131  76  55   128  71  51   129  72  52   120  63  44   120  63  44   120  64  47   120  64  47   116  63  47   111  60  43   106  57  42   103  56  40    96  50  35    90  47  31    83  41  27    79  37  23    76  36  24    75  37  24    75  37  24    74  38  24    70  39  21    72  43  25    74  45  27    76  45  27    76  45  27    80  47  30    87  54  39    96  60  46    92  56  42    94  56  43    96  58  47    99  59  49   100  60  50   100  57  48    99  56  47    99  56  47   100  62  53    97  59  50    97  59  50   100  62  53   101  63  54   101  61  53   104  64  56   109  69  61   104  61  54    93  50  43    87  42  36    89  44  38    91  46  40    89  44  38    87  40  34    85  36  29    95  41  31    98  41  30   102  45  34   107  50  39   111  54  43   111  54  43   107  50  39   103  47  34   106  48  36   109  51  39   114  56  44   118  60  46   118  60  46   118  60  46   119  61  47   121  63  49   122  64  52   122  66  53   122  70  56   124  75  60   126  77  62   125  76  61   121  72  57   117  68  53   120  68  54   124  72  58   128  75  61   126  74  60   120  71  56   116  69  53   114  68  52   115  69  53   117  71  55   115  69  53   113  67  52   112  66  50   112  65  49   112  65  49   112  65  49   113  66  48   112  63  46   114  65  48   117  68  51   117  69  49   116  68  48   115  67  47   115  67  47   118  67  48   116  65  48   119  68  51   123  70  54   123  72  55   121  70  53   119  68  51   118  67  50   116  67  50   115  66  49   117  68  51   119  72  54   122  75  57   124  77  59   124  77  59   123  76  58   122  77  58   124  81  65   123  81  67   123  79  66   120  78  64   119  75  62   119  77  63   123  79  66   125  83  69   123  79  66   119  77  63   120  76  63   120  78  64   121  77  64   118  76  62   120  76  63   124  81  65   125  79  63   122  75  57   118  71  53   114  67  49   112  65  47   113  68  49   116  71  52   118  73  54   109  64  45   103  60  41   103  60  41   107  64  45   109  66  47   104  63  43   100  59  39   100  59  39   102  64  45   102  64  45   102  63  46   101  62  45   100  63  45   101  64  48   100  63  47    98  62  48    98  62  50   101  65  53   104  67  58   101  67  57    97  63  54    93  59  50    91  57  48    90  56  47    95  56  49    97  58  51    99  60  53    98  61  53    95  61  52    94  60  51    93  60  53    95  62  55
236 237 231   236 237 229   236 237 231   236 237 229   236 237 231   236 237 229   236 237 231   236 238 227   234 236 222   235 233 218   240 233 217   251 237 224   203 181 170    89  62  53    64  35  27    59  30  22    67  40  31    67  43  33    66  44  33    65  43  32    62  38  26    61  34  23    63  33  23    66  34  23    61  27  15    59  25  13    58  24  12    60  26  14    59  25  13    57  23  11    57  23  13    59  25  15    59  25  15    59  27  16    60  28  17    59  27  16    58  26  15    58  26  15    60  28  17    60  30  20    57  30  21    45  20  13    49  26  18    80  58  47   120  96  86   142 118 106   149 121 109   149 117 106   152 116 104   152 112 102   148 104  93   145  99  86   147 101  88   142  96  83   139  93  80   145  99  84   143  97  81   145  98  82   148  99  84   152 100  86   155  99  86   154  98  85   151  95  80   150  94  79   149  93  78   150  97  81   150  97  79   150  94  77   150  93  76   152  93  77   156  93  78   154  91  74   154  96  76   151  95  72   149  91  71   144  87  67   143  84  66   143  86  69   144  85  71   144  86  72   148  89  75   140  82  68   135  76  60   132  75  56   133  75  55   131  74  54   132  74  52   133  75  53   126  67  49   126  67  49   125  66  50   122  65  48   118  62  47   113  60  44   108  56  42   104  55  40   102  54  40    95  52  36    88  46  32    83  44  29    80  42  29    78  42  28    77  41  27    74  41  26    68  39  21    70  41  23    73  44  26    74  45  27    77  46  28    82  49  32    88  55  40    95  59  45    94  58  44    94  56  43    95  57  46    99  59  49   100  57  48    96  53  44    94  51  42    94  51  42    92  54  45    90  53  44    94  56  47    99  61  52   102  64  55   103  65  56   109  69  61   115  75  67   102  59  52    91  48  41    87  42  36    87  42  36    83  38  32    80  35  29    81  34  28    79  30  23    91  39  28    93  39  27    99  42  31   102  45  34   105  48  37   106  49  38   104  48  35   102  46  33   103  47  34   104  46  34   107  49  35   112  54  40   113  55  41   113  55  41   115  57  43   118  60  46   117  59  47   117  61  48   119  66  52   123  71  57   124  75  60   125  76  61   123  74  59   120  71  56   129  77  63   131  79  65   134  81  67   132  80  66   125  76  61   120  73  57   116  70  54   115  69  53   121  74  58   120  73  57   118  71  55   116  69  53   115  68  52   114  67  49   113  66  48   113  66  48   115  66  49   118  70  50   120  72  52   120  73  53   119  71  51   117  70  50   117  69  49   118  70  50   116  67  50   118  69  52   120  71  54   121  72  55   120  71  54   119  70  53   119  70  53   118  69  52   118  69  52   119  70  53   120  73  55   123  76  58   125  78  60   126  79  61   127  80  62   127  80  64   129  83  68   128  84  71   129  83  70   124  80  67   122  76  63   120  76  63   126  80  67   128  84  71   128  82  69   124  80  67   124  78  65   122  78  65   125  79  66   122  78  65   124  78  65   125  79  64   127  80  64   124  77  59   118  71  53   114  67  49   112  65  47   114  67  49   116  71  52   118  73  54   111  66  47   104  59  40   102  59  40   111  68  49   114  71  52   107  64  45   101  60  40   103  62  42   105  62  43   106  63  44   106  63  44   104  63  45   106  65  47   106  67  50   105  66  49   100  63  47    99  61  48   101  65  53   103  67  55   103  66  57    99  65  56    96  62  53    93  59  50    93  56  48    98  59  52    99  58  52    98  59  52    99  60  53    98  61  53    95  61  52    93  60  53    92  59  52
240 241 236   240 241 235   240 241 236   240 241 235   240 241 236   240 241 235   240 241 236   240 241 233   242 243 229   240 239 221   248 241 225   255 241 228   191 169 158    80  53  44    68  39  31    67  38  30    73  46  35    68  44  32    63  41  28    62  40  27    65  38  27    66  38  27    68  36  25    67  33  23    62  28  16    61  25  11    61  25  11    64  28  14    61  27  15    58  24  12    57  23  11    60  26  14    59  27  14    60  28  15    60  28  17    57  27  16    54  24  13    54  24  13    56  26  15    58  28  18    47  20  13    46  21  14    67  44  36   107  85  74   138 116 105   146 122 110   147 119 107   150 116 106   151 111 101   153 106  98   147  97  88   144  94  83   146  96  85   141  92  78   137  89  75   143  96  80   144  97  81   145  98  82   146  97  82   148  96  82   150  94  79   150  92  78   148  90  76   146  90  75   149  93  76   151  95  78   151  95  78   147  91  74   148  91  72   152  93  75   154  91  74   151  88  71   154  93  74   155  97  75   154  93  74   145  87  67   144  83  65   146  87  71   147  85  72   140  81  67   144  82  69   140  81  67   137  75  60   130  71  53   132  71  52   134  76  56   138  77  56   137  76  55   132  71  53   131  70  52   127  68  52   124  67  50   121  65  48   116  63  45   113  62  45   110  61  46   106  58  44   100  57  41    94  52  38    89  50  35    86  49  33    83  47  31    81  45  31    77  44  29    74  42  27    75  43  28    76  44  29    78  46  31    81  48  33    85  52  37    91  55  43    95  57  46    95  57  46    94  54  44    96  53  46    99  56  49    99  54  48    94  49  43    92  47  41    93  50  43    92  54  45    89  55  45    94  57  48    99  62  53   101  64  55   100  63  54   106  68  59   112  74  65    98  58  50    89  49  41    91  48  41    92  49  42    85  40  34    79  34  28    79  34  28    78  31  23    83  33  22    87  35  22    92  38  26    94  40  28    96  43  29    98  45  31   100  47  33   102  49  35   102  49  33   100  44  29   101  45  30   106  50  35   109  53  36   109  53  36   111  55  38   114  58  43   115  59  46   116  60  47   116  63  49   120  68  54   122  73  58   123  76  60   122  75  59   121  72  57   127  75  61   129  77  63   132  80  66   133  81  67   129  80  65   125  78  62   122  76  60   121  75  59   123  76  58   123  76  58   123  76  58   122  75  57   121  74  56   120  73  55   118  71  53   117  70  50   119  72  52   122  75  55   125  78  58   124  79  56   124  78  55   121  76  53   121  75  52   121  74  54   120  73  55   120  73  57   120  73  57   121  74  58   123  76  60   123  76  60   123  76  60   122  75  59   124  75  60   124  75  60   125  76  61   125  76  61   127  78  63   129  80  65   130  81  66   131  82  67   130  82  68   130  84  71   131  83  71   127  81  68   124  76  64   123  77  64   129  81  69   133  87  74   133  85  73   129  83  70   126  78  66   125  79  66   127  79  67   126  80  67   126  78  66   124  76  62   125  78  60   124  76  56   121  73  53   117  69  49   115  68  48   115  68  48   116  69  49   117  70  50   115  70  49   109  64  43   107  62  41   112  67  46   113  71  49   110  68  46   106  64  42   105  63  41   108  63  42   110  65  44   109  64  43   105  62  43   107  64  45   109  68  50   106  64  48    99  60  45    96  59  43    97  59  46    98  62  50   100  64  52    99  65  55    99  65  55    96  62  52    96  59  50    97  58  51    96  55  49    94  55  48    96  57  50    98  61  53    96  62  53    93  60  53    90  57  50
243 244 239   243 244 239   243 244 239   243 244 239   243 244 239   243 244 239   243 244 239   243 244 238   246 248 235   243 241 228   254 246 235   255 244 234   183 160 152    75  46  38    69  40  32    71  42  34    73  46  37    65  41  31    59  35  25    59  35  25    65  37  26    67  37  27    66  33  24    62  28  18    63  29  17    59  25  13    59  25  13    62  28  16    62  28  16    58  24  12    57  23  13    59  27  14    60  28  17    59  29  18    59  29  18    56  28  17    53  25  14    51  23  12    53  25  14    54  27  18    52  25  18    65  40  35    96  71  64   130 106  96   146 122 112   147 119 108   143 111 100   144 106  95   148 104  93   148 100  88   144  92  79   147  93  81   152 100  87   147  95  81   138  89  74   141  92  77   145  96  81   145  96  81   146  94  80   146  93  77   147  89  75   146  88  74   144  86  72   143  86  69   151  94  77   152  95  76   150  93  74   147  90  71   148  89  71   154  93  74   153  90  73   149  86  68   155  92  74   161  98  80   159  96  78   148  85  67   146  83  66   151  88  71   149  86  71   141  77  65   140  76  64   143  80  65   140  77  62   132  71  53   131  70  52   137  76  58   140  79  60   139  78  59   132  71  53   131  70  52   128  69  53   125  68  51   123  67  50   121  68  50   119  68  51   117  68  51   108  61  45   102  59  43    97  55  41    93  54  39    90  53  37    86  50  34    83  47  33    79  46  31    80  47  32    80  47  32    82  46  32    84  48  34    87  51  37    90  52  39    92  54  43    94  54  44    95  55  45    94  51  42    96  52  43    99  55  46   100  53  45    95  48  40    94  47  39    93  50  41    90  54  42    87  53  41    89  53  41    91  55  43    89  52  43    87  50  41    92  54  45    99  61  52    98  60  51    92  52  44    96  56  48    99  59  51    88  48  40    81  41  33    80  40  32    79  36  27    77  29  19    81  31  20    84  34  23    87  37  26    89  40  26    92  43  29    97  48  34   100  51  36   102  50  36    97  45  31    96  43  27   102  49  33   108  52  35   108  52  35   110  55  35   114  58  41   117  59  45   116  60  45   116  63  47   120  67  51   123  72  55   123  74  57   123  74  57   123  72  55   117  66  49   120  69  52   125  74  57   129  78  61   130  81  64   129  82  64   128  83  64   127  82  63   124  77  59   126  77  60   127  78  61   126  79  61   126  79  61   125  78  60   123  76  56   122  75  55   124  77  57   127  80  60   129  82  62   130  84  61   128  81  61   126  80  57   125  78  58   125  78  58   124  77  59   123  76  60   121  74  58   123  76  60   127  78  63   129  80  65   128  79  64   127  78  63   130  81  66   129  80  65   128  79  64   127  78  63   128  79  64   130  81  66   131  82  67   133  84  69   130  81  67   130  82  68   132  82  71   128  80  66   125  75  64   125  77  63   131  83  71   137  89  75   136  88  76   131  83  69   127  79  67   126  78  64   128  80  68   129  81  67   126  78  66   122  74  60   124  75  58   123  75  55   122  74  54   120  72  52   117  70  50   115  68  48   114  67  47   114  67  47   119  72  52   114  69  48   111  64  44   110  65  44   113  68  47   114  69  48   111  66  45   107  62  41   110  63  43   112  65  47   111  64  46   107  62  43   108  62  46   109  66  49   106  63  47    98  56  40    93  54  37    93  56  40    93  57  41    97  61  47    99  65  53   100  66  54    98  64  52    96  62  52    95  57  48    92  53  46    90  51  44    92  55  47    97  60  52    97  63  54    93  60  53    89  56  49
246 247 242   246 247 242   246 247 242   246 247 242   246 247 242   246 247 242   246 247 242   245 247 242   248 250 245   244 245 239   255 249 244   255 242 235   147 122 117    79  50  44    72  43  35    76  49  40    67  43  33    61  36  29    61  34  27    64  35  29    66  36  28    64  31  22    62  29  20    64  31  22    60  30  20    58  30  19    58  28  18    57  27  17    59  26  17    58  26  15    57  24  15    57  25  14    57  24  15    53  23  13    48  19  11    47  20  13    48  23  16    51  26  21    49  26  20    45  22  16    50  25  20    85  60  55   123  96  89   137 108 100   138 108  97   140 106  94   141 103  90   139  97  83   145  99  84   140  93  77   140  89  72   143  92  75   144  91  75   140  87  71   137  84  68   138  85  69   140  89  72   142  89  73   143  90  74   146  90  73   147  90  73   147  88  72   146  87  71   148  87  69   154  93  75   154  93  74   154  93  74   153  92  73   151  90  71   151  90  69   152  91  72   153  92  73   153  88  70   156  90  74   160  94  78   154  88  72   148  81  65   151  84  68   150  82  69   136  68  55   138  72  58   143  77  63   140  74  60   130  67  52   130  68  53   140  78  63   140  81  65   133  74  58   131  72  54   129  70  52   128  69  51   126  69  50   125  69  52   122  69  51   120  69  52   116  67  50   111  64  48   107  64  47   104  62  46    98  59  42    92  55  37    88  53  34    88  52  36    89  53  39    97  57  45    96  56  46    97  55  43    96  54  42    95  53  41    96  54  42    97  55  43    97  55  43    94  52  40    97  53  40   100  56  43   102  58  45   101  57  44    99  55  42    95  51  38    92  50  36    84  48  34    85  52  37    91  55  41    91  55  41    89  51  40    87  49  38    88  50  39    89  51  40    95  57  48    91  54  45    89  52  43    90  53  44    90  56  47    87  53  44    80  47  38    77  40  31    71  28  19    70  26  15    73  29  18    82  38  27    87  43  32    87  43  32    88  44  31    91  47  34    91  45  32    92  44  30    94  45  30    98  47  30   101  48  30   106  51  31   109  54  33   112  55  35   113  54  36   112  53  37   112  55  38   116  59  42   122  65  48   125  69  52   126  70  53   126  70  53   126  70  53   123  70  52   123  70  52   125  74  55   129  78  59   129  81  61   128  80  60   126  78  58   125  74  57   124  73  56   127  76  59   132  83  66   133  84  67   130  81  64   128  81  63   130  83  65   130  83  65   132  85  67   133  86  68   133  85  65   130  81  64   128  80  60   130  79  62   131  80  63   126  75  58   128  77  60   131  80  63   133  82  65   134  83  66   134  83  66   134  83  66   131  82  65   129  80  63   132  83  66   128  79  62   127  78  61   129  80  63   124  75  58   125  76  59   138  89  74   136  87  72   135  86  71   134  82  69   132  83  68   135  83  70   136  87  72   138  89  75   140  91  76   136  87  73   130  81  66   125  77  63   129  82  66   132  84  70   128  81  65   122  76  61   122  75  59   120  71  54   122  73  56   123  74  57   123  74  57   121  72  55   116  67  50   111  62  45   108  59  42   122  73  56   119  72  54   114  65  48   109  62  44   113  66  48   119  72  54   118  71  53   113  64  47   113  64  47   114  65  50   113  64  50   111  62  48   107  59  47   105  59  46   105  61  48   107  65  49   104  65  48    98  61  42    90  55  35    86  51  32    86  53  36    91  58  41    94  62  47    97  63  51    94  58  46    91  54  45    89  52  43    88  54  44    91  57  47    92  60  49    92  59  50    91  58  49
249 250 245   249 250 245   249 250 245   249 250 245   249 250 245   249 250 245   249 250 245   248 250 245   248 253 249   242 242 240   255 249 247   250 232 228   135 110 106    78  49  43    77  48  40    79  52  43    69  44  37    63  38  31    61  33  29    63  34  30    63  32  27    60  30  22    58  28  20    60  30  20    59  32  23    57  30  21    56  27  19    54  25  17    53  23  13    52  22  12    52  22  12    51  21  11    52  22  12    51  23  12    51  24  15    49  24  17    45  22  16    44  20  16    46  25  20    51  30  25    74  49  44   103  76  69   129 100  92   135 105  95   134 100  90   133  97  83   135  93  79   132  89  72   143  96  78   139  90  73   138  87  68   140  87  69   138  85  69   136  80  65   134  78  63   136  80  65   134  78  63   136  80  65   139  82  65   141  84  67   143  84  68   145  83  68   144  83  65   144  81  64   151  88  70   154  91  73   157  94  76   157  95  74   155  93  72   153  92  71   154  93  72   155  94  75   155  90  72   161  94  78   162  95  79   156  89  73   152  83  68   153  84  69   148  79  64   135  65  53   136  68  55   142  74  61   140  74  60   133  67  53   128  64  52   133  71  56   137  75  62   135  76  60   132  73  55   131  72  54   127  68  50   124  67  48   126  70  53   123  70  52   118  67  50   116  67  50   115  68  52   114  68  52   110  67  51   104  62  46    97  58  41    94  55  38    92  55  39    94  55  40   102  58  47   101  57  46   102  55  45   100  56  45   103  56  46   102  58  47   106  59  49   105  61  48   108  62  49   107  64  48   111  65  50   109  66  50   109  63  48   104  61  45   102  56  41    97  55  39    93  56  40    93  57  41    93  57  43    93  55  42    90  52  39    87  49  36    85  47  36    84  46  35    90  52  43    87  50  41    86  49  40    86  52  42    87  54  45    84  54  44    79  49  39    76  44  33    74  36  27    73  30  21    71  31  21    74  34  24    76  36  26    75  35  25    79  39  27    84  44  32    87  43  30    87  44  28    92  45  29    95  46  29    99  48  29   103  51  30   108  51  31   109  52  32   114  53  35   114  53  35   114  55  37   117  58  40   121  62  44   124  65  47   125  68  49   125  68  49   127  72  52   126  71  51   125  73  52   127  75  54   130  78  57   130  79  58   128  77  56   127  76  55   127  74  58   128  75  59   128  77  60   128  77  60   128  79  62   131  82  65   132  85  67   133  86  68   133  86  68   134  87  69   136  87  70   135  86  69   135  84  67   134  83  66   134  81  65   134  81  65   130  77  61   132  79  63   135  82  66   137  84  68   138  85  69   137  84  68   136  85  68   135  84  67   133  84  67   131  82  65   125  76  59   126  77  60   133  84  67   130  81  64   126  79  61   133  84  67   136  84  70   136  84  70   135  83  69   134  82  68   133  81  67   134  82  68   134  85  70   136  87  72   134  85  70   129  80  65   127  80  64   131  84  68   133  86  70   128  81  65   122  76  60   119  73  57   121  72  55   122  73  56   123  74  57   122  73  56   120  71  54   117  68  51   113  64  47   110  61  44   118  69  52   117  68  51   114  65  48   110  61  44   112  63  46   116  67  50   115  66  49   110  61  44   114  62  48   114  62  48   113  61  50   109  59  48   107  57  48   105  58  48   106  60  47   104  62  46   105  63  47    99  61  42    93  57  35    89  54  32    87  54  35    90  57  38    92  60  45    95  62  47    95  59  47    93  57  45    89  55  45    90  56  46    91  59  48    93  61  50    93  60  51    92  59  50
252 253 248   252 253 248   252 253 248   252 253 248   252 253 248   252 253 248   252 253 248   251 253 248   250 255 251   241 242 237   255 252 247   238 219 213   121  93  89    79  50  44    85  56  48    82  55  46    70  45  38    64  39  32    61  33  29    60  31  27    59  30  24    56  27  19    55  26  18    55  28  19    58  31  24    55  30  23    55  28  21    52  25  16    51  23  12    50  22  11    50  22  11    50  22  11    50  22  11    47  20   9    48  21  12    49  24  17    47  24  16    47  24  18    59  36  30    73  50  44   100  73  66   119  90  82   132 102  94   131  99  88   126  90  78   124  87  71   127  84  68   127  81  65   138  89  72   137  86  67   136  83  65   136  80  63   132  76  59   129  72  55   129  72  55   132  75  58   133  76  59   134  77  60   137  78  62   140  78  63   142  79  64   141  78  63   140  77  60   141  75  59   150  84  68   156  91  73   162  97  79   161  98  80   158  95  77   154  93  74   155  94  75   157  96  77   152  87  69   158  93  75   157  92  74   153  88  70   155  88  71   155  88  71   148  79  63   140  71  56   136  67  52   139  72  56   139  73  57   134  68  52   126  63  48   126  65  47   132  70  55   137  76  58   136  75  57   135  76  58   125  66  48   121  64  45   129  72  53   126  71  51   119  63  46   119  66  48   123  72  55   121  72  55   118  71  55   112  66  50   106  63  46   103  60  43   102  59  43   103  59  46   110  64  51   109  63  50   109  61  49   108  62  49   110  62  50   111  65  52   115  67  55   115  69  54   117  69  55   117  71  56   118  70  56   116  70  54   115  68  52   110  64  48   107  60  44   101  58  42   100  61  46    97  60  44    95  58  42    94  55  40    92  52  40    90  50  38    87  47  35    84  44  32    86  46  36    84  46  35    82  45  36    82  48  38    84  51  42    83  53  43    80  50  40    78  46  35    85  47  38    82  42  32    78  38  28    74  34  24    70  30  20    68  28  18    74  34  24    81  41  29    83  39  26    84  41  25    89  42  26    93  44  27    97  46  27   100  48  27   105  48  28   106  49  29   112  51  33   113  52  34   116  55  37   118  57  39   118  59  41   120  61  43   121  64  45   123  66  47   127  72  52   127  72  52   127  72  52   127  75  54   129  77  56   129  77  56   128  76  55   126  74  53   129  76  60   131  78  62   128  75  59   122  71  54   123  74  57   132  83  66   137  90  72   136  89  71   134  87  69   134  87  69   135  86  69   135  86  69   137  86  69   137  84  68   135  82  66   133  80  64   133  80  64   134  81  65   135  82  66   137  84  68   138  85  69   138  85  69   135  84  67   134  83  66   137  86  69   133  82  65   124  75  58   127  78  61   136  87  70   135  86  69   129  80  63   129  80  63   135  83  69   136  84  70   137  85  71   135  83  69   132  80  66   130  78  64   129  80  65   131  82  67   132  83  68   129  80  65   128  81  65   132  85  69   133  86  70   128  81  65   121  75  59   118  72  56   123  74  57   123  74  57   123  74  57   121  72  55   120  71  54   117  68  51   115  66  49   113  64  47   117  68  51   118  69  52   117  68  51   114  65  48   114  65  48   115  66  49   114  65  48   112  63  46   113  61  47   112  60  46   110  58  47   107  57  46   107  57  48   105  58  48   104  58  45   101  59  43   103  61  45   100  62  43    97  61  39    93  58  36    89  56  37    89  56  37    91  58  43    93  60  45    96  60  48    95  59  47    91  57  47    91  57  47    92  60  49    93  61  50    93  60  51    92  59  50
254 255 250   254 255 250   254 255 250   254 255 250   254 255 250   254 255 250   254 255 250   254 255 250   254 255 251   243 242 238   255 252 248   221 202 196   107  79  75    86  55  50    94  64  56    84  57  48    70  45  38    63  40  32    58  33  28    56  28  24    54  26  22    53  26  19    50  25  18    50  25  18    51  28  20    52  29  21    52  27  20    51  26  19    48  24  14    46  22  10    48  21  10    49  22  11    49  22  11    41  17   5    42  18   6    52  28  16    59  35  25    65  41  31    81  56  49   101  74  67   111  82  74   121  91  81   128  95  86   123  89  79   120  82  69   122  80  66   125  79  63   125  78  60   133  82  63   134  81  63   134  78  61   132  75  56   128  71  54   126  69  50   129  70  54   132  73  57   143  81  66   142  80  65   142  79  64   141  78  63   142  76  62   141  75  61   141  74  58   140  74  58   153  86  70   159  93  77   164  99  81   164  99  81   156  93  75   151  90  71   153  92  73   156  95  76   151  88  70   157  94  76   153  90  72   150  85  67   155  90  72   155  88  71   147  80  63   144  75  59   139  70  55   137  70  54   135  69  53   133  67  51   128  65  48   126  63  46   129  68  50   134  73  55   138  77  59   139  78  60   127  66  48   120  61  43   132  73  55   129  72  53   119  62  45   121  65  48   124  71  55   124  71  55   122  71  54   117  68  53   114  65  50   111  64  48   112  65  49   113  65  51   118  69  55   117  68  54   116  66  55   116  67  53   117  67  56   119  70  56   121  72  58   122  73  58   119  70  56   120  71  56   120  71  56   120  71  54   117  68  53   113  64  47   109  60  45   104  58  42   102  60  44    96  57  42    95  53  39    95  53  39    97  55  41    98  56  44    95  53  41    92  50  38    87  44  35    84  44  34    82  44  35    82  45  36    82  48  39    82  49  40    80  47  38    79  45  35    95  57  48    94  54  44    90  50  40    81  41  31    71  31  21    68  28  18    72  32  22    79  39  27    79  35  24    81  38  22    86  38  24    90  41  24    94  43  24    97  45  24   100  45  24   102  45  25   107  48  30   112  51  33   115  54  36   116  55  37   114  55  37   115  56  38   117  60  41   119  62  43   125  68  49   125  70  50   126  71  51   128  73  53   129  74  54   128  76  55   127  75  54   127  75  54   130  77  61   130  77  61   126  73  57   123  70  54   125  74  57   131  82  65   138  89  72   139  92  74   134  87  69   133  86  68   134  85  68   137  86  69   139  86  70   139  86  70   135  82  66   132  79  63   133  80  64   133  80  64   134  81  65   136  83  67   138  85  69   137  84  68   134  83  66   132  81  64   136  85  68   133  82  65   128  79  62   131  82  65   136  87  70   136  87  70   131  82  65   128  79  62   134  82  68   138  86  72   140  88  74   138  86  72   132  80  66   128  76  62   127  78  63   129  80  65   133  84  69   131  82  67   129  82  66   130  83  67   130  83  67   127  80  64   121  75  59   118  72  56   124  75  58   123  74  57   122  73  56   120  71  54   119  70  53   118  69  52   117  68  51   117  68  51   118  69  52   120  71  54   122  73  56   121  72  55   118  69  52   117  68  51   116  67  50   116  67  50   113  61  47   110  58  44   108  56  45   106  56  45   106  58  48   106  58  48   103  57  44    99  56  40   102  60  44   101  63  44   101  63  42    97  61  39    93  58  39    88  55  36    89  56  41    90  57  42    95  59  47    94  58  46    92  58  48    92  58  48    91  59  48    91  59  48    91  58  49    90  57  48
254 255 250   254 255 250   254 255 250   254 255 250   254 255 250   254 255 250   254 255 250   254 255 250   253 255 250   247 246 241   255 252 246   201 181 174    99  70  64    95  65  57    97  67  59    83  54  46    67  42  35    62  39  33    56  32  28    50  26  22    48  24  20    48  25  19    45  25  18    43  24  17    45  25  18    47  27  20    47  27  20    45  25  16    41  21  10    38  19   5    40  18   5    41  19   5    47  25  11    47  24  10    55  32  18    70  47  33    80  53  42    84  57  46    99  70  62   116  86  76   113  81  70   117  83  71   120  84  72   118  80  67   118  76  62   120  77  61   123  76  60   125  74  57   130  74  57   133  76  57   133  76  57   131  73  53   129  70  52   129  71  51   133  72  54   134  73  55   145  82  65   145  79  63   143  76  60   141  74  58   140  73  57   141  74  58   144  75  60   144  77  61   158  89  74   162  95  79   165  99  83   162  96  80   154  91  74   149  88  70   151  90  72   152  93  75   156  95  76   160  99  80   153  92  73   148  85  67   151  88  70   151  86  68   144  79  61   144  77  60   144  77  60   138  71  54   132  67  49   132  67  49   131  68  50   132  69  51   130  69  50   131  70  51   139  76  58   141  78  60   128  65  47   123  62  43   135  74  56   130  71  53   120  61  43   122  65  46   124  67  50   125  68  51   124  68  51   120  67  51   118  65  49   118  65  49   120  67  51   122  69  55   125  73  59   124  72  58   123  71  58   123  71  57   123  71  58   123  71  57   124  72  58   124  73  56   120  68  54   122  71  54   124  73  56   124  73  54   123  72  55   119  68  49   114  63  46   109  60  43   105  59  43    98  56  40    95  52  36    95  52  36    99  56  40   101  57  44   100  56  43    97  53  40    91  47  36    88  45  36    84  44  36    82  44  35    81  44  35    79  45  35    77  43  34    76  42  32    94  56  47    97  59  48    96  58  49    87  49  40    75  37  28    69  31  22    71  31  21    74  34  22    77  33  22    78  35  19    83  35  21    87  38  21    91  40  21    94  42  21    98  43  22   100  43  23   104  45  27   109  48  30   112  51  33   112  51  33   110  51  33   111  52  34   114  55  37   115  58  39   119  62  43   120  63  44   123  66  47   126  69  50   127  70  51   128  73  53   129  74  54   129  74  54   131  75  60   127  71  56   124  71  55   127  74  58   128  77  60   128  79  62   134  85  68   139  90  73   137  88  71   136  87  70   139  88  71   140  89  72   143  90  74   142  89  73   141  85  70   138  82  67   139  83  68   138  82  67   138  82  67   141  85  70   141  88  72   141  88  72   138  85  69   135  82  66   132  81  64   133  82  65   136  85  68   136  85  68   133  84  67   133  84  67   132  83  66   130  81  64   135  83  69   139  87  73   141  89  75   139  87  73   133  81  67   129  77  63   127  78  63   128  79  64   134  85  70   133  84  69   129  82  66   127  80  64   126  79  63   125  78  62   122  76  60   119  73  57   123  74  57   122  73  56   121  72  55   120  71  54   119  70  53   118  69  52   118  69  52   118  69  52   116  67  50   118  69  52   122  73  56   122  73  56   119  70  53   116  67  50   116  67  50   118  69  52   113  61  47   111  59  45   107  57  46   107  57  46   107  59  49   107  59  49   104  58  45   100  57  41   101  59  43   101  63  44   102  64  43   100  64  42    95  60  41    91  56  37    90  54  40    91  55  41    93  57  45    93  57  45    91  57  47    91  57  47    90  56  46    89  55  45    88  54  45    88  54  45
253 254 249   253 254 249   253 254 249   253 254 249   253 254 249   253 254 249   253 254 249   253 254 249   253 254 248   253 250 243   255 252 246   176 156 149    92  63  57   106  73  66    95  65  57    78  49  41    62  37  32    57  37  30    52  31  26    46  25  20    45  24  19    45  26  20    43  26  19    38  24  15    40  23  16    41  24  17    40  23  16    37  20  12    33  16   6    34  16   2    37  19   5    41  22   7    56  35  18    65  44  27    82  59  43    97  71  56    99  70  56    98  66  53   104  72  61   117  83  73   112  76  64   112  76  62   112  72  60   113  71  57   116  73  57   121  74  58   123  72  55   121  68  50   128  71  52   132  74  54   133  75  55   133  72  53   132  71  52   134  73  54   135  72  54   134  71  53   140  73  56   139  70  55   138  69  54   138  69  54   139  70  55   143  74  59   147  78  63   149  80  65   158  89  74   161  94  78   163  97  81   160  97  80   155  93  78   150  91  75   152  93  77   154  97  78   150  93  74   153  96  76   153  94  76   150  92  72   153  92  74   153  92  73   152  89  72   152  89  71   148  83  65   142  77  59   135  70  52   131  68  50   134  71  53   137  76  57   135  74  55   130  69  50   136  75  56   137  76  57   130  67  49   127  66  47   135  74  56   132  71  53   122  63  45   123  64  46   123  64  48   124  65  49   125  66  50   123  66  49   122  65  48   122  65  48   124  66  52   125  69  54   127  71  56   127  71  56   128  72  59   128  72  57   128  72  59   127  71  56   126  70  55   125  69  52   124  68  53   127  71  54   131  75  58   134  79  59   132  76  59   128  73  53   122  66  49   116  65  46   110  63  45   104  58  42   100  53  37    98  50  36   101  53  39   103  55  41   101  53  41    98  52  39    97  50  40    93  49  38    89  46  37    84  44  36    80  42  33    78  41  32    77  40  32    77  40  32    85  48  39    94  56  45    97  59  50    91  53  44    81  43  34    73  35  26    71  31  21    72  29  20    76  32  21    77  33  20    80  32  18    82  35  17    86  37  20    91  40  21    94  42  21    98  43  22   102  43  25   105  44  26   107  46  28   109  48  30   108  49  31   109  50  32   111  52  34   113  54  36   113  56  37   116  59  40   119  62  43   122  65  46   123  66  47   125  68  49   127  70  51   128  72  55   129  73  56   125  69  54   123  70  54   129  76  60   130  79  62   129  78  61   130  81  64   135  86  69   140  91  74   141  92  75   144  93  76   146  95  78   148  95  79   146  93  77   145  89  74   143  87  72   143  87  72   141  85  70   142  86  71   144  88  73   146  93  77   146  93  77   143  90  74   140  87  71   130  79  62   133  82  65   140  89  72   138  87  70   129  80  63   130  81  64   133  84  67   132  83  66   135  83  69   137  85  71   139  87  73   138  86  72   134  82  68   130  78  64   128  79  64   129  80  65   134  85  70   134  85  70   130  83  67   125  78  62   123  76  60   124  77  61   122  76  60   120  74  58   121  72  55   121  72  55   120  71  54   119  70  53   119  70  53   118  69  52   118  69  52   118  69  52   112  63  46   113  64  47   116  67  50   118  69  52   116  67  50   113  64  47   114  65  48   117  68  51   114  62  48   113  61  47   111  61  50   111  61  50   110  62  52   109  61  51   106  60  47   104  58  43   103  60  44   103  62  44   104  63  43   101  63  42    97  60  42    93  58  39    91  55  41    90  54  40    92  56  44    93  57  45    92  58  48    91  57  47    89  55  45    87  53  43    86  52  43    86  52  43
254 254 252   254 254 252   254 254 252   254 254 252   254 254 252   254 254 252   254 254 252   254 255 250   252 253 247   255 255 246   255 244 237   153 130 122    86  56  48   112  79  70    90  60  52    72  45  36    56  33  27    53  34  27    49  30  24    43  25  21    43  25  21    43  28  21    41  28  20    34  24  15    32  21  15    33  23  14    33  20  12    31  18   9    32  18   7    38  25   9    51  35  20    61  44  28    76  57  40    88  65  47   102  76  59   110  81  65   109  76  61   106  70  56   108  70  57   114  74  62   111  72  57   107  68  51   107  64  48   111  65  49   118  71  55   124  73  56   124  71  53   124  67  48   128  69  51   133  72  53   135  72  54   133  71  50   134  72  51   136  74  53   136  71  51   131  66  46   135  66  50   137  65  50   139  67  52   141  69  54   144  72  58   147  75  61   148  79  64   149  80  65   152  84  71   155  89  75   159  96  81   161  99  84   159 101  87   158 102  87   159 103  88   158 105  89   148  95  77   151  99  78   158 102  85   160 105  85   156  99  82   154  97  78   155  96  80   156  95  77   147  84  67   147  84  67   142  79  62   134  73  55   134  73  55   138  79  61   138  79  61   131  72  54   132  74  54   132  74  54   131  70  51   129  71  51   132  74  54   130  72  52   124  66  46   123  65  45   127  66  48   128  67  49   128  67  49   125  66  48   123  64  46   123  64  46   124  65  49   126  67  51   123  64  48   124  67  50   127  69  55   129  72  55   129  71  57   128  71  54   125  68  51   124  67  48   126  69  52   130  73  54   135  78  59   139  82  62   138  81  62   132  75  55   124  67  48   118  63  43   115  64  45   107  60  42   102  53  36   100  51  36   100  51  36   102  53  38   101  52  38    99  51  39   101  53  43    98  51  41    92  48  39    87  44  35    81  41  33    78  40  31    77  40  32    77  40  32    80  43  34    90  53  44    97  60  51    94  57  48    88  50  41    82  44  35    77  37  29    74  31  22    77  33  22    76  32  19    79  31  17    79  32  14    83  34  17    89  38  19    93  42  21    96  44  23    99  42  25   100  41  25   101  42  26   103  44  28   106  47  31   109  50  34   110  51  35   110  51  35   111  52  36   114  55  39   118  59  43   120  61  45   120  61  45   121  62  46   123  64  48   124  67  50   126  70  53   126  70  53   125  72  54   127  74  56   128  77  58   129  78  59   129  81  61   130  82  62   137  89  69   140  92  72   145  94  75   146  95  76   147  94  76   145  92  74   145  89  72   144  88  71   141  85  70   139  83  68   139  83  68   143  87  72   147  91  76   148  92  77   143  90  74   139  86  70   131  78  62   134  81  65   139  88  71   136  85  68   129  78  61   132  81  64   135  86  69   131  82  65   134  82  68   134  82  68   135  83  69   134  82  68   132  80  66   131  79  65   128  79  64   128  79  64   132  83  68   134  85  70   131  84  68   126  79  63   123  76  60   123  76  60   121  75  59   118  72  56   119  70  55   119  70  55   119  70  55   119  70  55   119  70  55   118  69  54   118  69  54   117  68  53   111  62  47   110  61  46   112  63  48   116  67  52   116  67  52   114  65  50   115  66  51   119  70  55   115  63  49   116  64  50   115  65  54   115  65  54   112  64  54   111  63  53   109  63  50   108  62  47   103  60  44   102  61  43   102  61  41   100  62  41    99  60  43    96  59  41    93  55  42    91  53  40    93  57  45    95  59  47    96  59  50    95  58  49    91  54  45    89  52  43    88  51  43    89  52  44
254 254 252   254 254 252   254 254 252   254 254 252   254 254 252   254 254 252   254 254 252   254 255 250   252 251 246   255 254 246   255 239 232   138 113 106    81  51  43   114  81  72    84  55  47    67  43  33    50  30  23    49  32  24    47  29  25    41  26  21    41  26  21    43  30  24    38  29  20    33  24  15    29  22  14    30  21  14    29  20  11    30  20  10    35  25  13    50  38  22    71  55  39    86  69  51    99  78  59   105  80  60   108  79  61   110  77  60   111  74  58   115  73  57   115  71  58   114  71  55   110  67  51   104  61  44   103  57  41   109  62  44   120  69  52   127  74  56   131  74  55   129  70  52   130  69  50   134  71  53   137  72  52   135  70  50   136  71  51   138  73  51   134  69  47   127  61  39   136  68  49   137  68  52   142  70  55   144  75  59   148  76  62   147  78  63   147  78  63   146  79  63   145  79  65   149  86  71   156  94  81   161 103  89   164 108  93   164 111  97   165 112  98   164 112  98   157 108  93   158 109  92   168 117 100   169 116 100   156 103  87   150  94  79   149  91  77   144  87  70   144  85  69   149  90  74   146  87  71   135  76  60   132  73  57   138  81  62   139  82  65   134  77  58   129  72  53   129  72  52   131  73  53   131  74  54   132  74  54   130  72  52   126  68  48   122  64  44   128  69  51   131  70  52   130  69  51   128  67  49   125  64  46   124  63  45   125  64  46   127  66  48   121  59  44   121  62  46   128  66  51   129  70  54   132  70  55   129  70  52   128  67  49   124  65  47   127  66  48   130  72  52   138  77  58   140  82  62   140  79  60   131  73  53   125  64  45   116  59  39   114  62  41   109  58  39   104  53  34   101  50  33   103  50  34   103  51  37   104  52  38   103  54  40   103  53  42   100  52  42    95  48  40    88  44  35    83  40  33    80  40  32    79  40  33    79  42  34    79  42  33    91  54  45   100  63  54    99  62  53    95  57  48    90  52  43    86  43  36    80  37  28    77  33  24    76  32  19    78  30  16    78  31  15    81  32  15    86  38  18    93  42  21    97  45  24    98  41  24    98  39  23    98  39  23   101  42  26   106  47  31   109  50  34   109  50  34   108  49  33   110  51  35   113  54  38   117  58  42   118  59  43   117  58  42   118  59  43   119  60  44   121  62  46   125  68  51   128  72  55   128  72  55   124  71  53   125  72  54   130  79  60   131  80  61   127  79  59   131  83  63   135  87  67   141  90  71   143  92  73   142  89  71   139  86  68   140  84  67   140  84  67   136  80  65   134  78  63   134  78  63   138  82  67   143  87  72   145  89  74   139  86  70   135  82  66   133  80  64   133  80  64   136  85  68   134  83  66   128  77  60   133  82  65   136  87  70   128  79  62   132  80  66   131  79  65   131  79  65   131  79  65   131  79  65   131  79  65   128  79  64   128  79  64   130  81  66   134  85  70   132  85  69   127  80  64   124  77  61   124  77  61   120  74  58   116  70  54   117  68  53   118  69  54   119  70  55   119  70  55   119  70  55   118  69  54   117  68  53   117  68  53   114  65  50   111  62  47   112  63  48   117  68  53   119  70  55   117  68  53   118  69  54   123  74  59   116  64  50   119  67  53   119  69  58   118  68  57   114  66  56   112  64  54   110  64  51   111  65  50   104  61  45   103  60  43   101  60  40   101  60  40   102  60  44    99  60  43    95  55  43    91  53  40    94  58  46    96  60  48    98  61  52    96  59  50    93  56  47    90  53  44    89  52  44    89  52  44
255 255 253   255 255 253   255 255 253   255 255 253   255 255 253   255 255 253   254 254 252   254 253 249   255 255 250   255 247 240   239 222 215   119  94  87    96  66  58   106  76  66    73  46  37    61  39  28    50  33  25    47  34  25    36  23  17    29  18  12    36  25  19    36  27  20    31  22  13    33  26  16    23  19  10    20  16   7    25  18   8    41  33  22    65  55  43    88  76  60   102  86  70   107  88  71   105  82  64   112  85  66   115  82  65   113  76  58   115  73  57   118  72  56   113  65  51   102  55  39   105  58  40   103  56  38   105  56  39   112  61  42   123  67  50   128  71  52   128  69  51   126  65  47   131  68  50   131  66  48   133  68  48   138  71  52   138  72  50   132  66  44   129  63  41   129  63  41   130  63  44   143  76  57   146  78  59   144  77  58   151  82  66   155  88  72   154  87  71   155  89  75   149  85  73   154  92  79   155  97  85   161 105  92   168 115 101   162 113  99   162 113  99   171 123 111   168 120 108   171 123 111   177 129 115   171 122 108   158 106  93   154 100  88   153 100  86   148  92  79   152  94  82   145  87  73   147  89  75   147  91  76   138  82  67   136  80  63   139  83  68   138  82  65   132  77  57   134  79  59   137  80  61   135  80  60   133  76  57   130  73  54   130  73  54   130  73  54   126  69  49   132  74  54   133  75  55   128  70  50   125  67  47   125  67  47   123  65  45   122  61  42   119  58  40   122  61  43   127  64  47   133  72  54   135  72  55   128  67  49   125  62  45   126  65  46   125  62  44   132  71  52   140  77  59   139  78  57   139  77  56   135  74  53   127  65  44   114  56  36   113  58  37   106  54  33   102  50  29   102  49  31   106  50  33   105  52  36   102  49  35    98  46  33    96  46  35    92  44  32    90  43  33    87  43  34    81  38  31    73  33  25    72  34  25    76  39  30    74  37  28    88  54  44    93  56  48    91  54  46    99  60  53    99  60  53    91  48  41    83  40  31    81  37  28    79  35  22    79  31  17    80  33  17    85  36  19    88  40  20    89  41  19    91  40  19    96  40  23    95  38  21    94  37  20    98  41  24   104  47  30   107  50  33   104  47  30   100  43  26   108  49  33   110  51  35   115  56  40   119  60  44   121  62  46   122  63  47   121  62  46   120  61  45   122  65  48   124  68  51   127  71  54   124  71  53   122  69  51   123  72  53   128  77  58   133  82  63   133  82  63   136  85  66   142  89  71   143  90  72   142  86  69   140  84  67   139  82  65   139  82  65   133  75  61   134  76  62   136  78  64   141  83  69   144  88  73   145  89  74   142  86  71   139  83  68   133  80  64   136  83  67   137  84  68   136  83  67   137  86  69   138  87  70   134  83  66   127  76  59   127  75  61   127  75  61   127  75  61   127  75  61   127  75  61   129  77  63   128  79  64   129  80  65   123  74  59   125  76  61   124  77  61   130  83  67   124  77  61   122  75  59   128  82  66   116  70  54   121  72  58   124  75  61   123  74  60   123  74  60   123  74  60   117  68  54   116  67  53   126  77  63   120  71  57   122  73  59   122  73  59   121  72  58   117  68  54   114  65  51   114  65  51   114  65  51   120  71  56   114  65  50   111  61  50   114  64  53   115  67  57   113  65  55   112  66  53   116  70  55   107  64  48    99  56  39    96  53  34   101  60  40   105  63  47   103  61  45    97  55  43    93  53  41    94  56  45    90  54  42    96  59  50    99  62  53    95  57  48    96  58  49    99  60  53    94  55  48
255 255 253   255 255 253   255 255 253   255 255 253   255 255 253   255 255 253   254 254 252   254 253 249   255 253 249   255 248 242   226 207 201   117  92  85    96  67  59    97  69  58    71  47  37    59  41  29    44  30  21    41  31  21    35  26  17    35  26  19    41  32  25    39  30  21    33  26  16    36  29  19    36  32  23    44  40  29    60  54  42    78  70  57    95  83  69   103  90  74   108  91  73   110  87  69   111  84  65   113  82  62   114  77  59   115  73  57   114  71  54   115  68  52   109  60  45   102  53  36    99  51  31    99  51  31   102  51  32   108  55  37   117  60  41   122  63  45   123  62  44   122  59  42   131  66  48   129  64  46   131  64  45   135  68  49   135  67  46   131  63  42   128  62  38   129  63  39   128  62  40   139  72  53   145  78  59   148  81  62   155  88  71   154  89  71   151  85  71   152  89  74   156  94  81   159  99  88   165 107  95   168 114 102   169 117 104   169 119 108   171 123 111   174 126 116   169 122 112   172 125 115   180 132 122   182 132 123   177 124 116   172 120 109   164 110 100   149  95  83   159 102  91   151  95  82   153  97  84   154  98  85   142  89  75   136  83  67   140  87  71   142  89  73   138  82  65   138  83  63   138  82  65   137  82  62   134  79  59   131  76  56   130  73  54   129  72  53   130  73  54   134  77  57   133  76  56   128  71  51   125  67  47   124  66  46   123  65  45   120  62  42   124  61  44   124  61  44   127  64  47   133  70  53   135  72  55   131  68  51   127  64  46   128  65  47   130  67  49   133  70  52   133  71  50   131  69  48   130  68  47   130  68  47   126  64  43   119  58  37   113  57  34   108  53  32   105  48  28   103  48  28   106  51  31   106  50  33   104  48  33    99  46  32    95  43  30    91  41  30    91  43  33    89  45  34    83  40  31    74  34  26    70  32  23    72  35  26    75  41  31    86  52  42    86  52  43    88  51  43   100  61  54   102  63  56    92  49  42    81  38  31    81  37  28    82  35  25    81  33  21    82  34  20    84  35  20    87  38  21    89  41  21    91  40  19    95  39  22    94  38  21    95  38  21    97  41  24   102  45  28   104  47  30   102  45  28   100  43  26   102  45  28   106  47  31   110  51  35   116  57  41   120  61  45   123  64  48   124  65  49   125  66  50   118  61  44   121  64  47   122  66  49   123  67  50   120  67  49   121  68  50   124  73  54   127  76  57   132  81  62   135  84  65   140  87  69   142  89  71   142  86  69   140  84  67   139  82  65   139  82  65   141  83  69   140  82  68   140  82  68   142  84  70   143  87  72   143  87  72   141  85  70   138  82  67   134  81  65   138  85  69   140  87  71   138  85  69   136  85  68   134  83  66   128  77  60   121  70  53   125  73  59   126  74  60   127  75  61   128  76  62   128  76  62   130  78  64   130  81  66   132  83  68   124  75  60   123  74  59   121  74  58   128  81  65   123  76  60   119  72  56   125  79  63   117  71  55   121  72  58   123  74  60   120  71  57   120  71  57   122  73  59   114  65  51   111  62  48   117  68  54   122  73  59   123  74  60   123  74  60   119  70  56   114  65  51   111  62  48   112  63  49   114  65  51   119  70  55   114  65  50   112  62  51   115  65  54   115  67  57   114  66  56   112  66  53   114  68  53   110  64  49   101  58  41    98  55  36   103  60  41   107  64  48   102  60  44    96  54  42    90  50  38    94  56  45    91  55  43    97  60  51   101  64  55    98  60  51    98  60  51   100  61  54    94  55  48
255 255 255   255 255 255   255 255 255   255 255 255   255 255 255   255 255 255   254 254 254   254 253 251   255 250 248   255 247 244   200 179 176   114  89  84   102  73  67    87  60  51    65  45  34    51  37  24    37  27  17    36  30  18    39  32  22    47  40  30    56  47  38    54  45  36    52  43  34    57  49  38    65  58  48    80  71  62    99  89  79   113 101  89   119 103  88   116  97  82   113  90  74   114  85  69   116  83  66   112  75  57   111  69  53   112  69  52   113  67  51   108  61  45   102  53  38   100  51  34    94  46  24    98  47  26   102  50  29   107  52  32   112  55  36   116  57  39   120  57  40   122  56  40   129  63  47   127  60  43   129  61  42   131  63  44   131  63  42   128  60  39   128  60  37   130  64  40   131  65  41   137  72  50   141  76  54   147  82  62   154  89  71   153  88  70   152  86  72   157  94  79   156  94  81   155  95  84   170 112 101   176 122 112   166 114 103   167 117 108   179 131 121   181 134 126   177 128 121   177 128 121   183 133 126   186 136 129   185 132 126   184 129 122   174 117 110   156  99  90   163 106  97   153  96  85   153  96  85   156 100  87   146  93  79   137  84  70   138  86  72   143  92  75   144  91  75   143  90  72   141  88  72   139  86  68   137  84  66   134  81  63   133  77  60   130  75  55   135  80  60   137  82  62   135  80  60   130  75  55   126  69  49   124  67  47   124  67  47   123  65  45   130  67  50   127  61  45   128  62  46   134  68  52   136  70  54   134  68  52   132  67  49   131  66  48   134  69  51   132  67  49   129  64  44   125  60  40   126  61  41   127  62  42   126  61  39   120  58  35   113  55  31   108  52  29   105  47  25   104  47  27   105  48  29   105  49  32   103  47  32    98  45  31    91  39  26    89  39  28    90  42  32    90  46  35    84  41  32    74  34  24    68  30  21    68  31  22    76  43  34    81  48  39    81  47  38    86  49  41   100  61  54   104  65  58    94  51  45    80  37  30    83  39  30    84  37  27    85  37  25    84  36  22    84  37  21    85  38  20    88  41  21    91  43  23    92  39  23    92  39  23    95  39  24    95  42  26    98  42  27    99  43  28    99  43  28    98  42  27    99  43  28   102  44  30   105  47  33   109  51  37   114  56  42   118  60  46   121  63  49   123  66  49   117  60  43   119  62  43   121  64  45   123  68  48   122  70  49   124  72  51   124  73  52   125  74  53   131  80  59   134  83  62   139  87  66   141  89  68   142  87  67   142  85  66   141  84  65   140  83  66   147  89  75   146  88  74   144  86  72   144  86  72   144  86  72   143  85  71   140  84  69   138  82  67   140  84  69   145  89  74   146  93  77   142  89  73   137  84  68   133  80  64   127  74  58   120  67  51   123  71  57   126  74  60   130  78  64   131  79  65   131  79  65   131  79  65   132  83  68   134  85  70   125  76  61   120  71  56   118  71  55   126  79  63   122  75  59   116  69  53   120  74  58   119  73  57   125  76  62   125  76  62   120  71  57   119  70  56   122  73  59   116  67  53   109  60  46   112  63  49   118  69  55   120  71  57   121  72  58   117  68  54   112  63  49   110  61  47   113  64  50   117  68  54   118  69  54   114  65  50   112  62  51   114  64  53   115  67  57   114  66  56   114  66  54   114  68  53   111  65  50   106  60  44   103  58  39   104  61  42   106  63  47   103  60  44    97  53  42    92  50  38    93  55  44    91  55  43    97  59  50   101  63  54   100  62  53   100  62  53   101  60  54    95  56  49
255 255 255   255 255 255   255 255 255   255 255 255   255 255 255   255 255 255   254 254 254   255 252 251   255 250 249   255 239 239   171 150 147   112  87  82   105  78  71    77  53  43    61  43  31    45  36  21    52  46  32    49  47  34    54  52  40    67  63  52    77  68  59    76  68  57    80  70  60    88  78  68   104  91  82   110  97  88   117 103  92   121 103  91   120  98  84   116  90  75   114  82  67   115  79  63   115  76  59   106  64  48   105  59  43   109  63  47   108  62  46    99  53  37    94  48  32    97  50  32    96  45  24   100  48  26   107  52  32   110  53  34   113  54  36   116  55  37   120  57  40   124  58  42   129  62  46   126  59  43   126  57  41   128  60  41   128  60  41   126  58  37   128  60  39   133  67  43   140  74  50   140  76  51   139  74  52   144  79  57   152  87  67   152  87  69   156  90  74   167 103  91   156  94  83   151  91  81   172 113 105   183 126 119   163 110 102   167 117 110   190 141 134   195 146 141   180 129 125   182 129 125   185 132 128   181 126 123   174 116 112   173 115 111   174 115 109   167 108 102   167 108 100   155  97  86   152  94  83   158 102  89   157 101  88   146  93  79   142  89  75   145  92  76   150  97  83   147  94  78   147  91  76   144  91  75   146  90  75   144  88  71   141  85  68   138  82  65   142  86  69   143  88  68   140  85  65   136  81  61   131  76  55   129  74  53   131  74  54   132  74  54   135  72  55   128  62  46   127  61  45   132  66  50   133  67  51   133  67  51   133  68  50   131  66  48   132  67  49   130  65  47   127  62  42   125  60  40   126  61  41   126  61  41   123  58  36   117  55  32   114  54  30   109  51  27   106  48  26   105  47  25   104  47  27   105  48  29   102  46  29    98  45  29    92  39  25    88  39  25    88  40  28    87  43  32    83  40  31    73  33  23    67  29  20    66  29  20    73  40  31    75  45  35    80  47  38    86  52  43    97  60  52   101  62  55    96  53  47    85  42  35    87  40  34    88  41  31    88  40  30    86  38  24    84  37  21    84  37  19    87  40  20    91  44  24    89  38  21    91  40  23    93  42  25    93  42  25    93  40  24    93  40  24    95  42  26    98  42  27   103  47  32   102  46  31   103  45  31   104  46  32   106  48  34   109  51  37   112  54  40   114  57  40   118  61  44   119  62  43   123  66  47   127  70  51   130  75  55   130  78  57   131  79  58   130  79  58   132  81  60   134  83  62   138  86  65   142  87  67   144  87  68   144  87  68   143  86  67   143  86  67   144  86  72   144  86  72   145  87  73   145  87  73   145  87  73   143  85  71   140  84  69   139  83  68   145  89  74   150  94  79   150  97  81   144  91  75   138  85  69   134  81  65   130  77  61   125  72  56   123  71  57   128  76  62   133  81  67   136  84  70   135  83  69   133  81  67   131  82  67   131  82  67   126  77  62   118  69  54   116  69  53   123  76  60   122  75  59   114  67  51   114  68  52   120  74  58   131  82  68   129  80  66   120  71  57   118  69  55   124  75  61   122  73  59   114  65  51   114  65  51   110  61  47   114  65  51   118  69  55   117  68  54   114  65  51   113  64  50   116  67  53   120  71  57   119  70  55   115  66  51   112  62  51   112  62  51   113  65  55   114  66  56   115  67  55   116  68  54   112  66  51   107  61  45   103  58  39   104  59  40   104  61  45   103  60  44    99  55  44    95  53  41    94  56  45    92  56  44    95  57  48    97  59  50    98  60  51    99  61  52   100  59  53    98  57  51
255 255 255   255 255 255   255 255 255   255 255 255   255 255 255   255 255 255   254 254 254   255 252 253   255 251 253   244 225 227   150 126 126   108  83  79    95  70  65    68  45  37    64  50  37    62  56  40    81  79  64    76  79  62    81  82  68    93  89  77   100  92  81   103  93  81   111  99  87   118 104  93   133 115 105   128 108  99   121  99  88   116  89  78   114  82  71   113  77  65   112  72  60   113  69  56   111  65  50   102  55  39    99  52  36   104  58  42   101  58  41    90  49  31    86  45  27    93  50  31    93  45  22   100  48  24   107  52  31   110  53  33   111  52  34   114  53  35   118  55  40   123  57  43   127  59  46   125  56  41   125  56  41   127  58  42   126  58  39   125  57  36   129  63  41   136  70  46   143  77  53   143  77  51   142  76  52   146  80  58   154  87  68   154  87  70   160  93  77   173 107  95   165 101  91   163 100  91   178 118 110   181 122 116   165 110 105   178 125 121   200 147 143   195 142 138   172 114 112   180 120 119   185 125 124   174 114 113   157  96  93   157  96  93   172 109 104   178 115 110   170 110 102   158  98  88   152  92  82   160 102  90   168 110  98   162 106  91   153  97  82   152  96  81   153  97  84   150  94  81   150  92  80   149  93  80   152  94  82   152  96  81   151  95  80   149  93  76   149  93  76   148  92  75   146  91  71   144  89  69   140  85  65   138  83  63   139  84  64   142  85  66   140  77  62   130  64  50   128  62  46   133  67  51   130  64  48   131  65  49   134  68  52   130  64  48   135  70  52   131  66  48   127  62  42   125  60  40   125  60  40   123  58  38   122  57  37   120  58  35   113  53  29   109  52  25   106  48  24   105  47  25   105  47  27   104  47  28   102  46  29    99  46  30    95  42  28    88  39  25    85  37  25    84  40  29    80  37  28    72  32  22    68  30  21    65  31  21    64  34  24    73  43  33    85  52  45    91  56  50    94  57  51    96  57  52    97  54  48    91  48  41    90  43  37    91  44  34    90  43  33    87  41  26    84  38  22    84  39  20    87  42  21    90  43  23    85  38  20    89  40  23    91  42  25    90  41  24    90  39  22    90  39  22    93  42  25    97  44  28   102  49  33   100  47  31   100  44  29    99  43  28    99  43  28   102  46  31   106  48  34   108  51  34   116  57  41   118  59  41   121  64  45   127  70  51   131  76  56   132  80  59   134  82  61   134  82  61   133  81  60   134  82  61   139  84  64   142  87  67   145  88  69   146  89  70   147  88  70   146  87  69   136  77  63   139  80  66   143  85  71   146  88  74   147  89  75   146  88  74   144  86  72   142  84  70   145  89  74   149  93  78   148  92  77   142  86  71   134  81  65   134  81  65   132  79  63   130  77  61   124  72  58   130  78  64   136  84  70   139  87  73   138  86  72   134  82  68   128  79  64   126  77  62   126  77  62   119  70  55   117  70  54   122  75  59   122  75  59   114  67  51   111  65  49   120  74  58   131  82  68   128  79  65   117  68  54   114  65  51   123  74  60   124  75  61   118  69  55   116  67  53   106  57  43   112  63  49   118  69  55   119  70  56   117  68  54   115  66  52   115  66  52   116  67  53   120  71  56   117  68  53   111  63  51   108  60  48   110  62  52   114  66  56   116  68  56   117  69  55   113  65  51   109  62  46   103  58  39   101  56  37   103  57  42   106  60  45   106  59  49   102  58  47    97  59  48    94  58  46    91  53  44    91  53  44    96  56  48    98  58  50    99  58  52   100  59  53
255 255 255   255 255 255   255 255 255   255 255 255   255 255 255   255 255 255   254 254 254   255 252 253   255 251 253   221 202 204   133 109 109   108  83  79    87  62  57    68  50  40    78  69  54    95  92  75   100 103  86    98 102  85   104 106  92   114 112  99   121 113 100   131 119 105   138 124 111   140 122 110   141 118 110   133 106  97   121  91  81   114  80  70   113  75  64   114  72  60   113  67  54   111  62  48   105  56  41   100  51  36    99  52  36   103  57  41    96  55  37    84  46  27    81  46  26    89  51  30    90  42  19    98  44  20   104  47  27   106  49  29   109  48  30   110  49  31   116  50  36   118  52  38   123  55  42   123  53  41   124  55  40   125  56  41   124  55  39   124  56  37   129  63  41   137  71  47   138  72  48   143  77  51   145  79  55   149  83  59   156  89  70   157  90  73   158  91  75   167  99  88   170 103  94   174 109 103   178 115 110   166 105 102   159 101  99   178 123 120   186 130 129   169 111 110   153  92  91   167 103 103   178 114 114   169 105 103   150  85  83   150  85  81   169 101  98   178 111 105   161  97  88   153  89  79   144  82  71   147  88  74   159 100  86   158 101  84   151  94  77   150  92  78   150  92  80   149  91  80   150  90  80   151  93  81   154  96  84   157  99  87   158 100  88   157 101  86   155  97  83   152  96  79   152  96  79   151  96  76   148  93  73   144  89  69   145  90  70   149  92  73   146  83  68   134  68  54   133  67  51   137  71  55   130  64  48   131  65  49   135  69  53   130  64  48   139  74  56   133  68  50   127  62  42   124  59  39   121  56  36   120  55  35   123  58  38   126  64  41   113  53  27   110  53  26   108  50  26   106  48  24   105  47  25   104  47  27   103  46  27   100  47  29    96  45  28    88  39  25    84  36  24    81  37  26    78  35  26    70  32  21    67  30  21    67  33  23    59  29  19    69  41  30    89  56  49    97  62  56    93  56  50    93  54  49    98  55  49    97  54  48    94  47  41    93  46  38    91  44  34    88  42  27    86  40  25    86  41  22    87  42  23    88  43  22    85  38  20    87  40  22    88  41  23    89  40  23    88  39  22    89  40  23    94  43  26    96  45  28    99  46  30    98  45  29    98  42  27    97  41  26    98  42  27   101  45  30   105  47  33   108  51  34   112  53  37   114  55  37   118  61  42   122  65  46   124  69  49   128  73  53   129  77  56   131  79  58   131  79  58   132  80  59   136  81  61   139  84  64   144  87  68   146  89  70   147  88  70   147  88  70   131  72  58   136  77  63   143  85  71   148  90  76   149  91  77   147  89  75   146  88  74   144  86  72   141  85  70   143  87  72   141  85  70   136  80  65   131  78  62   133  80  64   134  81  65   132  79  63   128  76  62   131  79  65   135  83  69   138  86  72   138  86  72   135  83  69   128  79  64   124  75  60   125  76  61   121  72  57   120  73  57   121  74  58   123  76  60   118  71  55   110  64  48   119  73  57   126  77  63   124  75  61   114  65  51   110  61  47   120  71  57   123  74  60   117  68  54   114  65  51   111  62  48   115  66  52   119  70  56   121  72  58   119  70  56   115  66  52   111  62  48   109  60  46   120  71  56   118  69  54   112  64  52   108  60  48   109  61  51   115  67  57   117  69  57   116  68  54   112  64  50   110  63  47   105  60  41   101  56  37   103  57  42   107  61  46   108  61  51   104  60  49   101  63  52    98  62  50    90  52  43    88  50  41    95  55  47    98  58  50    98  57  51   102  61  55
255 255 255   255 255 255   255 255 255   255 255 255   255 255 255   255 255 255   254 254 254   255 252 253   255 247 252   190 169 174   118  93  96   113  87  86    94  70  66    92  75  65    99  92  76   120 121 103   109 116  98   112 119 101   122 126 111   130 128 115   135 127 114   145 133 119   148 132 119   137 118 104   132 103  95   128  95  88   120  83  75   115  75  67   115  71  62   116  68  58   116  64  53   114  60  48   105  52  38   104  52  38   105  58  42   103  60  43    93  55  36    81  46  26    77  46  25    86  51  29    89  41  18    96  42  18   101  44  24   103  46  26   108  47  29   109  47  32   113  47  35   115  49  37   119  51  40   118  50  37   121  52  37   123  54  39   121  54  37   121  54  35   127  61  39   135  69  45   136  68  45   145  78  52   146  78  55   146  78  55   153  85  66   157  88  72   158  89  74   161  93  82   165  97  88   177 110 104   175 110 106   160  96  94   154  93  92   162 102 102   159  99 101   145  85  85   143  77  78   153  85  84   163  93  93   158  88  86   146  76  74   148  79  74   159  88  84   161  90  84   146  77  70   147  79  70   137  71  59   131  68  53   138  76  61   141  82  64   141  82  64   144  85  69   145  85  75   147  87  77   151  88  79   150  90  80   153  93  83   156  96  85   159  99  88   161 103  89   160 101  87   157 100  83   157 100  83   158 101  84   154  97  78   148  91  72   147  90  71   151  92  74   152  89  74   140  74  60   141  75  61   143  77  63   132  66  50   132  66  50   137  71  55   132  66  50   137  72  54   133  68  50   129  64  46   126  61  43   121  56  38   117  52  34   121  56  36   126  64  41   113  53  27   111  54  25   109  52  25   107  49  25   106  48  26   104  47  27   104  47  28   101  48  30    97  46  29    87  39  25    82  36  23    80  38  26    76  36  26    71  33  22    68  31  22    66  34  23    57  27  17    66  37  29    90  57  50   100  65  59    96  59  53    94  55  50   100  57  51    98  55  49    98  51  45    95  48  40    92  45  35    89  43  28    88  42  27    88  43  24    85  42  23    85  43  21    84  39  20    85  40  21    86  41  22    87  40  22    88  41  23    89  42  24    93  44  27    95  46  29    99  48  31    98  47  30    98  45  29    97  44  28    99  46  30   101  48  32   106  50  35   109  52  35   111  52  36   114  55  37   117  60  41   118  61  42   118  63  43   120  65  45   123  71  50   126  74  53   127  75  54   127  75  54   131  76  56   135  80  60   141  84  65   144  87  68   145  86  68   144  85  67   135  76  62   140  81  67   146  87  73   150  91  77   149  91  77   147  89  75   146  88  74   146  88  74   141  85  70   142  86  71   141  85  70   137  81  66   135  82  66   138  85  69   137  84  68   134  81  65   132  80  66   131  79  65   131  79  65   133  81  67   136  84  70   136  84  70   130  81  66   127  78  63   124  75  60   124  75  60   125  78  62   121  74  58   124  77  61   122  75  59   111  65  49   118  72  56   123  74  60   124  74  63   116  66  55   113  63  52   122  72  61   124  74  63   116  66  55   110  60  49   115  65  54   117  67  56   119  69  58   120  70  59   120  70  59   116  66  55   111  61  50   106  57  43   115  68  52   116  69  53   113  65  53   110  62  50   112  64  54   116  68  58   116  68  56   113  65  51   111  63  49   112  65  49   109  62  44   105  58  40   105  57  43   108  60  46   107  59  49   100  56  45   105  67  56   102  66  54    93  55  46    89  51  42    98  58  50   100  60  52   100  57  51   102  61  55
255 255 255   255 255 255   255 255 255   255 255 255   255 254 255   255 254 255   255 253 254   255 250 253   255 242 245   166 146 148   107  83  83   118  94  92   107  86  81   119 102  94   115 107  94   130 128 113   127 128 112   130 133 116   142 139 124   144 136 123   143 129 116   147 129 115   141 119 105   120  94  81   123  91  80   123  85  76   120  77  68   117  70  60   118  66  55   117  63  51   119  63  50   119  63  50   105  52  38   108  56  42   110  64  48   105  64  46    92  55  37    80  47  28    78  47  27    86  51  31    90  43  23    96  44  22   100  45  25   104  47  30   107  48  32   111  49  36   113  49  39   115  48  39   114  47  38   115  47  36   118  50  37   121  54  38   119  52  36   118  53  35   124  59  39   133  68  46   135  69  45   145  79  55   143  77  55   138  72  50   146  78  59   153  84  68   157  87  75   162  92  82   161  93  84   178 109 102   180 112 109   168 103 101   159  95  95   149  85  85   142  80  81   147  83  83   145  75  73   145  74  70   149  75  72   146  72  69   139  68  64   144  73  67   148  77  71   142  71  65   139  69  61   146  78  69   137  71  59   121  59  44   124  62  47   129  70  52   135  78  59   146  87  71   144  82  71   146  83  74   149  86  77   150  87  78   152  89  80   153  93  83   158  98  87   161 101  90   162 102  91   159 101  87   159 101  87   160 102  88   155  98  81   146  90  73   144  88  71   148  91  74   155  93  78   142  79  64   147  81  69   146  83  68   134  68  54   131  68  53   138  75  60   132  69  52   128  65  48   128  65  48   132  66  50   132  67  49   125  59  43   117  52  34   117  52  34   121  59  38   114  54  30   111  53  29   112  52  28   108  50  28   106  48  28   105  46  28   105  48  31   102  49  33    97  45  31    87  39  25    82  36  23    80  38  24    78  38  26    72  34  23    68  32  20    65  33  22    57  27  19    66  36  28    89  56  49   102  67  61    99  60  55    98  57  51   101  58  52    98  53  47   100  53  45    96  49  39    92  46  33    89  43  28    89  43  28    87  44  27    86  43  24    84  41  22    83  40  21    83  40  21    83  40  21    84  41  22    87  42  23    91  44  26    93  46  28    96  47  30   103  52  35   102  51  34   102  49  33   101  48  32   101  48  32   102  49  33   106  50  35   109  51  37   115  56  40   120  59  41   120  61  43   120  61  43   117  60  41   118  61  42   122  67  47   127  72  51   126  71  51   126  71  51   127  72  52   132  77  57   138  81  62   142  85  66   142  85  66   141  84  67   140  82  68   144  86  72   148  90  76   150  92  78   148  90  76   145  89  74   146  88  74   146  90  75   144  88  73   146  90  75   144  88  75   142  86  71   142  89  75   145  92  78   142  89  75   137  84  70   135  82  68   130  78  64   127  75  61   128  76  62   133  81  67   137  85  71   133  84  69   130  81  66   123  74  59   126  77  62   128  81  65   121  74  58   125  78  62   124  78  62   112  66  50   117  71  56   123  75  63   127  77  66   122  72  61   119  69  58   127  77  66   127  77  66   117  67  56   110  60  49   116  66  55   116  66  55   116  66  55   118  68  57   120  70  59   119  69  58   114  64  53   109  59  48   112  64  50   115  68  52   115  67  53   113  65  53   114  66  54   118  70  58   116  68  56   110  62  48   110  62  48   113  66  50   112  65  49   109  62  46   108  60  46   109  61  49   105  57  47    98  51  41   108  68  58   106  68  57    96  58  47    94  54  44   102  62  52   103  63  53   101  58  51   102  62  54
254 254 254   252 252 252   253 253 255   255 254 255   255 253 255   255 251 255   255 248 254   255 247 250   232 214 212   146 125 122   125 104 101   128 109 103   143 124 120   150 133 126   148 135 127   144 134 125   153 140 131   156 144 132   156 138 128   146 124 113   136 110  97   130 101  87   129  96  81   127  91  75   127  90  74   123  81  65   125  79  63   125  73  59   120  62  48   117  58  44   115  56  40   106  50  33    97  46  29   101  54  38   104  63  45    99  62  44    91  54  38    82  46  32    82  44  31    85  46  31    84  38  22    91  42  25    95  43  29    95  42  28    99  43  30   105  47  35   107  47  37   106  43  34   107  43  34   111  44  35   112  45  36   112  46  34   114  48  34   118  55  38   128  65  48   136  73  55   134  73  52   136  75  54   138  76  55   137  74  56   139  74  56   144  78  62   155  87  74   163  95  84   160  92  83   161  92  85   166  97  92   168 100  97   161  93  90   145  80  78   137  72  70   138  71  65   136  63  56   142  65  55   142  68  59   143  68  62   146  73  66   146  75  69   141  70  64   132  63  56   134  67  59   137  73  63   135  73  62   124  66  52   120  63  46   127  72  52   137  85  64   147  92  72   148  86  73   149  85  75   149  85  75   148  86  75   148  86  75   150  88  77   151  91  81   154  94  84   154  96  85   150  92  80   148  90  78   149  93  80   155  98  87   155 101  89   154 100  88   152  96  83   153  93  82   148  86  73   144  80  70   142  80  67   143  79  67   139  77  64   138  76  63   141  79  64   129  67  52   123  61  46   126  63  48   135  72  55   132  69  54   120  57  40   115  52  35   120  57  40   113  50  33   110  49  31   115  52  35   113  51  36   106  44  29   103  44  30   105  47  35   102  46  33    96  42  30    92  42  31    89  41  29    83  39  26    78  36  24    71  33  20    67  31  17    63  29  19    59  26  19    74  43  38    89  56  49   101  64  58   108  67  61   101  58  51    96  49  41   102  54  44   103  55  43    99  51  39    93  45  31    88  42  27    86  40  25    85  42  26    85  42  25    85  44  26    83  45  26    80  43  24    80  42  23    81  43  24    85  44  26    88  45  28    92  45  29    92  43  28    98  46  32    98  46  32    99  46  32    98  45  31   100  44  31   102  46  33   106  48  36   110  51  37   113  51  36   116  53  38   118  55  38   119  56  39   119  58  39   120  59  40   122  64  44   124  66  44   124  67  47   123  66  46   126  69  49   132  75  55   134  77  58   132  75  56   135  78  61   141  85  68   136  83  67   139  86  70   145  89  74   147  91  76   147  91  76   144  91  75   143  87  74   140  84  71   146  90  77   145  89  76   144  87  76   144  88  75   145  88  77   144  87  76   143  86  75   139  85  73   137  84  70   135  82  66   132  79  63   131  78  62   131  80  63   131  80  63   126  77  62   123  74  59   128  81  65   119  72  56   111  63  49   111  63  49   117  71  56   121  75  60   116  70  55   109  63  48   121  73  61   117  67  58   117  67  58   117  67  58   122  72  63   135  85  76   132  82  73   111  61  52   114  64  55   113  63  54   110  60  51   109  59  50   113  63  54   118  68  59   117  67  58   112  62  51   113  65  51   114  68  52   117  71  55   119  73  58   120  74  59   117  71  56   113  67  52   109  63  48   110  62  48   111  63  49   115  67  53   114  66  54   108  60  48   110  62  52   110  62  52   100  53  43   106  63  54   102  62  52   101  61  51   102  60  48   103  61  49   102  60  48    97  57  45    95  55  43
255 255 255   255 255 255   255 255 255   255 254 255   255 251 255   255 252 255   255 250 255   255 244 247   208 187 184   142 122 115   137 116 111   142 123 117   153 134 130   158 139 135   157 139 135   156 139 132   151 131 124   153 130 122   150 123 114   139 109  99   130  96  84   128  90  77   128  86  72   125  83  67   123  82  64   118  75  56   122  74  54   124  68  51   118  59  43   117  55  40   115  56  38   107  51  34    98  49  32    99  56  37   100  61  44    95  60  41    87  51  37    81  43  30    81  41  33    85  42  33    84  38  23    88  42  26    90  42  28    89  40  26    94  40  28   101  44  33   104  45  37   103  43  35   104  41  32   107  43  34   109  45  35   110  46  34   112  49  34   117  54  39   125  64  46   132  71  53   128  70  50   130  72  52   133  72  53   133  72  53   136  73  56   145  79  63   157  89  78   166  98  87   158  90  81   158  90  81   161  92  85   162  93  88   157  87  85   145  77  74   137  69  66   136  67  60   133  59  48   139  63  50   142  65  55   142  68  57   147  74  65   148  78  70   142  73  66   134  67  59   136  72  63   134  72  61   129  69  58   122  64  50   117  61  44   117  64  46   126  74  53   138  83  63   143  81  68   145  81  71   145  81  71   143  79  69   142  78  68   143  81  70   148  86  75   151  91  80   147  87  77   144  86  74   143  85  74   145  87  76   149  92  81   151  94  83   148  94  84   148  91  80   158  98  87   151  89  78   145  83  72   144  82  71   143  81  70   140  78  67   137  78  64   138  79  65   132  70  57   128  66  53   128  66  51   132  70  55   131  68  53   122  59  44   117  54  39   118  55  40   110  46  34   107  43  31   110  46  34   110  46  34   104  40  30   105  43  32   108  48  38   105  48  37    98  44  34    93  43  32    88  40  28    81  37  24    76  34  22    70  32  19    68  32  18    65  31  21    62  29  24    74  41  36    86  51  47    98  61  53   105  64  58    99  55  46    97  50  42   107  59  47   107  57  46   102  53  39    94  46  32    90  44  29    89  43  28    86  43  27    84  42  26    80  41  24    81  44  25    78  43  23    77  40  21    79  41  22    83  42  24    86  43  26    88  42  26    89  42  26    93  44  29    96  44  30    97  44  30    97  44  30    99  43  30   102  46  33   108  50  38   113  54  40   118  54  42   121  55  41   120  54  38   119  53  37   117  54  36   119  56  38   122  61  40   125  64  43   123  65  43   124  66  44   127  70  50   131  74  54   132  75  56   133  76  57   135  79  62   140  84  67   133  80  64   133  82  65   138  85  69   142  89  73   143  90  74   141  88  72   139  86  72   139  86  72   144  87  76   147  90  79   148  91  80   146  89  78   142  85  74   139  82  71   140  83  74   141  84  73   140  87  73   135  82  66   132  79  63   133  80  64   132  81  64   130  79  62   124  75  60   121  72  57   127  80  64   119  72  56   112  64  50   112  64  50   116  70  55   119  73  58   114  71  55   112  66  51   120  72  62   118  68  59   118  68  59   119  69  60   121  71  62   130  80  71   125  75  66   106  56  47   112  62  53   114  64  55   113  63  54   109  59  50   109  59  50   112  62  53   112  62  53   109  59  48   118  70  56   117  71  55   117  71  55   117  71  55   115  69  54   113  67  52   111  65  50   109  63  48   114  66  54   112  64  52   114  66  54   111  63  51   106  58  48   110  62  52   113  65  55   105  58  48   106  62  53   103  60  51   101  59  47   100  58  46   100  58  44   100  58  44    96  57  42    94  55  40
251 251 253   254 255 255   255 255 255   255 253 255   252 246 250   255 251 255   255 250 255   252 233 237   184 160 160   146 121 117   156 131 127   159 135 131   163 139 137   161 140 137   159 138 133   157 136 131   141 116 111   143 116 109   142 109 100   135  98  89   129  89  77   126  84  70   124  78  65   122  74  60   117  71  55   114  67  49   118  67  50   120  64  49   115  56  40   115  53  38   114  57  40   106  53  35   101  54  36   100  59  39    97  60  42    91  56  37    82  46  32    77  39  26    78  38  30    81  38  29    84  38  23    85  39  23    86  39  23    85  36  21    90  36  24    96  39  28    99  41  30   100  40  30   101  38  29   105  42  33   109  47  36   110  48  35   111  49  34   115  53  38   122  61  43   128  67  49   127  69  49   128  70  50   131  70  51   132  69  51   136  70  54   144  78  62   155  87  76   164  94  84   158  88  80   155  85  77   154  83  77   154  85  78   150  81  76   142  73  68   135  67  64   133  64  59   127  54  45   130  58  46   132  60  48   134  64  52   142  72  62   149  81  70   150  82  73   144  77  68   137  73  63   131  67  57   124  62  51   120  61  47   117  58  42   113  56  39   118  61  42   127  70  51   136  73  58   140  74  62   140  74  62   137  71  59   134  68  56   134  70  58   142  78  66   148  86  73   146  84  73   147  85  72   148  86  75   148  88  77   150  90  79   152  92  81   152  94  83   152  94  82   162 102  91   151  91  80   143  83  72   141  81  70   141  82  68   139  80  66   137  78  64   138  79  65   138  76  61   134  72  57   131  69  54   129  67  52   127  66  48   124  63  45   120  57  40   116  53  36   112  46  32   108  42  28   109  43  29   107  44  29   101  37  25   102  40  29   106  46  36   104  46  35   101  44  35    95  43  32    87  39  29    79  35  24    73  33  23    70  32  21    69  33  21    67  33  24    64  31  26    69  36  31    80  45  41    96  57  50   101  60  54    95  51  42    97  50  42   111  63  51   109  59  48   103  54  40    96  48  34    93  47  32    93  47  32    90  47  31    85  43  29    79  40  23    80  43  24    78  41  22    77  39  20    77  39  20    81  40  22    83  40  23    85  39  23    85  38  22    90  41  26    94  42  28    95  42  28    96  43  29    99  43  30   102  46  33   108  52  39   114  56  42   120  56  44   122  56  42   118  55  38   116  53  36   115  52  34   117  54  36   120  59  38   124  63  42   120  62  40   125  67  45   127  70  50   128  71  51   130  73  54   134  77  58   138  81  64   138  82  65   130  77  61   129  76  60   133  80  64   140  87  71   142  89  73   139  86  70   139  86  72   142  89  75   143  89  77   146  92  80   150  93  82   146  89  78   139  82  71   136  79  68   138  81  72   142  85  74   142  89  75   135  82  68   132  79  65   135  82  68   135  83  69   129  77  63   122  73  58   120  71  56   126  79  63   120  73  57   114  66  52   114  66  52   115  69  54   117  71  56   117  71  56   117  71  56   122  74  64   122  72  63   123  73  64   123  73  64   124  74  65   127  77  68   120  70  61   106  56  47   111  61  52   115  65  56   115  65  56   108  58  49   105  55  46   108  58  49   109  59  50   107  57  46   118  70  56   117  70  54   115  68  52   113  66  50   112  64  50   112  64  50   113  65  51   114  66  52   117  69  57   113  65  53   112  66  53   109  63  50   104  57  47   109  62  52   114  67  57   108  64  53   105  62  53   100  60  50    99  57  45    97  55  43    98  56  42    98  56  42    95  56  41    94  55  40
245 246 248   252 253 255   255 255 255   252 250 253   252 243 248   255 250 255   255 242 250   235 214 219   179 153 154   159 131 128   168 140 137   160 135 131   159 133 132   154 129 125   149 124 120   145 117 113   131 102  96   134 101  94   136  99  90   135  95  85   133  89  76   130  82  68   127  75  62   122  70  56   117  66  49   113  62  45   118  62  47   119  61  47   112  53  37   112  53  37   112  56  39   106  55  36   104  59  40    98  60  41    93  58  39    84  51  34    78  42  28    74  36  23    75  35  27    79  35  26    81  38  22    83  37  21    82  35  19    80  33  17    84  32  19    89  35  23    94  37  26    97  39  28    99  39  29   105  43  32   110  48  35   112  50  37   113  51  36   116  55  37   121  60  42   125  64  46   125  67  47   129  68  49   131  68  50   132  69  51   136  70  54   142  75  59   150  80  68   155  85  75   156  86  78   153  83  75   149  78  72   147  76  70   145  74  70   140  71  66   135  65  63   132  63  58   130  60  52   130  60  48   128  60  49   129  61  50   136  68  57   144  78  66   146  80  68   141  77  65   132  68  56   126  62  50   120  58  45   118  56  41   114  55  39   112  53  37   115  56  40   119  60  44   127  64  49   132  66  52   134  68  56   131  65  53   127  61  49   128  62  50   133  69  57   141  77  65   142  78  66   145  81  69   148  84  72   150  86  74   151  87  75   152  88  76   153  91  80   155  93  82   157  97  86   147  87  76   138  78  67   137  77  66   139  80  66   138  79  65   137  78  64   138  79  65   141  79  64   139  77  62   132  70  55   125  63  48   124  63  45   125  64  46   121  58  41   113  50  33   115  49  35   110  44  30   111  45  31   110  44  30   103  37  25   102  38  26   104  41  32    98  40  29    99  42  33    94  41  33    87  39  29    79  35  26    73  33  23    69  32  23    66  32  22    65  32  23    64  31  26    65  32  27    76  41  35    96  57  50    99  58  52    92  48  39    96  49  41   112  64  54   108  58  47   102  53  39    96  48  34    96  48  34    98  52  37    95  52  36    90  46  33    83  41  27    83  44  27    79  42  23    78  40  21    78  40  21    81  40  22    82  41  23    82  39  22    83  37  21    89  42  26    91  42  27    95  43  29    95  42  28    97  41  28   101  45  32   107  51  38   113  55  43   116  54  41   118  55  40   118  55  40   116  53  36   116  53  36   116  55  36   120  59  40   123  62  41   117  59  37   124  66  44   127  70  50   125  68  48   128  71  52   134  77  58   138  81  64   136  80  63   131  75  60   127  74  58   132  79  63   142  89  73   145  92  76   142  89  73   142  89  75   146  93  79   146  92  80   146  92  80   146  89  78   142  85  74   138  81  70   137  80  69   140  83  74   141  87  77   142  88  76   134  81  67   132  79  65   137  84  70   137  85  71   130  78  64   123  74  59   123  74  59   125  78  62   120  73  57   116  68  54   116  68  54   115  69  54   114  68  53   117  71  56   122  74  60   127  77  66   126  76  67   127  77  68   128  78  69   128  78  69   127  77  68   121  71  62   113  63  54   111  61  52   115  65  56   114  64  55   107  57  48   106  56  47   111  61  52   111  61  52   105  55  44   112  63  49   112  65  49   112  63  48   111  64  48   111  63  49   112  64  50   116  68  54   119  71  57   116  68  56   112  64  52   112  66  53   112  66  53   108  61  51   111  64  54   114  67  57   109  65  54   107  64  55   101  61  51    99  57  45    97  55  43    97  55  41    98  56  42    96  57  42    96  57  42
248 252 253   251 252 254   252 252 254   253 248 252   255 250 255   255 250 255   247 227 236   214 189 195   183 154 156   168 138 138   165 135 135   148 120 119   148 120 117   143 113 111   136 107 103   128  97  92   127  92  86   128  89  82   130  87  78   131  84  74   131  82  68   129  77  63   128  72  57   127  71  56   119  63  48   116  60  45   120  62  48   120  61  47   112  53  39   110  52  38   110  57  41   103  56  38   104  63  45    97  60  41    88  55  36    80  47  30    76  40  26    73  35  22    75  32  25    76  32  23    80  37  21    78  35  16    77  31  15    78  31  15    80  31  17    85  33  20    91  34  23    96  38  27    98  40  28   104  44  33   109  50  36   112  53  39   112  53  37   114  55  37   118  59  41   121  63  43   121  60  41   124  63  44   130  67  49   133  70  52   138  72  56   142  75  59   145  75  63   147  77  65   157  84  75   153  80  71   148  75  68   142  72  64   140  69  63   138  69  62   136  67  62   133  64  59   134  67  58   135  69  57   133  66  57   132  66  54   134  68  56   135  72  57   131  68  53   123  61  46   122  60  45   122  60  45   118  56  41   113  51  36   114  52  37   117  55  40   119  57  42   117  55  40   117  54  39   122  59  44   126  63  48   125  62  47   123  57  43   123  57  43   128  62  48   133  67  53   133  67  53   137  71  57   142  76  62   144  78  64   143  77  63   144  78  64   146  80  68   146  82  70   147  85  72   136  77  63   130  71  57   131  72  58   135  73  60   135  73  60   136  74  59   138  76  61   142  79  64   140  77  62   133  70  53   123  60  43   122  59  42   125  62  45   121  58  41   112  49  32   114  48  32   110  43  27   113  46  30   112  46  32   107  41  29   104  40  28   103  40  31    94  36  25    93  39  29    89  39  30    85  38  30    79  36  29    73  35  26    69  32  24    65  31  22    62  29  22    62  29  24    61  28  23    75  40  34    96  57  50    98  57  51    91  47  38    97  50  42   110  62  52   104  54  43    99  49  38    95  47  33    97  49  35   101  55  42   100  56  43    96  52  39    89  47  33    86  47  30    83  44  27    81  42  25    80  41  24    82  40  24    82  40  24    82  39  23    83  37  22    89  41  27    92  43  29    97  45  32    96  44  31    95  41  29    96  42  30   103  46  35   109  51  39   110  48  35   112  50  35   115  53  38   117  56  38   117  56  38   118  57  38   121  60  41   121  63  43   115  57  37   123  65  45   125  68  49   124  67  48   126  69  52   134  77  60   137  79  65   135  79  64   133  77  62   131  78  62   136  83  67   145  92  76   148  95  79   147  94  78   147  94  80   150  97  83   150  96  84   145  91  79   138  84  72   135  81  69   137  83  71   140  86  74   142  88  78   142  88  78   139  85  73   134  82  69   133  81  68   137  85  72   137  85  72   132  80  67   127  78  64   129  80  66   126  77  63   122  73  59   119  71  57   119  71  57   117  69  55   114  66  52   117  69  55   123  75  61   126  76  65   124  74  63   123  73  62   126  76  65   128  78  67   126  76  65   121  71  60   120  70  59   112  62  51   115  65  54   112  62  51   106  56  45   110  60  49   118  68  57   116  66  55   107  57  46   108  59  45   110  61  46   114  62  48   112  63  48   111  62  48   112  63  49   115  66  52   118  69  55   112  64  52   110  62  50   114  68  55   118  72  59   112  68  57   110  66  55   110  66  55   104  62  50   107  67  57   103  65  54   100  60  48    98  58  46    98  59  44    99  60  45    99  60  45    98  59  44
252 255 255   253 254 255   249 247 250   254 248 252   255 250 255   255 241 250   225 202 212   192 165 172   180 149 154   167 135 136   154 124 124   135 105 105   140 110 108   135 104 101   130  97  92   122  87  81   126  87  80   125  82  73   123  76  66   122  72  61   121  68  54   121  65  50   125  66  50   131  69  54   120  61  47   118  59  45   122  63  49   121  62  48   112  53  39   109  53  38   109  58  41   104  59  40   102  64  45    95  60  41    84  53  35    77  46  28    73  40  25    73  35  24    75  32  23    75  31  20    78  35  18    75  32  13    75  29  13    77  31  15    79  31  17    81  32  18    88  34  22    95  38  27    97  41  28   103  45  33   108  50  36   111  52  38   111  52  36   112  53  35   116  58  38   119  61  41   113  52  33   117  56  37   125  62  44   134  69  51   140  73  57   143  76  60   144  74  62   144  74  62   153  80  71   151  78  69   146  73  66   140  67  60   136  65  59   137  66  60   135  66  59   132  65  57   125  58  50   127  63  53   131  67  57   133  69  57   135  71  59   134  72  57   126  65  47   116  55  37   116  55  37   117  58  40   115  56  38   110  51  35   110  51  35   115  56  42   116  57  43   112  52  41   109  47  34   114  52  39   118  56  43   118  56  43   116  52  40   116  52  40   119  55  43   123  59  47   125  61  49   129  65  53   135  69  57   137  71  57   137  71  59   138  70  57   139  71  60   140  74  62   133  71  58   125  66  52   123  64  50   125  66  52   129  67  54   128  66  53   130  68  53   135  72  57   138  75  60   136  73  58   132  66  50   121  58  41   121  55  39   121  58  41   120  54  38   114  48  32   111  44  28   107  40  24   110  43  27   112  46  30   108  42  30   106  42  30   104  41  32    95  37  26    90  35  28    87  37  30    83  36  30    78  35  28    72  33  26    66  32  23    62  29  22    60  27  20    61  28  23    62  27  21    79  42  36    96  57  50    97  54  47    92  48  39    98  51  41   107  59  49   100  50  39    97  47  36    94  46  32    97  49  35   103  55  43   104  58  45   102  56  43    97  53  40    91  49  33    86  47  30    83  44  27    81  42  25    83  41  25    82  40  24    82  39  23    80  37  21    87  41  26    92  44  30    97  48  34    98  46  33    94  42  29    94  40  28   100  43  32   104  48  35   103  43  32   108  46  33   113  51  36   117  55  40   118  57  39   120  59  41   120  62  42   122  64  44   115  57  37   120  62  42   123  66  47   124  67  48   127  70  53   131  74  57   135  77  63   136  80  65   136  80  65   136  83  67   138  85  69   141  88  72   145  92  76   149  96  80   151  98  84   152  99  85   151  97  85   144  90  78   137  83  71   136  82  70   140  86  74   144  90  78   144  90  80   140  88  77   136  84  71   138  86  73   138  86  73   137  85  72   135  83  70   134  82  69   133  84  70   134  85  71   128  79  65   123  74  60   120  72  58   122  74  60   119  71  57   113  65  51   115  67  53   122  74  60   120  70  59   117  67  56   115  65  54   120  70  59   126  76  65   122  72  61   117  67  56   121  71  60   111  61  50   115  65  54   113  63  52   106  56  45   111  61  50   121  71  60   120  70  59   112  60  47   111  59  46   113  61  47   115  63  49   115  63  49   112  60  47   108  59  45   110  61  47   112  63  49   111  63  51   109  61  49   115  69  56   121  75  62   114  70  59   110  66  55   108  64  53   102  60  48   108  68  58   104  66  55   102  62  50   100  60  48   101  62  47   101  62  47   100  61  46    99  60  45
254 255 255   255 255 255   253 249 250   255 245 249   255 240 246   229 208 215   192 166 175   178 148 156   167 136 141   159 127 130   147 115 116   131  99 100   141 110 108   135 101  99   128  93  87   124  87  79   124  84  74   123  79  68   123  75  63   123  71  57   120  64  49   116  57  41   120  57  40   125  62  45   120  57  42   119  55  43   123  59  47   122  60  47   111  52  38   109  53  38   108  59  44   103  60  43   100  63  45    91  58  39    82  51  33    76  45  27    74  41  26    75  37  26    76  33  24    75  31  20    76  35  17    72  31  11    72  29  12    78  32  16    79  33  18    81  33  19    85  36  22    92  40  27    93  39  27   100  44  31   104  48  33   107  49  35   107  50  33   108  51  32   111  54  34   116  58  38   111  50  31   116  53  35   125  59  43   132  66  50   139  72  56   141  74  58   142  72  60   144  72  60   148  75  66   148  75  66   145  72  63   137  64  55   131  61  53   133  63  55   133  65  56   131  64  56   123  56  48   124  60  51   124  62  51   125  63  50   129  67  54   132  70  55   128  67  49   118  60  40   114  56  36   114  57  38   113  56  37   110  53  36   107  51  36   107  51  38   107  50  39   107  50  39   102  45  34   104  47  36   106  49  38   106  49  38   106  48  36   107  49  37   110  50  39   113  53  42   120  58  47   122  60  49   127  63  53   129  65  53   129  65  55   131  65  53   131  64  55   129  65  55   121  61  50   117  59  47   119  60  46   122  63  49   124  62  49   123  59  47   126  63  48   133  67  53   134  68  54   132  66  52   129  62  46   122  56  40   120  53  37   118  52  36   118  51  35   115  48  32   110  43  26   105  38  21   107  41  25   109  43  27   105  39  27   103  41  28   101  41  31    92  35  24    90  35  28    85  35  28    79  34  28    73  32  26    68  31  25    64  29  23    61  28  23    60  27  22    62  27  21    65  28  22    81  44  38    94  55  48    94  51  44    92  48  39   100  53  43   105  57  47    98  48  37    97  47  36    96  46  35    98  50  38   102  54  44   104  57  47   104  57  47   101  57  44    92  50  34    89  47  31    85  43  27    83  41  25    82  40  24    81  39  23    79  37  21    79  36  20    82  39  23    90  44  29    96  48  34    97  48  34    95  43  30    93  41  28    96  42  30   102  46  33   103  43  32   106  47  33   110  51  35   113  54  38   115  56  38   117  58  40   120  62  42   122  64  44   115  57  37   117  59  39   120  63  44   125  68  49   128  71  54   129  72  55   133  75  61   137  81  66   139  83  68   140  87  71   137  84  68   132  79  63   135  82  66   146  93  77   151  99  85   151  99  85   147  95  82   144  92  79   141  89  76   141  89  76   143  91  78   143  91  78   140  88  77   136  86  75   134  84  73   142  92  81   143  93  82   135  85  74   129  79  68   132  82  71   136  87  73   136  87  73   129  80  66   123  74  60   123  74  60   126  77  63   122  75  59   114  67  51   113  66  50   120  72  58   117  67  56   115  63  52   113  61  50   121  69  58   130  78  67   123  71  60   116  64  53   122  70  59   108  56  45   119  67  56   120  68  57   111  59  48   110  58  47   119  67  56   122  70  59   116  64  51   111  57  45   114  61  47   116  63  49   114  61  47   110  56  44   108  56  43   108  59  45   111  62  48   115  67  55   110  62  50   113  67  54   118  72  59   111  67  56   107  63  52   106  64  52   101  61  49   106  68  57   103  67  55   102  64  51   101  63  50   102  63  48   102  63  48   102  60  46   101  59  45
244 244 246   255 254 255   255 252 255   255 243 248   242 221 228   197 172 178   166 136 146   173 142 150   157 125 130   154 122 123   145 113 114   133 102 100   146 112 110   136 101  97   130  93  85   127  89  80   123  81  69   126  80  67   130  81  66   132  79  63   127  70  53   118  57  39   115  52  34   119  53  37   118  52  38   118  52  40   122  58  46   121  59  46   111  52  38   107  54  40   108  61  45   104  62  46    98  63  44    90  57  40    80  49  31    75  43  28    76  40  28    76  38  27    77  34  25    76  32  21    75  34  16    71  30  10    72  29  12    77  34  17    81  35  20    80  34  19    84  36  22    91  42  28    91  39  26    96  42  30   100  47  33   103  47  32   103  47  32   105  48  31   109  52  33   113  55  35   115  54  35   118  55  37   125  59  43   130  64  48   136  69  53   138  71  55   139  69  57   140  68  56   144  71  62   146  73  64   143  70  61   135  62  53   128  58  48   130  60  52   132  64  55   131  63  54   136  69  61   131  67  58   124  60  51   117  55  44   118  56  43   122  63  47   122  63  45   117  60  40   115  60  40   110  58  37   109  56  38   108  57  40   104  52  38    96  47  33    95  45  34    98  48  39    95  45  36    95  45  36    95  45  36    95  45  36    97  44  36    99  47  36   103  49  39   106  52  42   107  50  41   109  52  43   112  54  43   115  57  46   117  57  47   116  56  46   117  54  45   116  53  44   115  57  45   115  57  45   117  59  47   121  62  48   121  59  46   119  55  43   124  58  46   130  64  50   131  63  50   129  61  48   126  58  45   123  56  40   119  52  36   116  49  33   115  48  32   116  49  33   113  47  31   106  41  23   106  40  24   104  41  26    99  35  23    99  37  26    95  37  26    88  31  22    89  36  28    84  35  28    77  32  26    70  29  23    65  28  22    61  28  21    59  28  23    62  29  24    63  28  22    67  30  22    83  44  37    93  53  45    91  48  39    93  49  40   102  55  45   104  56  46    98  48  37    97  47  36    97  47  36    99  49  38   101  53  43   103  55  45   105  57  47   104  57  47    92  48  35    88  46  30    85  43  27    82  40  24    81  39  23    80  38  22    78  36  20    76  34  18    79  36  20    86  43  27    95  49  34    97  49  35    94  45  31    93  41  28    96  42  30   102  45  34   104  46  34   107  48  34   109  50  36   111  52  36   113  54  38   115  56  38   120  61  43   123  65  45   116  58  38   115  57  37   118  61  42   126  69  50   128  71  54   127  70  53   132  74  60   139  81  67   140  84  69   141  88  72   135  82  66   124  71  55   126  73  57   142  89  73   151  99  85   150  98  84   143  91  78   146  94  81   148  96  83   148  96  83   145  93  80   139  90  76   135  85  74   133  83  72   136  86  75   147  97  86   148  98  87   135  85  74   126  76  65   132  82  71   137  87  76   137  88  74   130  81  67   124  75  61   123  74  60   128  79  65   124  77  61   114  67  51   112  65  49   119  70  55   120  68  55   116  64  53   114  62  51   124  72  61   135  83  72   126  74  63   116  64  53   121  69  58   104  52  41   120  68  57   125  73  62   113  61  50   106  54  43   113  61  50   120  68  57   119  65  53   111  55  42   114  58  45   116  60  47   112  59  45   109  55  43   109  55  43   112  60  47   115  66  52   119  71  59   111  63  51   111  65  52   115  69  56   107  63  52   105  61  50   106  64  52   104  64  52   105  67  56   102  66  54   101  63  50   101  63  50   103  64  49   102  63  48   101  59  45    99  57  43
251 249 250   255 253 253   255 249 251   232 213 217   194 169 175   174 145 150   164 133 141   154 121 128   146 114 117   150 120 120   149 118 116   137 106 103   128  95  90   125  90  84   125  88  79   125  85  75   116  72  59   120  72  58   123  72  55   124  68  51   121  64  47   119  58  40   115  52  34   113  47  31   125  57  44   121  53  40   122  56  44   116  54  41   103  45  33   101  48  34   105  59  44   102  63  48    98  62  46    84  51  36    75  43  28    75  43  28    79  43  31    79  39  29    77  34  25    77  33  22    73  31  15    71  33  14    72  30  14    72  30  14    74  30  17    77  31  18    78  32  19    79  31  19    85  37  25    93  44  30   101  49  35   101  48  32    97  41  26    96  40  23   104  47  30   113  54  36   114  53  35   117  56  38   121  58  41   125  59  43   127  60  44   128  61  45   133  63  51   136  66  54   137  65  53   139  67  55   136  66  54   132  62  50   130  60  48   132  62  52   130  62  51   126  58  49   129  62  54   125  61  52   123  59  50   121  59  48   120  58  45   117  58  42   113  57  40   110  58  37   105  54  35   102  54  34   100  53  37    97  51  36    92  48  35    88  46  34    85  42  33    81  41  33    74  33  27    73  32  26    75  32  26    75  32  26    78  33  28    81  36  30    86  39  33    89  42  36    92  43  36    94  44  37    98  45  39   101  48  42   104  49  42   106  51  44   109  52  45   110  53  44   107  50  39   106  49  38   111  53  42   117  57  46   119  57  46   116  52  42   118  51  42   123  55  44   120  50  40   124  54  44   125  55  45   119  49  37   115  45  33   114  44  32   112  44  31   108  42  26   107  44  27   105  42  25   101  38  23    96  34  19    94  32  19    92  32  21    92  34  23    90  36  26    84  34  25    76  29  21    67  24  17    63  24  17    65  28  22    64  31  26    60  29  26    58  27  22    66  29  23    76  37  30    88  47  41    91  51  43    89  46  37    91  47  38   101  54  44   109  61  49   102  52  41   101  51  40   103  53  44   101  51  42    99  49  40   106  56  47   110  60  53   103  55  45    99  55  42    92  48  35    87  45  31    87  45  31    82  43  28    76  37  22    73  34  19    74  35  20    80  38  24    83  39  26    87  41  28    91  43  31    93  43  32    96  44  33    98  44  34    99  42  31   102  44  32   104  46  32   106  48  34   108  51  34   110  53  36   112  55  36   112  55  36   112  55  36   114  57  38   114  57  38   122  65  48   127  70  53   124  66  52   127  69  55   132  72  61   127  69  57   134  78  63   137  81  66   137  84  68   139  86  70   146  93  77   153 100  84   151  99  85   144  92  78   146  97  83   147  98  84   148  99  85   145  96  82   141  92  78   138  90  76   139  91  79   142  94  82   142  94  84   148 100  90   148 100  90   143  95  85   141  91  82   140  90  79   136  86  75   131  81  70   127  78  64   127  78  64   130  81  67   130  81  67   122  73  58   111  62  47   106  57  42   108  59  44   114  62  49   117  65  52   119  67  54   122  70  57   128  76  63   132  80  67   124  72  59   112  60  47   107  55  42   118  66  53   118  66  53   113  61  48   112  60  47   108  56  43   107  55  42   116  62  50   111  55  42   113  57  44   116  60  47   118  62  49   115  61  49   114  60  48   113  61  48   111  62  48   118  70  58   116  68  56   113  67  54   111  65  52   108  64  53   108  64  53   108  64  53   108  66  54   100  60  50   106  68  57   108  68  56   101  61  49   101  59  45   106  64  50   104  62  48    96  54  40
255 248 249   255 248 248   239 220 222   202 177 181   176 147 152   162 131 136   152 117 123   145 110 116   144 112 113   144 114 112   139 108 105   128  95  90   119  86  79   118  84  74   121  83  72   121  81  69   116  73  57   119  72  56   120  69  50   118  66  45   117  60  41   115  56  38   116  55  36   117  54  36   121  53  40   118  50  37   119  53  41   115  53  40   105  47  35   103  51  38   106  60  47   102  63  48    96  60  46    83  50  35    74  41  26    74  41  26    80  42  31    79  39  29    78  35  26    78  36  24    71  32  15    71  32  15    70  31  14    71  29  15    71  29  15    73  29  16    73  29  18    76  30  17    81  34  24    88  40  28    96  47  33    98  46  32    96  43  29    97  41  26   104  46  32   110  53  36   110  51  33   115  54  36   120  57  40   121  58  41   124  58  42   126  59  43   129  61  48   132  62  50   129  59  47   133  63  51   134  64  52   130  60  48   129  59  47   130  62  49   131  63  50   128  62  50   123  56  48   127  60  52   128  64  54   125  63  52   116  57  43   110  52  38   105  52  36   102  53  36   103  56  38    99  56  39    95  53  37    89  49  37    83  45  34    74  40  30    69  35  26    65  32  25    56  23  18    56  22  20    56  21  19    56  21  17    59  21  18    61  23  20    64  24  22    66  27  22    71  30  24    75  32  26    79  34  29    83  38  33    89  42  36    93  46  40    97  48  43    98  49  42    95  45  34    97  45  32   102  48  36   110  52  41   111  51  41   111  47  37   114  47  38   117  50  41   119  51  42   122  54  43   122  54  43   116  48  37   113  45  34   112  44  31   110  44  32   104  41  26   105  43  28   101  42  24    98  39  23    95  36  20    92  34  20    91  33  21    90  33  22    88  36  25    83  34  27    79  32  24    73  30  24    67  28  21    65  27  24    59  26  21    54  23  20    51  20  15    70  33  27    78  40  31    88  48  40    92  49  40    92  48  39    95  51  40   105  59  46   112  66  53   100  52  40   105  55  44   112  62  53   110  60  51   104  54  45   107  57  48   112  62  55   107  58  51   105  58  48    96  52  39    91  47  34    88  46  32    83  44  29    77  38  23    74  35  20    74  35  20    77  35  21    79  37  23    82  38  25    88  42  29    91  43  31    94  44  33    97  45  34    98  44  32   100  43  32   102  46  33   105  47  33   107  49  35   109  52  35   110  53  36   110  53  34   110  53  34   111  54  35   112  55  36   121  64  47   126  69  52   123  65  51   125  67  53   131  71  60   129  71  59   130  72  58   136  80  65   141  88  72   144  91  75   145  92  76   147  94  78   144  92  78   139  87  73   142  93  79   146  97  83   150 101  87   149 101  87   146  98  84   141  93  79   138  90  78   138  90  80   139  90  83   139  90  83   136  87  80   135  87  77   141  91  82   144  94  85   138  88  79   130  80  69   126  76  65   123  74  60   123  74  60   124  75  61   121  72  57   114  65  50   111  62  47   112  63  48   119  67  54   120  68  55   119  67  54   118  66  53   120  68  55   123  71  58   123  71  58   121  69  56   112  60  47   119  67  54   120  68  55   117  65  52   115  63  50   108  56  43   106  54  41   116  62  50   115  59  46   116  58  46   116  60  47   115  59  46   111  57  45   110  56  44   108  56  43   108  56  43   115  65  54   113  65  53   112  64  52   111  65  52   111  64  54   109  65  54   107  63  52   106  62  51   101  61  51   107  67  57   108  68  56   103  63  51   106  64  50   111  69  55   111  69  55   105  63  49
255 251 251   254 236 236   209 184 187   167 138 142   160 128 133   155 120 124   142 107 111   140 106 107   139 108 106   135 104 101   127  94  89   116  83  76   110  76  66   112  76  64   114  76  63   116  74  58   111  68  51   115  68  50   116  68  48   117  65  44   116  59  40   114  56  36   114  56  36   117  56  37   117  51  37   113  47  33   113  49  37   110  51  37   104  48  35   104  55  41   106  62  49   100  60  48    94  56  45    82  46  34    75  39  27    75  39  27    78  40  29    79  39  29    79  36  27    80  38  26    72  33  18    71  32  17    70  31  16    69  29  17    68  28  16    70  28  16    70  27  18    71  27  16    76  32  23    83  36  26    90  42  30    94  45  31    97  43  31    98  45  31   103  47  32   108  51  34   108  49  31   111  52  34   116  55  37   119  56  39   120  57  40   122  56  40   124  57  41   125  58  42   122  55  39   128  61  45   130  63  47   127  60  44   126  59  43   129  63  47   131  65  49   130  64  50   122  55  46   128  61  52   130  66  56   123  61  50   109  51  39   101  45  32    99  47  33   100  52  38    98  55  39    92  53  38    85  49  35    75  43  32    65  35  25    55  28  19    49  22  15    44  19  14    37  11  10    37  11  10    39  11  10    39  11  10    41  11  11    41  11   9    43  12  10    43  12   9    44  11   6    47  12   8    52  15   9    57  20  14    63  24  19    68  29  24    72  33  26    75  35  27    82  38  27    86  38  26    92  42  31    98  46  35   102  45  36   103  43  33   106  43  34   110  46  37   116  49  41   118  51  42   116  49  40   112  45  36   109  45  35   109  45  33   105  43  32    98  39  25   100  43  26    98  42  25    96  40  25    94  38  23    90  37  23    88  35  21    86  34  21    83  33  22    78  31  23    77  33  24    74  33  27    69  32  24    62  27  23    55  22  17    50  19  14    49  19  11    75  38  30    82  42  34    89  46  39    93  50  41    98  54  45   100  56  45   108  62  49   116  70  57   107  59  47   108  60  48   116  66  57   116  66  57   113  60  54   114  61  55   116  63  59   108  58  51   112  64  54   102  58  45    95  51  38    89  47  33    83  44  29    77  38  23    73  36  20    72  35  19    71  32  17    75  33  19    79  35  22    84  38  25    89  41  29    92  42  31    96  44  33    97  43  31    98  44  32    99  46  32   103  47  32   105  49  34   106  50  33   107  51  34   107  52  32   107  52  32   107  50  31   110  53  34   120  63  46   125  68  51   122  63  49   124  65  51   131  71  60   131  73  61   131  73  59   138  82  67   145  89  74   146  90  75   141  88  72   139  86  70   138  86  72   137  85  71   139  90  76   143  94  80   146  98  84   149 101  87   148 100  86   144  98  83   141  95  82   140  93  83   138  89  82   133  84  77   131  82  75   134  85  78   142  93  86   147  99  89   142  92  83   132  82  71   128  78  67   121  71  60   118  66  53   119  67  54   122  70  56   121  69  55   119  68  51   119  67  53   121  67  55   120  66  54   120  66  54   120  66  54   117  63  51   116  62  50   120  66  54   125  71  59   118  64  52   120  66  54   120  66  54   121  67  55   117  63  51   107  53  41   106  52  40   117  63  51   116  60  47   114  58  45   112  56  43   111  55  42   108  54  42   108  54  42   106  54  41   106  54  41   111  61  50   109  61  49   109  61  49   111  63  51   113  65  55   112  65  55   108  61  51   103  59  48   104  61  52   109  66  57   111  69  57   109  67  55   111  67  54   116  72  59   116  72  59   112  68  55
255 240 240   229 205 205   176 146 148   146 112 113   150 116 117   149 113 115   138 102 104   138 102 102   133  99  97   128  95  90   120  85  79   112  78  69   110  74  62   110  72  59   109  70  53   110  69  51   105  60  41   111  64  44   118  67  46   119  67  46   118  63  42   114  57  37   113  55  35   114  53  35   116  53  38   114  48  34   110  48  35   106  48  36   101  47  35   105  55  44   106  62  51    99  57  45    90  50  40    80  42  31    74  36  25    75  37  26    78  38  28    78  38  28    80  37  28    82  39  30    74  34  22    73  33  21    70  32  19    68  30  19    67  29  18    67  27  17    67  27  19    69  26  17    73  30  23    78  34  25    86  39  29    92  44  32    98  46  35   101  47  35   105  49  36   107  51  36   107  50  33   110  51  33   113  54  36   117  56  38   118  57  39   119  56  39   120  54  38   121  54  38   121  54  38   127  60  44   130  63  47   126  60  44   125  59  43   127  64  47   129  66  49   129  66  49   126  62  50   127  63  51   125  61  49   114  54  43   102  46  33    95  43  30    95  47  35    96  52  41    85  45  35    79  42  33    66  36  26    55  28  19    44  19  12    35  15   8    30   9   4    27   8   4    26   6   7    27   7   8    28   8   9    30   8  10    31   9  11    33   9   9    34  10  10    35   9   8    28   3   0    31   3   0    35   6   2    38   9   3    42  11   6    46  15  10    50  19  14    54  21  12    66  28  17    72  30  18    79  35  24    85  39  26    89  39  30    93  39  29    98  39  31   102  42  32   103  43  35   105  45  35   108  45  36   104  44  33   105  45  35   105  47  35   100  42  31    92  36  23    93  42  25    93  42  25    92  41  24    91  39  25    87  38  23    85  36  22    82  32  21    80  32  22    73  29  20    74  31  22    71  32  25    66  29  21    58  23  17    52  21  16    54  23  18    59  26  19    78  39  32    84  44  36    90  47  38    97  54  45   105  61  50   106  62  51   110  64  51   118  72  59   119  71  59   112  64  52   112  62  53   114  64  55   115  62  56   117  64  58   116  63  59   105  55  48   116  68  58   109  63  50    98  54  41    90  48  34    84  42  28    77  38  23    72  35  19    70  33  17    69  32  16    71  32  17    75  33  19    79  35  22    84  38  25    88  40  28    90  40  29    93  41  30    97  43  31    99  46  32   100  47  33   102  49  33   106  50  35   106  50  33   107  51  34   107  52  32   106  49  30   109  52  33   120  63  46   124  67  50   121  62  48   124  65  51   132  72  61   133  75  63   139  81  67   141  85  70   142  86  71   141  85  70   136  83  67   136  83  67   136  84  70   136  87  72   139  90  76   139  91  77   141  93  79   142  96  81   143  97  82   142  99  83   144 100  87   145 101  90   135  88  80   135  86  81   140  91  86   144  95  88   143  94  87   144  95  88   143  93  84   135  85  76   135  85  74   124  74  63   117  65  52   116  64  51   122  70  56   125  73  59   123  72  55   119  68  51   118  65  51   116  62  50   119  65  53   124  70  58   121  67  55   115  61  49   114  60  48   118  64  52   120  66  54   115  61  49   115  61  49   118  64  52   114  60  48   105  51  39   107  53  41   119  65  53   114  58  45   112  56  43   109  53  40   106  53  39   107  53  41   109  55  43   109  57  44   109  57  44   109  59  48   108  58  47   108  58  47   109  61  49   113  63  54   113  65  55   110  62  52   105  58  48   106  62  53   108  65  56   112  68  57   113  69  58   114  70  57   114  70  57   112  68  55   109  65  52
230 204 205   188 158 158   148 112 114   138  99 100   144 105 106   142 104 103   136  98  97   134  96  93   126  91  87   122  87  81   119  82  74   118  80  71   117  77  65   115  73  59   110  67  50   109  64  45   108  60  40   112  61  40   117  65  44   119  64  44   117  60  41   114  57  38   113  54  36   113  54  36   118  56  41   114  52  37   110  51  37   104  48  35    99  47  34   103  55  43   105  58  48    93  50  41    88  45  38    78  38  30    74  34  26    76  36  28    80  37  28    80  37  28    80  37  28    82  39  30    76  36  26    74  36  25    72  34  23    69  31  22    67  29  20    66  28  19    65  26  19    66  26  18    69  28  22    75  32  25    84  37  29    91  43  33    99  46  38   102  50  39   104  50  38   108  52  39   107  51  34   109  52  33   110  53  34   113  54  36   116  55  37   118  55  38   117  54  37   118  52  36   121  55  39   126  60  44   128  63  45   124  61  43   123  60  42   127  64  46   129  66  48   127  66  48   127  66  48   123  61  46   116  57  41   109  51  37   102  48  36    96  46  35    91  44  34    86  43  36    69  32  24    60  27  20    47  20  13    35  12   6    26   5   0    21   3   0    20   2   0    18   3   0    20   6   6    21   7   7    22   8   8    25   9  10    27  11  12    30  12  12    31  13  11    32  13   9    28   9   5    29   8   3    29   8   3    31   8   2    34   9   4    36  11   4    38  13   6    41  14   5    50  20   9    57  23  11    65  29  17    71  31  19    76  32  23    81  34  24    85  35  26    88  36  25    89  34  27    93  39  29    98  41  32    97  43  31    99  45  35   100  48  35    95  43  32    85  36  22    87  40  24    87  41  25    87  41  25    86  40  25    85  37  23    81  35  22    78  32  19    74  30  19    73  30  21    71  31  21    67  28  21    60  23  15    53  18  12    52  22  14    60  30  22    69  36  27    79  41  32    89  46  37    94  50  41   104  60  51   114  70  59   111  67  56   111  65  52   119  73  60   126  78  66   114  66  54   111  61  52   111  61  52   111  58  52   114  61  57   116  60  59   109  56  52   119  69  62   112  65  55   101  57  46    91  49  37    85  43  31    78  38  26    72  34  21    67  31  17    68  32  18    70  32  19    74  32  20    76  32  21    81  34  24    84  36  26    86  36  27    87  37  26    96  44  31    97  45  31    99  47  33   101  50  33   104  51  35   105  52  34   107  51  34   107  51  34   107  50  33   110  53  36   120  62  48   124  66  52   120  60  49   123  63  52   132  72  62   134  76  64   143  85  71   139  83  68   138  82  67   140  84  69   140  87  71   140  87  71   137  85  71   133  84  69   139  90  76   141  93  79   143  95  81   143  97  82   143  97  82   140  97  81   141  97  84   142  98  87   131  84  78   136  89  83   149 102  96   152 105  99   140  91  86   133  84  77   136  88  78   133  85  75   141  91  80   131  81  70   121  69  56   118  66  53   123  70  56   127  74  60   123  70  54   116  63  47   117  64  50   113  60  46   115  62  48   121  68  54   123  70  56   116  63  49   111  58  44   111  58  44   118  65  51   109  56  42   107  54  40   111  58  44   107  54  40   101  48  34   108  55  41   120  67  53   111  58  44   110  57  43   108  55  41   106  53  39   107  53  41   107  55  42   110  58  45   112  60  47   111  59  48   110  58  47   110  58  47   109  59  48   113  60  52   112  62  53   112  62  53   109  61  51   107  60  52   107  63  54   113  66  56   116  69  59   115  69  56   109  63  50   103  57  44    98  54  41
194 164 164   158 122 122   138  98  99   142 100 101   143 101 102   140 100  98   138 100  97   133  96  90   123  84  79   119  80  73   119  79  71   120  80  70   121  79  65   116  73  57   113  67  51   111  64  44   118  67  46   116  64  43   115  60  40   112  57  37   112  55  36   113  56  37   115  56  38   116  57  39   117  58  42   115  56  40   114  56  44   108  52  39   100  48  37   102  54  42   101  54  46    87  43  34    84  39  33    78  35  28    76  33  26    79  36  29    81  38  29    79  36  27    78  35  26    78  38  28    75  37  26    74  36  27    71  33  24    69  31  22    66  29  21    64  27  19    65  26  19    64  25  18    68  27  21    74  31  25    80  35  29    88  41  33    94  44  37   100  47  39   104  50  40   106  53  39   107  51  34   106  51  31   107  50  31   109  52  33   112  53  35   115  54  36   116  53  36   116  53  36   122  56  40   123  60  43   123  60  42   121  58  40   123  60  42   126  65  46   126  65  46   123  62  43   119  61  41   115  56  38   111  54  37   108  55  39   104  55  41    95  48  38    79  34  28    64  25  20    53  18  14    44  15  11    34   8   7    24   3   0    18   0   0    16   1   0    17   3   2    17   6   4    16   4   4    16   6   7    18   6   8    19   7   9    21   9   9    25  11  10    27  13  12    28  14  11    23   8   3    23   8   3    24   7   0    24   7   0    27   8   1    29  10   3    31  13   3    34  14   3    45  21   9    53  27  14    59  29  18    62  30  17    67  29  18    71  31  21    75  31  22    77  30  20    79  31  21    85  35  26    87  37  28    87  39  27    89  41  29    90  44  31    88  42  29    80  36  23    82  39  23    81  39  23    81  39  23    81  38  22    79  35  22    76  32  19    73  29  18    71  29  17    73  33  23    69  31  20    61  24  15    53  19  10    51  18  11    55  25  17    64  35  27    74  41  32    83  45  36    95  52  43   101  57  48   111  67  56   123  79  68   116  72  61   113  67  54   124  78  65   122  74  62   115  67  55   115  65  56   115  65  58   110  57  53   110  57  53   117  61  60   118  65  61   119  69  62   114  67  57   106  59  49    94  52  40    88  46  34    80  42  29    74  36  23    67  31  17    68  32  18    69  31  18    70  30  18    73  31  19    76  32  21    80  33  23    84  34  25    85  35  24    93  41  30    94  42  29    97  45  31    99  47  33   103  50  34   104  51  35   107  51  34   107  51  34   110  53  36   111  54  37   119  61  47   123  65  51   119  59  48   122  62  51   130  70  60   130  72  60   134  76  64   132  76  61   136  80  65   144  88  73   147  94  78   144  93  76   137  85  71   130  81  66   140  92  78   146  98  84   151 105  90   150 107  91   145 102  86   139  96  80   135  93  79   134  92  80   129  84  78   133  85  81   148 100  96   151 104  98   135  86  81   127  78  73   130  81  74   128  80  70   139  89  78   133  83  72   126  74  61   122  70  57   125  72  58   126  73  59   120  67  51   112  59  43   118  65  51   114  61  47   112  59  45   114  61  47   116  63  49   115  62  48   113  60  46   112  59  45   113  60  46   104  51  37   103  50  36   105  52  38   100  47  33    99  46  32   108  55  41   115  62  48   111  58  44   111  58  44   110  57  43   108  55  41   104  52  39   104  52  39   107  55  42   110  58  45   112  60  49   112  60  49   113  61  50   113  61  50   113  60  52   114  61  53   114  61  53   113  63  54   108  59  52   106  59  51   110  63  53   115  68  58   113  67  54   103  57  44    96  50  37    94  50  37
160 126 127   142 102 103   138  96  97   144 100  99   140  96  95   137  96  92   138  99  94   131  92  87   121  80  74   116  76  68   116  73  64   118  74  63   120  74  61   116  69  53   115  66  49   119  68  49   125  73  52   121  66  46   113  58  38   110  53  34   112  53  35   114  55  37   115  56  40   115  56  40   112  53  37   115  58  41   118  62  49   112  59  45   105  53  42   103  55  43    98  51  43    83  36  28    83  36  30    77  32  26    77  32  26    81  36  30    81  38  29    78  35  26    75  35  23    76  36  26    72  34  25    71  32  25    68  31  23    65  28  20    63  26  20    62  25  19    61  24  18    62  23  18    65  24  20    71  28  22    78  33  27    84  37  29    89  39  32    95  42  34   101  46  39   105  51  39   104  51  35   101  48  30   102  47  27   104  47  28   108  49  31   111  52  34   114  53  35   114  53  35   117  54  36   118  55  37   117  54  36   116  55  36   120  59  40   123  65  45   122  64  44   117  59  39   114  57  37   111  56  35   107  55  34   106  55  38   100  52  40    85  41  32    67  24  18    49  11   8    43   9   8    37   9   8    30   5   8    23   3   4    19   3   3    19   5   4    22   8   8    22  10  10    17   7   8    16   7   8    16   6   7    17   7   8    18   8   7    21  10   8    24  13  11    25  14  10    20   7   1    20   7   1    22   7   0    25  11   2    29  15   6    34  20   9    41  24  14    44  28  15    55  37  23    62  43  29    67  43  31    67  41  28    69  37  26    71  37  27    74  36  27    74  31  22    76  32  23    80  36  27    80  36  27    76  32  21    76  32  21    79  37  25    79  39  27    78  39  24    78  39  24    77  38  23    76  37  22    77  35  21    75  33  21    72  30  18    71  29  17    67  27  15    68  28  18    62  24  13    55  18   9    53  19   9    57  24  15    64  34  24    71  43  32    78  45  36    92  52  44   104  60  51   108  64  53   118  74  63   129  85  74   121  77  64   117  71  58   132  86  73   117  69  57   113  65  53   120  70  61   123  73  66   119  66  62   118  63  60   123  67  66   124  71  67   120  70  63   117  70  60   111  64  54    99  57  45    93  51  39    86  48  35    79  41  28    70  34  20    65  29  15    67  29  16    68  28  16    72  30  18    75  31  20    80  33  23    85  35  26    86  36  25    88  36  25    90  38  25    93  41  27    96  44  30   100  47  31   102  49  33   105  49  32   105  49  32   110  54  37   109  53  36   116  58  44   119  61  47   116  56  45   119  59  48   125  65  55   124  66  54   124  66  54   125  69  54   134  78  63   145  89  74   147  94  78   142  91  74   137  85  71   134  85  70   142  94  80   150 102  88   157 111  96   155 112  96   148 105  89   139  97  81   137  95  81   138  96  84   137  92  87   127  82  77   137  89  85   145  97  93   138  89  84   135  86  81   135  86  79   125  77  67   130  80  69   129  79  68   128  76  63   124  72  59   125  72  58   125  72  58   119  66  50   110  57  41   113  60  46   115  62  48   114  61  47   110  57  43   109  56  42   111  58  44   114  61  47   114  61  47   109  56  42   103  50  36   103  50  36   103  50  36    97  44  30    99  46  32   107  54  40   107  54  40   104  52  38   107  55  41   109  57  43   106  54  40   102  50  37   101  49  36   106  54  41   110  58  45   110  58  47   114  62  51   119  65  55   119  65  55   116  61  54   115  60  53   115  60  53   116  63  55   109  60  53   105  56  49   107  59  49   114  66  56   113  65  53   104  56  44    99  53  40   100  56  43
135  96  97   132  90  91   134  93  91   136  92  89   126  85  81   128  87  81   130  89  83   123  83  75   121  78  69   116  72  61   114  68  55   115  69  54   115  68  52   113  64  47   117  66  47   124  72  51   127  72  52   121  66  46   114  59  39   113  56  37   115  58  39   115  58  39   112  55  38   108  51  34   106  50  33   113  57  42   119  66  52   116  64  50   107  58  44   106  56  45    97  49  39    79  32  24    81  34  26    78  31  25    80  33  27    82  37  31    83  39  30    78  35  26    76  33  24    74  34  24    68  31  23    65  30  24    63  28  22    60  27  20    58  25  18    57  24  17    56  23  16    57  22  16    61  24  18    66  27  20    73  33  25    79  34  28    83  36  28    89  39  32    98  45  37   104  50  40   102  49  35    99  46  28    98  42  25    99  44  24   105  46  28   109  50  32   113  52  34   113  52  34   114  51  34   113  52  33   111  50  32   110  52  32   116  58  38   122  65  45   120  63  43   114  57  37   113  58  37   109  57  35   105  54  35    99  52  36    89  45  34    73  33  25    55  18  12    41   7   5    36   8   7    32   8   8    29   7   9    26   8   8    25   9   9    25  11  10    25  14  12    26  15  13    22  11   9    21  10   8    19   8   6    18   7   5    21   7   6    23   9   6    26  13   7    27  14   6    25  12   4    27  13   4    30  16   5    36  22  11    43  29  16    51  37  24    60  44  31    66  48  36    72  52  41    80  58  45    82  58  48    79  52  41    76  48  37    78  45  36    77  43  34    75  38  30    75  37  28    77  39  30    74  36  27    67  29  20    65  27  16    70  32  21    74  38  26    76  40  28    76  38  27    75  37  24    75  35  23    73  33  21    70  32  21    68  30  19    66  28  17    65  29  17    57  21   9    53  16   7    49  15   5    54  20  10    64  31  22    74  41  32    80  47  38    85  48  39   100  57  48   112  65  55   115  68  58   123  76  66   133  89  78   124  80  69   121  74  64   138  91  81   115  67  57   111  63  53   119  70  63   130  80  73   130  77  71   129  74  71   129  74  71   126  73  69   120  70  63   119  72  62   112  68  57   102  60  48    95  55  43    90  52  39    81  45  31    72  36  22    63  27  13    64  28  14    66  28  15    69  29  17    75  31  20    81  34  24    85  37  27    87  39  29    85  33  20    86  34  21    90  38  24    93  41  27    97  44  28   100  47  31   103  47  32   104  48  31   110  54  37   108  52  35   114  56  42   116  58  44   114  55  41   116  56  45   122  62  51   119  61  49   118  62  47   122  66  51   132  76  61   139  86  70   141  88  72   137  86  69   137  88  73   142  93  78   144  96  82   151 105  90   156 113  97   153 111  97   146 104  90   141  99  85   145 103  91   150 107  98   146 103  97   125  80  77   125  80  75   140  92  88   144  95  90   147  98  93   143  94  87   127  77  68   120  70  59   126  74  63   127  75  62   125  73  59   125  72  58   124  71  55   118  65  49   110  57  41   106  53  37   115  62  46   119  66  52   113  60  44   107  54  40   109  56  40   113  60  46   113  60  44   107  54  40   103  50  34   106  53  39   104  51  35    97  44  30   100  47  31   105  52  38   100  48  34    94  45  30    99  50  35   104  55  40   103  54  39    99  50  36    99  50  36   107  55  42   113  61  48   109  57  44   115  63  50   122  68  58   123  69  59   119  65  55   115  61  51   115  61  51   116  62  52   113  60  52   105  55  46   106  56  47   114  64  55   113  65  55   106  58  46   104  58  45   110  64  51
136  96  94   135  95  93   128  89  84   119  82  76   119  80  73   123  85  76   123  80  71   116  72  61   118  72  57   118  71  53   118  69  52   114  66  46   113  62  43   112  60  39   113  61  39   117  62  41   119  64  43   117  62  41   114  59  38   110  58  36   109  57  36   110  58  37   111  60  41   112  61  42   111  58  42   114  61  47   114  62  48   114  62  48   112  63  49   109  59  48    94  46  34    80  32  22    83  35  25    76  29  21    80  33  25    82  38  29    77  32  26    74  29  23    76  31  25    72  31  25    64  31  26    60  31  27    55  28  21    49  22  15    47  22  15    50  25  18    50  23  14    45  18   9    52  24  13    58  25  16    65  31  21    73  35  26    82  38  29    88  41  33    93  43  36    98  46  35    96  43  29    98  45  29   101  45  30   101  45  28   102  43  27   103  44  28   108  46  31   110  48  33   113  51  36   111  50  32   107  48  32   107  50  31   110  53  34   111  56  36   109  57  36   108  56  35   107  55  34   107  56  37   103  56  40    91  48  32    73  33  23    54  20  11    40  11   5    33   8   4    37  16  13    35  17  15    33  18  15    32  17  14    30  16  13    30  16  13    32  19  13    34  19  14    36  19  12    37  18  12    36  17  11    34  15   8    33  14   7    34  16   6    35  17   7    37  19   7    44  26  14    49  29  18    52  33  19    54  35  21    61  42  27    72  53  38    78  59  44    80  58  45    83  54  46    91  61  53    97  64  59    93  63  55    92  62  54    91  61  53    86  56  48    79  49  41    77  44  37    76  43  36    69  36  29    62  27  21    59  24  18    65  28  22    69  32  26    68  31  25    71  32  27    72  31  25    71  32  25    70  31  24    69  32  24    66  32  23    63  31  20    61  29  18    55  23  12    56  24  13    56  22  12    64  30  20    83  46  37    92  54  45    95  55  47   102  59  52   114  66  56   120  70  61   124  76  66   130  82  72   132  85  75   125  78  70   123  76  68   133  86  78   116  69  61   119  72  64   123  76  68   124  75  68   123  73  66   125  72  64   127  74  66   128  78  69   119  70  63   119  72  64   110  66  57   105  62  53   107  67  57    99  61  50    85  49  37    82  46  34    75  39  27    72  36  24    70  32  21    68  28  18    67  27  17    71  28  19    75  31  22    80  33  23    83  34  20    86  34  20    87  35  21    90  38  24    94  41  27    96  43  27    97  44  28    98  45  29   105  49  34   111  55  40   111  54  37   106  49  32   109  52  35   121  64  47   126  69  52   123  66  49   124  68  51   131  75  58   137  84  66   139  86  68   136  83  65   133  82  63   133  84  67   137  88  71   138  91  75   145  99  84   143  99  86   138  96  84   139  96  87   139  99  89   146 106  98   158 117 111   163 122 118   156 112 109   140  95  90   130  82  78   137  88  83   149 100  95   147  97  90   136  83  75   133  81  70   120  66  56   125  71  59   133  80  66   125  73  59   124  73  56   124  73  56   114  61  43   108  52  35   115  59  42   118  62  47   113  57  40   109  53  38   110  54  37   110  57  41   111  58  40   102  49  33   103  50  32   102  51  34    99  48  29    95  44  27    93  42  23    95  44  27    95  46  29    88  41  25    94  48  32    97  50  34    94  47  31    96  49  33   104  57  41   108  59  44   107  58  43   101  52  37   109  60  45   119  67  54   119  67  54   115  61  49   109  55  43   108  54  42   110  56  44   111  55  42   114  60  48   115  61  51   110  57  49   108  58  49   112  64  54   112  65  55   108  61  51
127  86  82   125  86  81   120  83  77   113  76  68   109  72  63   110  70  60   112  68  57   114  66  52   114  65  48   116  68  48   118  67  46   117  66  45   116  64  42   114  62  40   116  62  38   117  63  39   114  60  36   114  60  36   113  58  37   110  58  36   108  57  36   108  57  36   106  58  38   109  58  39   113  61  47   113  61  47   114  62  48   118  66  52   116  64  51   105  56  42    91  41  30    80  32  20    82  34  24    74  27  17    78  31  23    80  36  27    75  30  24    72  29  22    75  30  24    70  31  24    57  26  21    52  27  22    46  23  17    38  18  11    38  18   9    41  21  12    41  21  10    39  17   6    44  20   8    49  22  11    57  24  15    66  29  20    74  34  26    82  38  29    90  41  34    93  43  34    94  42  29    97  44  28    98  45  31   101  45  30   101  43  29   103  44  28   105  46  30   107  48  32   112  50  35   109  50  34   108  51  34   108  51  34   109  54  34   110  55  35   108  56  35   106  55  34   101  52  35   101  54  38    96  50  35    83  41  29    64  27  18    47  17   9    39  11   7    33  12   7    38  19  15    38  20  16    36  21  16    34  19  14    33  18  11    36  19  12    41  24  16    46  28  18    49  24  17    51  24  15    51  24  15    51  24  15    53  26  17    55  28  17    58  31  20    61  35  22    60  33  22    65  39  26    67  41  28    68  42  29    73  47  32    83  57  42    90  64  49    92  64  52    87  52  46    92  54  51    91  56  52    90  57  52    92  59  54    92  61  56    88  59  53    83  54  48    80  51  45    78  49  43    71  42  36    63  32  27    60  27  22    62  29  24    64  29  25    62  27  23    65  27  24    65  27  24    65  28  22    62  27  21    60  27  20    58  28  20    57  29  18    58  30  19    59  31  20    68  38  28    73  39  29    80  43  34    94  54  46   103  60  53   106  61  55   113  66  58   124  74  65   127  77  66   126  76  67   127  79  69   132  85  77   131  84  76   129  82  76   136  89  83   123  76  70   121  74  68   118  71  63   118  71  63   120  72  62   122  72  63   123  71  60   119  69  58   119  70  63   119  72  64   110  66  57   106  63  54   107  67  57    99  61  50    87  49  38    84  48  36    79  43  31    73  37  25    68  30  19    65  27  16    68  28  18    72  32  22    76  33  24    77  33  22    83  34  20    85  33  19    87  35  21    89  37  23    93  40  26    95  42  28    96  43  27    97  44  28   105  49  34   110  54  39   111  54  37   106  49  32   108  51  34   119  62  45   124  67  48   121  64  45   124  68  51   131  75  58   135  82  64   136  83  65   132  81  62   130  79  60   130  81  64   133  86  68   142  95  79   144 101  85   142  98  85   140  98  86   146 106  98   149 109 101   145 104 100   143 102  98   147 106 102   152 111 107   150 105 100   136  91  86   131  82  77   133  84  77   139  86  80   137  84  76   131  77  67   118  64  52   122  68  56   128  75  61   120  69  52   120  69  52   124  73  54   117  64  46   111  55  38   116  59  42   115  59  42   109  53  36   106  50  33   108  52  35   109  56  38   109  56  38   102  49  31   102  49  31   100  49  30    98  47  28    97  46  27    97  46  27    98  47  28    98  50  30    88  42  26    89  46  29    96  50  34    97  51  35    96  49  33    99  52  36   104  57  41   103  56  40    97  48  33   105  56  41   114  62  48   114  62  48   110  57  43   106  53  39   108  55  41   112  59  45   111  55  40   113  57  44   111  57  45   110  58  47   109  60  53   111  62  55   110  63  53   108  61  51
116  77  72   115  76  71   113  76  68   109  72  64   103  65  56    98  58  48   103  59  46   111  63  49   109  60  43   114  63  44   117  66  45   117  66  45   117  65  43   117  62  41   118  62  39   119  63  40   114  58  35   113  59  35   114  59  38   112  60  38   111  60  39   110  59  38   109  58  39   108  57  38   118  65  51   116  63  49   118  65  51   123  71  57   120  68  55   103  54  40    89  39  28    81  33  21    79  31  21    72  25  15    75  28  20    78  34  25    73  30  23    69  29  21    72  29  22    66  29  21    53  24  18    46  23  15    41  18  10    33  13   4    33  13   4    36  18   8    38  20   8    39  19   8    39  17   6    42  18   6    50  20  10    59  25  16    68  29  22    75  35  27    83  38  32    87  40  32    88  40  28    91  42  27    95  43  30    97  44  30    98  45  31   100  44  29   103  45  31   104  46  32   108  49  35   108  50  36   109  52  35   109  52  35   108  53  33   107  52  32   106  54  33   105  54  35    97  50  34    93  49  36    86  44  32    72  32  22    54  20  11    42  12   4    41  13   9    41  17  13    43  22  17    44  25  19    46  25  20    44  24  17    42  22  13    46  23  15    53  31  20    60  36  24    64  34  24    66  33  24    66  33  24    68  35  26    71  38  29    75  43  32    78  46  35    80  48  35    76  44  33    80  48  35    83  51  38    83  51  38    85  53  40    90  58  45    96  64  49   100  66  54    94  57  51    91  53  50    85  50  46    83  50  45    87  54  49    88  57  52    84  55  49    77  50  43    81  54  47    80  53  46    73  46  39    63  36  29    58  29  23    58  29  23    56  27  21    54  23  18    56  23  16    57  24  17    56  23  16    53  23  15    51  22  14    52  25  16    57  30  19    61  34  23    64  36  25    79  49  39    87  53  43    90  52  43   102  59  52   111  66  60   114  67  61   118  69  62   131  81  72   134  84  73   130  80  71   126  78  68   131  84  76   132  85  77   126  81  75   127  82  76   123  78  72   119  74  68   116  69  61   115  68  60   118  70  60   120  72  62   121  71  60   120  70  59   118  69  62   118  71  63   113  66  58   109  65  56   109  66  57   102  62  52    91  53  42    89  51  40    86  50  38    78  42  30    68  32  20    64  28  16    68  30  19    72  34  23    73  33  23    74  32  20    81  33  19    83  34  19    85  36  21    86  37  22    90  38  24    92  40  26    94  41  25    95  42  26   104  48  33   109  53  38   109  53  36   105  49  32   108  51  34   117  60  43   122  65  48   119  62  45   124  68  53   130  74  59   133  80  62   132  79  61   128  77  58   127  76  57   128  79  62   130  83  65   147 100  84   144 101  85   137  93  80   137  95  83   148 108 100   152 112 104   139  98  94   129  88  84   126  85  81   141 100  96   153 108 103   149 104  99   143  94  89   138  89  82   139  86  80   137  84  76   130  76  66   118  64  52   119  65  53   123  70  56   115  62  46   115  62  46   120  69  50   118  65  47   112  56  39   115  58  41   111  55  38   106  50  33   104  48  31   108  52  35   108  55  37   106  53  35   103  50  32   101  48  30    98  47  28    97  46  27    99  48  29   101  50  31   103  52  33   101  53  33    91  44  28    87  41  25    97  51  35   103  57  41    96  49  33    94  47  31   101  54  38   101  54  38    92  43  28    99  50  35   108  56  42   107  55  41   104  51  37   103  50  36   108  55  41   115  62  48   108  55  39   106  53  39   105  53  40   108  58  47   111  62  55   110  63  55   108  61  51   107  60  50
113  74  69   109  70  63   108  69  62   109  71  62   106  66  56   102  60  48   104  61  45   113  66  50   109  60  43   113  62  43   115  64  43   116  64  43   117  62  41   116  61  40   117  61  38   118  62  39   116  60  37   116  60  37   115  60  39   115  60  39   113  61  40   112  61  40   112  61  42   114  61  43   121  65  52   122  66  53   126  70  57   128  75  61   123  69  57   109  57  44    93  43  32    86  38  26    76  29  19    67  23  12    71  27  18    76  33  24    71  31  23    67  29  20    67  29  20    60  26  17    53  26  17    44  24  15    37  17   8    31  13   3    31  13   3    36  18   8    41  23  11    44  26  14    40  20   9    46  22  12    53  24  16    59  29  19    66  31  25    72  33  26    75  34  28    78  35  28    84  37  27    86  40  27    90  40  29    93  44  30    96  44  31    97  44  30    99  43  30    99  43  28   102  46  31   106  48  34   109  52  35   109  52  35   106  51  31   105  50  30   103  51  30   103  52  33    94  48  33    88  46  34    79  39  29    63  26  17    49  14   8    42  11   6    47  18  12    51  26  21    52  27  22    56  31  26    60  35  28    60  33  24    57  29  18    58  30  18    65  36  22    73  41  28    78  42  30    78  40  29    78  40  29    80  42  31    83  45  34    87  49  38    89  51  40    89  51  40    88  50  39    93  55  44    98  60  49    97  59  48    95  57  46    94  56  45    96  58  45    98  60  49    99  60  55    91  53  50    83  45  42    77  44  39    79  46  41    77  48  42    71  42  36    63  36  29    71  46  39    71  46  39    66  41  34    58  33  26    53  28  21    52  27  20    52  25  18    48  21  14    50  21  13    52  23  15    52  25  16    51  24  15    50  23  14    53  29  19    62  38  26    72  45  34    75  47  36    89  59  49    95  61  51    96  58  49   110  67  60   123  76  70   124  75  70   122  72  65   129  79  70   137  89  77   135  87  77   127  80  70   128  81  73   125  81  72   118  73  67   116  71  65   128  83  77   126  81  75   121  77  68   118  71  63   115  68  58   115  67  57   119  69  58   122  72  61   117  67  58   115  66  59   113  64  57   112  65  57   111  67  58   107  64  55    99  59  49    95  57  46    94  56  45    86  50  38    76  40  28    69  33  21    67  29  18    68  30  19    71  31  21    74  32  20    80  32  18    83  34  19    85  36  21    86  37  22    89  37  23    90  38  24    93  40  24    95  42  26   103  47  32   107  51  36   108  52  35   106  50  33   110  53  36   118  61  44   123  66  49   122  65  48   123  67  52   130  74  59   132  79  61   130  77  59   127  76  57   129  78  59   130  81  64   130  83  65   146  98  84   142  99  83   136  92  81   138  95  86   149 109 101   152 111 105   145 104 100   142 101  97   134  93  89   140  96  93   147 102  97   152 107 102   157 108 103   152 103  96   142  92  85   133  80  72   132  78  68   122  68  56   122  68  56   122  69  55   113  60  44   111  58  42   114  63  44   114  61  43   111  55  38   113  56  39   109  53  36   106  50  33   107  51  34   111  55  38   109  56  38   105  52  34   106  53  35   102  49  31    96  45  26    97  46  27   100  49  30   104  53  34   104  53  34   101  53  33    95  48  32    86  40  24    99  53  37   110  64  48    97  50  34    91  44  28    98  51  35   100  53  37    91  42  27    97  48  33   103  51  37   103  51  37   101  48  34   102  49  35   110  57  43   117  64  50   108  55  39   101  49  35    99  50  36   107  59  47   111  64  56   109  62  54   106  59  49   107  60  50
109  72  64   103  65  56   101  63  54   107  67  57   110  68  56   108  64  51   107  64  47   112  67  48   112  64  44   115  64  45   115  63  42   114  62  41   113  58  37   113  58  37   115  59  36   117  61  38   115  59  36   114  58  35   112  57  36   112  57  36   110  58  37   112  60  39   113  62  43   116  63  45   121  63  51   128  70  58   134  76  64   132  76  63   124  70  58   115  63  50   102  52  41    92  44  32    76  29  19    67  23  12    70  27  18    74  34  24    70  32  23    66  29  20    63  26  17    55  23  12    49  25  13    42  22  11    36  16   5    31  13   1    31  13   1    34  18   5    41  25  12    48  30  18    49  29  20    55  32  24    63  36  29    66  37  29    68  35  30    66  31  25    67  30  24    68  29  22    77  34  25    78  36  24    84  37  27    88  41  31    91  43  33    92  42  31    93  41  28    93  40  26    95  42  28   101  45  30   105  49  32   106  50  33   104  49  29   102  47  27   102  47  27    99  48  31    89  47  33    83  45  36    73  36  27    59  25  16    49  16   9    47  16  11    55  24  19    63  34  28    61  32  26    67  38  30    74  44  34    76  44  33    73  39  27    72  36  22    77  40  24    82  43  28    88  46  34    87  45  33    87  45  33    91  49  37    95  53  41    98  56  44    98  56  44    97  55  43    98  56  44   103  61  49   109  66  57   109  66  57   104  61  52    97  54  45    94  51  42    92  52  44    97  56  52    87  49  46    80  42  39    75  42  37    75  42  37    68  39  33    60  31  25    53  26  19    61  36  29    63  38  31    59  36  28    53  30  22    51  28  20    53  30  22    53  28  21    50  25  18    51  27  17    54  30  20    56  32  22    57  33  23    59  35  23    66  42  30    76  52  40    86  59  48    94  66  54   105  73  62   104  67  58   105  65  57   123  79  70   138  89  82   136  86  79   129  79  72   128  78  69   139  91  79   138  90  80   128  81  71   124  80  71   121  78  69   117  74  67   119  76  69   134  91  84   131  88  81   125  82  73   120  76  67   117  70  60   115  68  58   117  69  57   119  69  58   115  65  56   113  63  54   114  64  55   115  67  57   113  66  56   111  67  56   108  66  54   103  63  51    98  60  47    96  58  45    90  52  39    79  41  28    67  31  17    62  26  12    65  27  14    71  31  19    77  31  16    81  33  19    84  36  22    85  37  23    86  37  22    87  38  23    92  40  26    94  42  28   100  47  31   103  50  34   107  51  36   107  51  36   113  56  39   120  63  46   124  67  50   125  68  51   122  66  51   129  73  58   131  78  62   129  76  60   128  77  60   133  82  65   134  85  68   133  86  68   139  91  77   141  98  82   143  99  88   148 105  96   154 114 106   153 112 106   152 111 107   160 119 115   157 113 110   149 105 102   144  99  94   145 100  95   150 101  96   146  97  90   139  89  82   133  80  72   135  81  71   127  73  61   126  72  60   125  72  58   116  63  47   109  56  40   109  56  38   108  55  37   108  52  35   111  54  37   110  54  37   109  53  36   112  56  39   116  60  43   111  58  40   105  52  34   108  55  37   103  50  32    97  46  27    97  46  27   100  49  30   103  52  33   102  51  32    97  49  29    98  51  35    89  42  26   102  55  39   113  66  50    99  52  36    90  43  27    98  49  34   101  52  37    93  44  29    97  48  33   102  50  36   102  50  36   100  48  34   103  51  37   110  58  44   116  64  50   107  56  39    99  50  35    97  49  35   104  58  45   110  63  55   106  62  53   105  58  48   106  59  49
102  65  56    98  60  49    97  57  47   103  61  49   108  64  51   108  65  49   106  63  44   107  62  41   113  65  45   115  64  45   115  63  42   112  60  39   111  56  35   110  55  34   113  57  34   115  59  36   112  56  33   111  55  32   109  54  33   108  53  32   107  55  34   110  58  37   112  61  42   115  62  44   121  63  51   132  72  61   138  78  67   134  76  64   126  69  58   119  65  53   110  58  47    99  51  39    81  34  24    69  27  15    68  28  18    72  34  23    68  31  22    63  29  19    61  27  17    53  23  12    47  23  11    39  20   6    34  15   1    31  13   1    31  13   1    33  17   4    43  25  13    51  33  21    60  40  31    67  44  36    72  47  40    73  44  38    66  35  32    61  27  25    60  25  23    63  25  22    69  30  23    71  33  24    75  35  27    82  39  30    86  42  33    88  41  31    87  39  27    85  36  22    89  37  24    92  40  26    97  44  28   100  47  29   102  46  29   100  45  25    98  43  23    93  44  27    85  45  33    79  42  33    69  35  26    60  26  17    54  21  14    54  23  18    64  31  26    72  39  32    71  38  31    77  44  35    86  49  40    88  50  39    86  46  34    85  43  29    87  44  28    89  46  30    92  48  35    92  50  36    95  53  39   100  58  44   107  65  53   110  68  56   108  66  54   105  63  51   103  61  49   106  63  54   111  68  59   113  70  61   108  65  58    99  56  49    93  50  43    92  49  42    86  47  42    81  43  40    77  42  38    77  42  38    76  43  38    69  38  33    63  34  28    60  33  26    64  37  30    64  39  32    63  38  31    59  34  27    59  34  27    63  38  31    64  39  32    62  38  28    63  39  29    66  42  32    69  45  35    72  48  38    75  51  39    82  58  46    92  65  54    99  72  61   107  77  66   112  78  68   108  70  61   111  68  61   129  82  74   141  91  84   136  83  77   129  76  68   130  82  72   137  91  78   135  88  78   127  83  72   126  83  74   124  81  72   123  80  73   128  85  78   127  84  77   121  78  71   116  73  64   116  73  64   122  78  67   126  79  69   124  76  64   120  72  60   117  64  56   115  62  54   118  65  57   118  68  59   114  66  56   114  67  57   113  69  58   108  66  54   101  61  49   103  65  52   101  63  50    89  51  38    71  35  21    61  25  11    63  25  12    70  31  16    73  29  16    79  33  18    84  36  22    85  37  23    85  38  22    87  38  23    91  42  27    97  45  31    99  46  30   101  48  32   106  50  35   108  52  37   113  56  39   119  62  45   123  66  49   124  67  50   120  64  49   129  73  58   132  79  63   130  77  61   130  79  62   136  85  68   137  88  71   133  86  70   134  86  72   141  97  84   147 103  92   150 107  98   151 111 103   146 105  99   142 101  97   147 106 102   149 105 102   146 102  99   147 102  97   146 101  96   141  94  88   133  84  77   131  81  74   134  84  75   132  80  69   127  73  61   125  71  59   125  72  58   119  66  50   112  59  43   107  54  36   106  53  35   108  51  34   111  54  37   111  55  38   111  55  38   113  57  40   116  60  43   111  58  40   105  52  34   106  53  35   102  49  31    97  46  27    97  46  27   100  49  30   101  50  31    98  47  28    93  45  25    99  50  35    91  44  28   101  54  38   110  63  47   100  53  37    91  44  28    97  48  33    99  50  35    97  48  33    98  49  34   102  50  36   103  51  37   103  51  37   105  53  39   108  56  42   109  60  45   105  56  39   100  53  37    98  52  37   100  56  43   104  60  51   105  61  52   106  59  49   106  59  49
 96  59  50    99  61  50   101  59  47   101  57  44   104  58  43   106  60  44   104  62  40   103  58  37   111  63  43   113  62  43   114  62  41   112  60  39   112  57  36   111  54  34   112  56  33   113  57  34   112  56  33   112  56  33   112  55  35   111  56  35   111  59  38   113  61  40   114  63  44   116  63  45   124  64  53   131  71  60   137  77  66   134  76  64   126  69  58   116  62  50   109  57  46   103  55  43    87  43  32    73  31  19    66  28  17    67  31  19    62  28  18    60  28  17    60  30  19    56  28  16    48  25  11    42  20   6    38  16   2    36  17   3    36  17   3    38  20   6    48  28  17    57  37  26    68  48  39    75  52  44    78  53  48    73  44  40    61  30  28    54  20  19    56  20  20    60  25  23    62  27  21    64  30  21    70  33  25    76  37  30    81  41  33    83  40  31    81  37  26    79  33  20    81  33  21    84  35  21    90  38  24    94  43  26    98  45  27    97  44  26    94  41  23    88  39  24    82  42  30    76  39  30    67  33  23    62  28  19    60  26  17    63  30  23    70  35  29    74  39  33    79  42  36    83  46  38    90  50  42    94  51  42    95  51  40    96  50  37    97  49  35    97  51  36    97  55  41    95  56  41    99  59  47   106  66  54   112  72  60   113  73  61   109  69  59   103  63  53    99  59  49    99  59  51   102  62  54   106  66  58   103  62  56    95  54  48    89  48  42    88  49  42    79  40  35    78  41  35    79  44  38    82  47  41    80  47  40    74  44  36    76  46  38    79  50  42    80  51  43    82  53  45    80  51  43    74  47  38    75  48  39    79  52  43    81  54  45    80  53  44    79  52  43    81  54  43    85  58  47    88  61  50    92  65  54    97  70  59   103  75  63   106  76  65   116  82  72   119  82  73   115  75  65   119  75  66   132  83  76   135  85  78   128  75  69   125  72  64   132  84  74   133  87  74   131  84  74   131  87  76   134  91  82   128  85  76   117  77  69   118  78  70   109  69  61   106  66  58   107  64  55   113  70  61   123  79  68   127  83  72   125  79  66   121  73  61   121  68  60   117  64  56   121  68  60   120  70  61   115  65  56   114  66  56   115  68  58   108  64  53   104  62  50   106  66  54   104  66  53    95  57  44    79  43  29    67  31  17    64  28  14    66  29  13    71  29  15    76  33  17    83  37  22    85  39  24    84  38  23    87  39  25    93  44  29    97  48  33    99  47  33   101  48  34   104  48  33   107  51  36   111  53  39   114  56  42   117  59  45   119  61  47   120  64  51   129  73  60   132  79  63   130  77  61   130  79  62   137  86  69   135  86  71   129  82  66   133  85  71   142  98  85   143  99  88   140  97  88   148 108 100   153 112 106   145 104 100   136  95  93   135  91  88   139  94  91   147 102  97   152 107 102   144  97  91   129  80  73   125  75  68   131  81  72   126  74  63   120  68  55   118  64  52   120  67  53   121  68  52   115  62  46   111  58  40   110  57  39   109  52  35   112  55  38   111  55  38   109  53  36   110  54  37   112  56  39   107  54  36   102  49  31   101  48  30    99  46  28    97  46  27    97  46  27    99  48  29    99  48  29    96  45  26    91  43  23    97  48  33    93  46  30    98  51  35   103  56  40    99  50  35    93  44  29    94  45  30    97  48  33   100  51  36   100  51  36   100  51  36   102  53  38   103  54  39   104  55  40   102  53  38   101  52  37   104  57  39   103  57  41   102  56  41    98  54  41   100  56  47   103  60  51   106  62  51   107  60  50
 94  58  46   102  64  51   108  66  52   105  59  44   102  55  39   104  57  39   105  60  39   103  58  35   107  59  39   111  60  41   114  62  41   116  61  41   114  57  37   112  55  35   111  55  32   112  56  33   115  59  36   116  60  37   118  61  41   119  62  42   120  65  45   119  67  46   120  67  49   120  67  49   127  67  56   131  69  58   135  75  64   135  77  65   127  69  58   111  57  45   105  53  42   105  57  45    93  49  38    75  35  23    66  28  17    62  28  16    57  25  14    57  27  16    60  32  20    58  32  19    54  28  15    49  23  10    44  21   7    45  22   8    44  22   9    46  24  11    55  33  22    66  44  33    74  49  42    79  54  49    81  53  50    71  41  39    55  24  22    48  14  15    52  18  19    59  25  24    57  26  23    59  28  23    65  32  27    70  37  30    78  41  33    78  41  32    76  36  26    74  32  20    75  31  20    78  32  19    83  35  21    89  40  25    95  44  27    96  43  27    92  39  23    85  36  21    82  40  28    73  37  25    67  31  19    62  28  18    65  28  19    67  33  24    73  36  28    76  39  31    83  44  37    85  46  39    92  49  42    95  51  42    99  52  42   101  53  41   102  54  40   103  57  42    99  60  45    98  62  48   102  64  51   107  71  59   113  75  64   110  74  62   104  66  57    96  59  50    93  54  47    89  52  44    92  53  46    95  58  52    95  56  51    88  51  45    86  47  42    86  49  43    78  41  35    78  43  37    83  48  42    86  51  45    84  49  43    81  48  41    86  53  46    95  62  55    97  64  57    98  65  58    96  63  56    89  59  51    90  57  50    93  63  55    97  64  57    95  62  55    93  60  51    92  62  52    95  65  55    99  69  59   103  73  63   108  75  66   109  77  66   111  77  67   126  89  80   130  90  82   130  87  78   134  87  79   139  90  83   134  84  77   127  74  68   128  75  67   130  82  70   128  82  69   125  81  70   135  91  80   142  99  90   129  86  77   106  66  58    99  59  51   105  65  57   106  66  58   111  68  59   114  71  62   117  73  62   117  73  62   115  69  56   114  66  54   125  72  64   121  66  59   124  69  62   124  71  63   116  63  55   114  64  55   115  67  57   108  61  51   106  62  51   107  65  53   104  64  52    97  59  46    86  48  35    74  38  24    66  30  16    64  27  11    70  28  14    75  33  17    81  38  22    83  40  24    83  40  24    87  41  26    93  46  30    99  50  35    97  48  33    99  47  33   101  48  32   105  49  34   108  50  36   110  52  38   112  54  40   114  56  42   119  63  50   129  73  60   132  79  63   129  76  60   130  79  62   135  84  67   133  84  69   125  78  62   134  86  74   141  97  86   137  93  84   132  89  82   154 113 107   177 136 132   171 130 128   154 110 109   144  99  96   141  96  93   145 100  95   151 106 101   147 100  94   130  83  75   121  72  65   122  72  63   120  68  57   115  63  50   112  58  46   116  63  49   120  67  51   118  65  49   115  62  44   118  62  45   112  55  38   114  57  40   111  55  38   107  51  34   105  49  32   107  51  34   104  51  33   100  47  29    97  44  26    97  44  26    96  45  26    97  46  27    99  48  29    98  47  28    95  44  25    92  41  22    94  45  30    93  46  30    95  48  32    97  50  34    97  48  33    93  44  29    92  43  28    94  45  30   101  52  37   100  51  36    99  50  35   102  53  38   105  56  41   104  55  40    99  50  35    94  47  31   102  57  38   104  61  44   102  59  43    96  54  40    96  53  44   102  59  50   107  63  52   105  61  50
100  64  50    97  60  44    97  53  40    96  50  35    98  49  34   101  52  35   104  57  37   107  61  38   111  60  41   112  59  41   114  59  39   113  58  38   112  55  35   109  52  32   107  49  27   105  47  25   111  53  31   112  54  32   114  57  37   117  60  40   114  59  39   109  57  36   113  60  42   122  66  49   137  75  64   140  78  67   135  75  64   127  69  57   124  66  55   119  65  53   112  62  51   106  60  47    96  54  42    83  45  32    71  35  23    65  31  19    58  28  17    54  26  14    55  27  15    57  31  18    53  25  13    54  26  14    55  27  15    55  27  15    55  28  17    59  32  21    65  38  29    71  44  37    75  47  43    75  46  42    71  41  39    64  32  33    57  25  26    54  19  23    53  18  22    52  20  21    50  20  18    51  23  19    56  27  23    62  33  27    71  38  31    73  40  31    73  36  28    71  33  24    71  31  21    75  33  21    79  35  22    82  36  21    84  35  21    85  33  19    85  33  19    84  35  20    81  39  25    75  37  24    72  34  21    68  32  20    70  32  21    72  35  26    77  39  30    80  41  34    82  43  36    97  58  51   102  59  52    96  53  46   102  58  49   111  64  56   109  62  52   104  60  49   108  70  59   100  66  54    99  63  51   100  66  56   107  70  61   104  70  60    98  61  53    89  55  46    88  51  45    86  51  45    82  45  39    80  45  41    91  53  50    92  57  53    92  54  51    92  57  53    81  46  40    84  49  43    84  49  43    82  47  41    84  49  43    94  57  51    99  62  56    99  62  56    98  61  55    94  57  51    95  58  52    94  57  51    94  55  50   102  65  59   107  68  63    97  58  53   100  61  54   108  69  62   108  69  62   106  69  61   110  73  64   112  74  65   116  78  69   127  87  79   127  84  75   126  83  74   134  90  81   137  90  82   129  81  71   130  80  71   138  85  77   134  84  75   143  95  83   133  87  74   128  84  73   135  91  80   132  89  80   117  74  65   103  63  55   104  64  56   103  63  55   106  66  58   114  71  62   119  76  67   121  77  66   117  73  62   115  69  56   114  66  54   117  63  53   116  62  52   120  66  56   116  64  53   111  59  48   118  68  57   125  75  64   117  69  57   114  68  55   113  69  56   107  65  51    96  57  42    87  50  34    81  44  28    72  36  20    65  28  12    68  29  14    68  29  14    78  36  22    81  39  25    78  35  19    84  38  23    90  44  29    91  43  29    91  42  27    96  44  30   101  48  34   104  51  37   109  53  38   113  57  42   119  61  47   122  64  50   113  57  44   119  63  50   121  68  54   123  70  56   126  74  60   131  79  65   129  80  65   124  77  61   134  86  74   148 104  93   137  93  84   123  80  73   151 110 104   164 123 119   149 108 106   167 123 122   152 107 104   140  92  90   130  82  78   135  87  83   148 101  95   149 102  94   134  85  78   118  70  60   115  65  54   117  68  54   122  70  57   123  71  57   117  64  48   110  57  41   112  56  39   117  61  44   116  59  42   114  57  40   110  54  37   109  53  36   108  52  35   106  50  33   101  48  30    99  46  28    95  42  24    99  46  28    99  48  29    97  46  27    97  46  27    99  48  29    98  47  28    94  43  24    92  43  28    93  44  29    94  45  30    95  46  31    95  46  31    94  45  30    92  43  28    91  42  27   102  53  38   104  55  40    98  49  34    96  47  32   100  53  37   100  53  37    97  50  34   100  53  37   101  56  37   101  58  41   102  59  43   101  59  45    99  56  47    99  56  47   102  58  47   104  60  49
 98  61  45    96  57  42    96  53  37    97  50  34    98  49  34   102  51  32   103  55  35   105  57  35   109  56  38   109  56  38   113  58  38   113  58  38   113  56  36   110  53  33   108  50  28   106  48  26   110  52  30   111  53  31   114  56  36   116  59  39   114  59  39   112  57  37   115  62  44   125  69  52   133  71  60   137  75  64   134  74  63   128  70  58   123  66  55   119  65  53   112  62  51   105  59  46    96  54  42    84  46  33    74  38  26    66  34  21    61  31  20    55  27  15    54  28  15    58  30  18    57  27  16    57  27  16    58  26  15    56  26  15    57  27  17    60  31  23    65  36  30    68  39  33    69  40  36    68  38  36    65  33  34    59  27  28    55  20  24    50  15  19    49  14  18    48  16  19    45  17  16    45  20  16    49  24  19    57  29  25    64  35  29    68  38  30    70  37  30    69  35  26    71  34  25    74  34  24    77  35  23    78  34  21    79  31  19    79  31  17    81  32  18    82  34  20    79  37  23    76  37  22    72  34  21    70  32  19    71  33  22    73  35  24    76  38  29    78  40  31    90  51  44   100  61  54   100  59  53    94  53  47   100  57  51   104  61  55   105  60  54   105  62  55   101  64  56    97  63  54    97  63  54   101  67  58   105  71  62   106  71  65   101  66  60    95  60  54    93  58  54    92  57  53    83  48  44    81  46  42    88  53  51    90  55  53    87  52  50    90  55  51    88  55  48    89  56  49    87  52  46    80  45  39    82  45  39    90  51  46    97  58  53   101  60  56    93  52  48    89  48  44    93  49  46    96  52  49    95  51  48   102  58  55   107  63  60   100  57  51   104  59  54   110  65  60   109  66  60   110  67  61   115  72  65   118  75  68   122  77  71   131  86  80   122  78  69   123  76  68   129  82  74   129  80  73   121  73  63   124  74  65   135  82  74   135  85  76   139  91  79   135  89  76   130  83  73   123  79  68   119  76  67   118  75  66   120  80  72   124  84  76   106  66  58   108  68  60   112  69  60   114  71  62   117  73  62   119  75  64   120  74  61   118  70  58   116  62  52   116  59  50   118  64  54   117  63  53   112  60  49   118  66  55   125  73  62   120  70  59   117  69  57   115  69  56   108  64  51   100  58  44    94  55  40    90  53  37    82  45  29    72  35  19    69  32  16    68  29  14    74  35  20    78  39  24    77  35  19    81  38  22    87  44  28    87  41  26    91  44  28    95  46  31   101  49  35   104  51  37   107  51  36   109  53  38   115  57  43   118  60  46   118  62  49   121  65  52   120  67  53   119  66  52   121  69  55   128  76  62   129  80  65   127  79  65   126  78  66   139  95  84   143  99  90   134  91  84   145 104 100   146 105 101   133  92  90   151 107 106   154 109 106   141  93  91   130  82  78   135  87  83   146  99  93   147 100  92   139  90  83   131  83  73   117  67  56   116  67  53   119  67  54   120  68  54   118  65  49   112  59  43   113  57  40   117  61  44   115  58  41   112  55  38   108  52  35   106  50  33   107  51  34   107  51  34   104  51  33   103  50  32    95  42  24    98  45  27    97  46  27    94  43  24    94  43  24    98  47  28    98  47  28    95  44  25    91  42  27    92  43  28    92  43  28    92  43  28    92  43  28    92  43  28    91  42  27    91  42  27    96  47  32    98  49  34    94  45  30    94  45  30   100  53  37   102  55  39   100  53  37   103  57  41   102  57  38   101  58  41   100  58  42    98  56  42    95  55  45    98  55  46   102  58  47   105  61  50
 94  55  38    93  54  37    95  52  36    97  50  34    98  49  34   101  50  31   103  52  33   105  53  32   105  52  34   109  53  36   111  56  36   113  58  38   114  57  37   113  55  35   112  51  30   110  49  28   114  53  32   111  53  31   112  54  34   114  57  37   113  58  38   113  58  38   120  64  47   129  72  55   125  65  54   132  70  59   134  74  63   130  72  60   123  66  55   118  66  53   114  64  53   107  61  48    98  56  44    86  48  35    76  40  28    69  37  24    63  33  22    57  29  17    55  29  16    58  30  18    62  30  19    60  28  17    59  25  16    58  25  16    60  27  20    60  30  22    63  32  27    64  33  28    61  30  27    61  30  28    59  27  28    55  23  24    50  18  21    47  15  18    46  14  19    45  15  17    38  12  11    39  15  11    42  18  14    49  24  19    55  30  25    61  34  27    64  35  27    65  35  25    69  36  27    73  36  27    73  35  26    72  32  22    74  30  21    76  29  19    79  31  21    81  35  22    78  36  22    75  36  21    73  34  19    72  32  20    72  34  23    74  36  25    76  38  29    78  40  31    94  57  49    99  62  54    98  59  52    96  57  52    98  59  54    95  56  51    93  54  49    98  59  54    93  56  50    95  58  52    98  61  55   102  65  59   107  70  64   110  72  69   108  70  67   104  66  63   105  67  66   103  65  64    92  54  53    87  49  48    91  53  52    91  53  52    88  50  49    89  54  50    93  60  53    96  63  54    95  61  52    88  54  45    86  49  41    91  52  45    99  58  52   106  63  57    98  55  49    94  51  45    98  53  48   104  59  54   103  58  53   104  59  54   105  60  55   105  57  53   106  57  53   111  62  57   110  61  56   111  62  57   119  70  65   122  73  68   124  77  69   131  84  76   120  73  65   123  74  67   129  81  71   128  80  70   121  73  63   121  73  63   128  78  69   130  80  71   131  83  71   135  89  76   133  86  76   122  78  67   118  75  66   125  82  73   126  83  76   119  76  69   106  63  56   112  69  62   115  72  63   116  73  64   122  78  67   130  83  73   128  80  68   120  70  59   112  60  49   109  55  45   112  58  48   115  61  51   112  58  48   112  60  49   118  66  55   119  69  58   123  73  62   120  72  60   113  67  54   105  61  48   102  60  46    99  60  45    89  52  36    78  41  25    71  34  18    66  29  13    70  33  17    75  36  21    74  35  20    80  38  24    85  42  26    83  37  22    90  42  28    95  46  32   102  50  36   103  50  36   104  48  35   105  49  36   110  52  40   114  56  44   118  61  50   121  64  53   120  67  53   120  67  53   121  69  55   126  74  60   127  78  64   126  78  64   124  76  64   120  76  65   130  86  77   138  95  88   150 109 105   156 115 111   145 104 102   147 103 102   161 116 113   152 104 102   142  94  90   142  94  90   143  96  90   139  92  84   132  85  77   127  80  70   117  69  57   114  65  51   115  63  50   118  66  52   120  67  51   118  62  47   116  59  42   117  60  43   116  59  42   113  56  39   107  51  34   105  49  32   105  49  32   106  50  33   104  51  33   103  50  32    95  42  24    97  44  26    95  44  25    91  40  21    92  41  22    97  46  27    98  47  28    97  46  27    93  41  27    93  41  27    92  40  26    92  40  26    92  40  26    92  40  26    91  42  27    91  42  27    94  45  30    96  47  32    90  43  27    90  43  27    98  51  35   101  54  38   100  53  37   103  57  41   102  57  38   100  57  40    98  56  40    97  55  41    96  53  44    97  54  45   101  57  46   104  60  49
 93  51  35    93  51  35    94  51  35    96  50  35    98  49  34   101  50  33   102  49  31   104  49  29   106  50  33   108  52  35   111  56  36   114  57  38   115  57  37   112  54  34   111  50  29   109  48  27   116  55  34   114  53  32   112  54  34   114  56  36   113  56  37   113  58  38   120  64  47   129  72  55   121  61  50   126  66  55   133  73  62   131  73  61   122  68  56   122  70  57   119  69  58   111  65  52   100  58  46    87  49  36    77  41  29    70  38  25    64  34  23    58  30  18    56  30  17    59  31  19    62  30  19    60  26  17    58  24  15    57  23  14    59  26  19    60  27  20    58  27  22    57  26  23    55  24  22    55  24  22    53  21  22    50  20  20    48  18  20    45  15  17    44  13  18    43  14  16    35  11   9    35  14   9    37  16  11    43  19  15    48  25  19    53  28  23    56  31  24    59  32  23    65  35  27    68  35  26    71  34  26    72  34  25    74  31  24    74  31  22    78  34  25    80  36  25    76  36  24    73  36  20    73  33  21    72  34  21    73  35  24    76  38  27    80  42  33    81  44  35    91  54  46    93  56  48    93  56  50    92  57  51    96  58  55    85  50  46    80  45  41    87  52  48    88  50  47    93  55  52    99  61  58   102  64  61   106  68  65   110  72  69   110  72  69   108  70  67   110  72  69   108  70  67    96  58  57    89  51  48    91  53  52    90  52  49    87  49  48    89  54  50    85  52  45    90  60  50    98  64  55    96  62  53    93  54  47    92  53  46    99  56  50   104  61  55   103  58  53   100  55  50   105  57  53   112  64  60   111  63  59   102  57  52   100  52  48   100  52  48   105  56  51   110  59  55   108  57  53   108  57  53   117  66  62   120  69  65   119  70  63   125  76  69   123  74  67   128  79  72   135  87  77   135  87  77   128  80  70   123  75  65   122  74  64   122  74  64   127  79  67   133  85  73   136  88  78   130  83  73   124  80  71   126  83  74   116  73  66    94  51  44   106  63  56   113  70  63   116  73  64   117  73  64   127  80  70   137  90  80   136  88  76   126  76  65   117  65  54   113  59  49   115  61  51   119  65  55   117  63  53   114  60  50   117  65  54   122  70  59   128  76  65   126  76  65   120  72  60   112  66  53   105  61  48   102  60  46    93  54  39    84  47  31    73  37  21    65  29  13    66  30  14    70  33  17    71  34  18    78  39  24    84  42  26    80  37  21    85  39  24    91  43  29   100  48  34   101  49  35   102  46  33   102  46  33   107  49  37   111  53  41   111  54  43   116  59  48   121  68  54   125  72  58   126  74  60   128  76  62   126  77  63   124  76  62   135  87  77   120  76  65   132  87  81   138  95  89   140  99  95   152 111 109   148 106 107   141  97  96   158 112 112   158 110 108   154 106 102   147  99  95   141  94  88   134  87  79   124  77  69   116  69  59   117  69  57   111  63  49   113  61  48   118  66  52   125  69  54   121  65  50   117  60  43   114  57  40   118  61  44   115  58  41   110  54  37   107  51  34   105  49  32   104  48  31   100  47  29    98  45  27    95  42  24    98  45  27    96  45  26    93  42  23    94  43  24    98  47  28    99  48  29    97  46  27    94  42  28    93  41  27    92  40  26    92  40  26    92  40  26    93  41  27    92  43  28    93  44  29    97  48  33    98  49  34    91  44  28    89  42  26    95  48  32    96  49  33    95  48  32    98  52  36   100  55  36    98  55  38    99  56  40    97  55  41    97  54  45    98  55  46   100  56  45   101  57  46
 91  48  31    92  49  32    94  51  35    97  51  36    99  50  35   101  50  33   104  48  31   103  47  30   107  51  34   109  53  36   112  55  36   113  56  37   114  56  36   111  53  33   110  49  28   108  47  26   119  58  37   115  54  33   112  54  34   114  56  36   114  57  38   115  58  39   120  64  47   129  72  55   122  62  51   124  64  53   131  73  61   131  75  62   122  68  56   122  73  59   124  76  64   113  69  56   100  58  46    87  49  36    76  40  28    69  37  24    63  33  22    58  30  18    57  31  18    61  33  21    58  28  18    58  25  18    56  23  16    56  23  16    57  24  19    58  25  20    55  24  21    53  22  19    49  19  17    47  17  15    46  16  16    43  15  14    42  13  15    41  12  14    38  12  13    37  13  13    36  12  10    35  14   9    37  16  11    39  18  13    41  21  14    46  23  17    49  26  20    51  26  19    57  30  23    61  32  24    67  34  27    70  36  27    73  34  27    74  33  27    78  35  29    78  38  30    75  37  26    72  36  22    72  34  23    70  34  22    73  37  25    77  40  31    82  45  37    85  48  40    86  49  43    84  49  43    81  46  42    82  49  44    85  50  48    76  42  40    74  40  38    84  50  48    86  51  47    94  59  55    99  64  60   100  65  61   103  68  64   108  73  69   108  73  69   105  70  66   105  70  66   103  68  62    92  57  53    84  49  43    85  50  46    83  48  42    81  46  42    85  50  44    81  48  39    86  56  46    96  62  53    96  62  53    92  53  46    88  49  42    94  51  45   101  58  52    99  54  49    98  53  48   100  55  50   107  62  57   108  63  58    98  55  49    90  45  40    90  45  40   104  55  50   108  57  53   105  54  50   104  53  49   111  61  54   113  63  56   113  63  56   118  68  61   125  77  67   130  82  72   133  85  75   133  85  75   130  82  70   125  77  65   123  75  63   124  76  64   124  76  64   126  78  66   132  84  74   129  82  72   121  74  66   119  75  66   111  66  60    92  47  41   109  64  58   113  68  62   112  68  59   110  63  55   119  72  62   135  87  77   140  90  79   134  84  73   124  75  61   122  70  57   120  68  55   124  72  59   126  72  60   122  68  56   121  67  55   125  73  60   123  71  58   125  76  62   125  76  62   116  68  54   108  62  47   103  60  44   100  58  42    94  57  41    78  42  26    66  33  18    63  30  15    67  31  17    69  32  16    77  38  23    84  42  28    81  37  24    81  35  20    87  39  25    96  44  31    98  46  33   101  45  32   102  46  33   107  49  37   110  52  40   108  51  40   113  56  45   120  66  54   127  73  61   128  76  63   129  77  64   128  79  65   129  81  67   130  82  72   128  84  73   150 105  99   141  98  92   118  77  73   128  87  85   139  97  98   138  94  93   144  96  96   152 102 101   150 102  98   141  93  89   135  88  82   135  88  80   129  82  74   120  73  63   116  68  56   112  64  50   114  62  49   121  69  55   126  70  55   121  65  50   115  58  41   111  54  37   115  58  41   113  56  39   110  54  37   109  53  36   107  51  34   105  49  32    99  46  28    95  42  24    95  42  24    99  46  28    99  48  29    97  46  27    98  47  28   101  50  31   100  49  30    97  46  27    96  43  29    95  42  28    94  41  27    94  41  27    94  42  28    95  43  29    95  46  31    96  47  32    96  49  33    96  49  33    90  43  27    87  40  24    92  46  30    93  47  31    92  46  30    96  50  34    98  53  34    97  54  37    99  56  40   101  57  44   101  58  49   100  57  48    99  55  44    97  53  42
 94  48  32    93  50  33    94  51  35    95  52  36    99  52  36   102  50  36   105  49  34   105  48  31   108  52  35   109  53  36   111  54  35   111  54  35   112  54  34   110  52  32   111  50  29   109  48  27   119  58  37   115  54  33   111  53  33   114  56  36   115  58  39   117  60  41   121  65  48   128  72  55   127  69  57   123  65  53   128  72  59   126  73  59   118  66  53   121  72  58   125  77  65   111  67  54    97  55  43    84  46  33    75  39  27    68  36  23    65  33  22    59  29  18    57  29  17    60  32  21    56  26  18    57  24  17    57  24  17    58  25  18    58  25  20    56  25  20    55  24  21    52  23  19    47  17  15    43  15  12    39  11  10    35   9   8    35   9  10    34  10  10    34  10  10    31  10   7    36  15  10    37  16  11    38  19  13    38  19  13    39  19  12    40  20  13    43  23  16    46  23  17    50  25  18    55  28  21    62  31  26    67  34  27    71  33  30    72  33  28    74  35  30    75  36  29    72  35  26    69  35  25    71  34  25    69  35  25    73  36  27    74  40  30    80  43  35    81  47  38    79  44  38    77  44  37    71  38  33    70  37  32    74  40  38    71  40  37    76  45  42    89  58  55    90  57  52    98  65  60   103  70  65   102  69  64   104  71  66   109  76  71   109  76  71   104  71  64   100  67  60    99  66  57    89  56  49    81  48  39    81  48  39    79  46  37    76  43  34    81  48  39    92  59  50    96  63  54   101  67  58    99  65  56    95  56  49    90  51  44    96  55  49   106  63  57   100  57  51   100  57  51    99  56  50   102  59  53   106  65  59   101  60  54    91  50  44    92  49  43   100  53  47   105  56  51   102  53  48   101  52  47   105  56  49   106  57  50   107  57  50   113  64  57   127  79  69   127  79  69   123  75  65   120  72  62   124  76  64   125  77  65   125  79  66   131  83  71   115  65  54   119  69  58   132  82  73   131  83  73   116  69  61   115  68  60   116  71  65   108  63  57   107  62  56   110  65  59   113  66  58   113  66  58   120  72  62   130  82  72   133  83  72   128  78  67   122  73  59   120  71  57   117  65  52   119  67  54   125  71  59   123  69  57   119  65  53   120  66  54   118  64  52   123  71  58   124  72  59   117  68  54   111  63  49   111  65  50   110  67  51   106  67  50    86  53  38    73  41  26    67  34  19    64  31  16    65  29  13    73  36  20    80  41  26    81  37  24    79  33  18    84  36  22    90  41  27    96  44  31   102  46  33   104  48  35   107  49  37   108  50  38   110  53  42   114  57  46   118  64  52   124  70  58   126  74  61   128  76  63   131  82  68   137  89  77   128  80  70   128  84  75   148 103  97   140  97  91   123  82  78   136  95  93   143 101 102   139  95  96   138  90  90   144  94  93   141  93  89   131  83  79   128  81  75   132  85  77   132  85  77   126  79  69   117  69  57   114  66  52   116  67  53   122  70  56   125  69  54   118  62  47   112  55  38   110  53  36   108  51  34   108  51  34   107  51  34   109  53  36   109  53  36   108  52  35   102  49  31    98  45  27    97  44  26   101  48  30   101  50  31    99  48  29    99  48  29   101  50  31   100  49  30    95  44  25    95  42  28    95  42  28    95  42  28    95  42  28    95  43  29    96  44  30    95  46  31    96  47  32    91  44  28    92  45  29    87  40  24    85  38  22    92  46  30    95  49  33    95  49  33   101  55  39    97  52  33    99  53  37   102  56  41   103  59  46   105  61  52   102  59  50    99  55  44    95  51  40
 96  49  33    96  50  34    95  52  36    96  53  37   100  52  38   104  52  38   108  50  36   108  49  35   108  51  34   107  51  34   109  52  33   109  52  33   111  53  33   111  53  33   113  52  31   113  52  31   115  54  33   111  50  29   109  51  31   114  56  36   117  60  41   120  63  44   124  68  51   131  75  58   136  78  66   126  68  56   125  69  56   121  68  54   112  60  47   116  67  53   120  72  60   104  60  47    90  48  36    80  42  29    74  38  26    70  38  25    67  35  24    59  29  18    55  27  15    56  28  17    55  25  17    57  26  21    58  27  22    59  28  23    59  28  25    57  28  24    57  28  24    56  28  24    51  23  20    44  19  15    37  13   9    32  11   6    32  11   8    32  13   9    33  14  10    32  13   9    35  14   9    38  17  12    39  20  14    40  21  15    39  20  14    39  20  14    41  22  15    44  24  17    47  24  18    50  25  20    56  27  23    59  28  23    63  28  26    66  28  25    70  30  28    72  33  28    68  33  27    67  34  25    69  35  26    69  36  27    70  36  27    70  37  28    70  35  29    69  36  29    70  37  30    72  39  32    69  36  31    66  35  30    73  42  39    77  46  43    83  52  49    93  64  60    94  63  58   102  71  66   106  76  68   104  74  66   107  77  69   113  83  75   112  82  74   105  75  65   102  72  62   103  73  62    94  64  54    86  56  45    85  55  44    81  51  40    78  48  37    82  52  41    94  61  52    96  63  54   102  68  59   103  69  60   100  61  54    95  56  49   100  59  53   108  67  61   107  66  60   107  66  60    98  57  51    94  55  48   101  64  56   102  65  57    92  58  49    92  53  46    94  51  44   103  56  50   101  54  48    99  52  46   102  55  47   103  56  48   105  56  49   113  64  57   130  82  72   127  79  69   116  69  59   113  66  56   121  75  62   125  79  66   126  80  67   133  85  73   113  63  52   119  69  58   135  85  76   133  85  75   116  69  61   117  70  62   126  79  73   120  73  67   111  64  58   117  70  64   123  76  68   127  80  72   131  83  73   131  81  72   128  76  65   121  71  60   117  68  54   117  69  55   111  62  48   112  60  47   124  70  58   127  73  61   122  65  54   116  62  50   120  66  54   121  69  56   120  68  55   115  66  52   116  68  54   119  73  58   118  72  57   111  69  53   100  64  50    83  51  36    73  40  25    65  32  17    62  26  10    68  31  15    77  38  23    79  35  22    80  34  19    83  35  21    88  39  25    95  43  30   103  47  34   105  49  36   106  48  36   105  47  35   112  55  44   115  58  47   120  66  54   127  73  61   128  76  63   128  76  63   131  81  70   138  90  78   143  95  85   131  87  78   138  93  87   135  92  86   134  93  89   146 105 103   142 100 101   135  91  92   140  92  92   138  88  87   133  85  81   131  83  79   127  82  76   125  81  72   123  79  70   123  79  68   119  73  60   119  71  57   120  71  57   122  70  56   120  64  49   112  56  41   110  53  36   113  54  38   107  50  33   107  50  33   106  50  33   107  51  34   108  52  35   108  52  35   103  50  32   101  48  30    99  46  28   102  49  31   101  50  31    97  46  27    97  46  27    99  48  29    98  47  28    95  44  25    92  39  25    93  40  26    94  41  27    95  42  28    95  43  29    96  44  30    94  45  30    94  45  30    88  41  25    89  42  26    84  37  21    84  37  21    92  46  30    97  51  35    97  54  37   105  59  43    99  54  35   100  54  38   102  56  41   103  59  46   105  61  52   104  60  51   100  56  45    96  52  41
 97  50  34    97  51  35    96  53  36    99  53  37   101  54  38   104  52  38   109  51  37   110  51  35   106  49  32   105  50  30   107  50  31   107  50  30   109  52  32   112  54  34   113  55  33   114  56  34   110  52  30   106  48  26   106  49  29   113  56  36   118  63  43   121  66  46   127  71  54   131  78  62   139  86  72   125  71  59   121  69  56   116  64  51   105  55  44   111  63  51   114  68  55    98  54  43    85  43  31    78  38  28    73  37  25    73  39  29    69  37  26    60  30  19    54  26  14    53  25  14    55  25  17    58  27  22    62  31  26    63  32  27    60  31  25    59  30  24    59  31  27    60  32  28    56  31  26    51  26  21    43  20  14    37  17  10    36  15  10    37  18  12    38  19  13    38  19  13    35  14   9    38  17  12    41  20  15    42  21  16    40  21  15    40  21  15    42  23  16    43  24  17    45  25  18    48  25  19    50  25  20    52  24  20    54  23  20    58  24  22    63  28  24    66  31  27    64  31  26    66  33  28    69  36  31    70  37  30    69  36  29    67  33  24    63  29  20    61  27  18    62  28  19    69  36  27    72  39  32    74  41  34    81  50  45    85  54  49    88  57  52    93  64  58    99  68  63   106  75  70   109  79  71   107  77  69   111  81  73   118  88  80   116  86  78   108  78  68   111  81  71   112  82  71   104  74  64    96  66  55    94  64  53    91  59  46    86  54  43    90  58  47    79  45  36    84  50  41    95  58  50   102  65  57   100  61  54    94  53  47    95  54  48   100  59  53   112  71  65   110  69  63    94  53  47    84  45  38    92  55  47    97  60  52    88  54  45    85  48  39    92  49  42   100  56  47    99  55  46    97  53  44   100  56  47   101  57  46   106  59  51   115  68  58   132  85  75   130  83  73   119  72  62   114  70  59   126  80  67   128  82  69   125  79  66   128  82  69   127  77  66   128  78  69   137  87  78   130  82  72   114  65  58   120  73  65   131  84  78   122  75  69   124  77  71   127  80  74   132  85  77   137  88  81   136  88  78   132  82  73   127  77  68   125  75  64   121  72  58   123  74  60   117  65  52   116  64  51   131  77  65   138  84  72   131  74  63   123  69  57   127  73  61   124  70  58   117  65  52   116  64  51   121  72  58   126  78  64   121  73  59   109  66  50   109  73  57    90  58  43    77  44  29    66  33  18    59  23   7    64  28  12    74  35  20    76  34  20    80  36  23    83  37  22    87  38  24    94  42  29   101  48  34   104  51  37   104  48  35   102  46  33   108  55  41   113  60  46   123  69  57   132  80  66   133  81  68   127  78  64   128  79  65   133  85  73   139  91  79   131  84  74   134  89  83   129  86  80   128  84  81   135  91  90   136  92  93   142  98  99   137  89  87   128  80  78   128  80  76   137  89  85   135  90  84   125  80  74   120  76  67   125  78  68   122  75  65   122  74  62   122  73  59   121  69  55   113  60  46   107  51  36   109  51  37   115  57  43   110  54  37   108  52  35   106  50  33   106  50  33   106  50  33   106  50  33   102  49  31   100  47  29   101  48  30   102  49  31    99  48  29    94  43  24    93  42  25    96  45  28    97  46  29    94  43  26    89  37  23    90  38  24    92  40  26    94  42  28    95  43  29    95  43  29    92  43  28    92  43  26    90  41  26    90  43  27    84  37  21    84  37  21    92  46  30    97  51  35    97  54  37   103  60  43   101  55  39   101  55  40   101  55  42   104  57  47   104  60  49   104  60  51   101  57  46    98  54  43
 92  46  30    93  47  31    96  49  33    98  51  33   101  52  35   104  53  34   106  53  35   109  54  34   106  49  30   105  48  29   104  49  29   104  49  28   106  51  30   109  55  31   111  57  33   113  59  35   107  53  29   106  52  28   104  52  30   109  57  36   115  62  44   121  68  50   128  75  59   132  80  66   144  96  82   121  73  61   116  68  58   120  72  62   108  60  50   105  57  47   108  61  51   104  57  49    92  48  39    81  38  31    82  44  35    79  42  34    60  27  18    57  27  17    61  33  22    52  24  13    55  25  17    57  27  19    60  30  22    62  32  24    61  32  24    60  31  23    56  29  22    55  28  21    50  25  18    47  22  15    42  19  11    36  16   7    34  14   5    35  15   6    36  16   7    37  17   8    42  17  13    44  19  15    45  20  16    44  20  16    41  20  15    43  22  17    45  26  19    47  28  21    46  27  20    44  25  18    44  24  15    48  25  17    52  27  20    56  29  22    55  28  21    54  25  19    53  22  20    64  33  31    62  28  26    65  32  27    68  33  27    62  25  17    62  25  17    61  24  15    70  33  24    77  40  31    85  48  39    86  52  42    85  52  43    85  55  47    93  63  55   100  70  62   100  65  61   119  81  78   115  80  76   111  76  72   119  86  81   118  85  78   114  81  74   122  89  82   117  84  77   110  77  68    94  59  53    86  52  43    98  61  53   105  67  58    97  58  51    91  52  45    91  50  46    95  54  50   101  60  56   105  64  60   101  60  56    98  54  51    98  55  49   103  60  54   108  65  59   111  68  62   105  62  55    93  53  45    92  52  44    97  57  49    96  56  48    88  48  40    85  43  31    89  47  35    92  50  38    93  51  39    94  52  40    98  56  42   105  61  50   110  66  55   121  77  66   128  84  73   116  72  61   107  65  53   122  78  67   124  80  69   118  74  63   125  78  68   126  78  68   135  86  79   135  86  79   124  75  68   120  71  64   128  79  72   133  84  77   129  80  73   129  80  73   124  75  68   123  74  67   126  77  70   127  78  71   123  74  67   122  73  66   125  75  66   122  70  59   127  73  61   130  76  64   129  75  63   128  74  62   129  75  63   130  76  64   128  74  62   129  75  63   136  84  71   117  65  52   112  60  47   122  73  59   119  70  56   114  65  51   110  64  49   106  69  53   106  73  56    95  63  48    71  39  24    57  24   9    61  25  11    68  30  17    69  29  17    80  36  25    83  37  24    86  38  26    90  41  27    93  44  29    98  46  32    99  48  31   100  49  32   104  53  36   110  59  42   118  66  52   123  74  57   127  78  63   128  79  64   128  79  64   126  78  64   129  81  67   140  94  81   145  98  90   144  99  93   134  89  84   132  87  84   141  95  95   132  86  86   129  84  81   129  84  79   129  84  79   132  87  82   133  88  82   130  85  79   126  79  71   120  73  63   123  75  65   119  69  58   115  63  52   111  59  46   109  57  44   111  58  44   112  59  45   113  60  46   112  61  44   110  59  42   108  57  40   108  55  39   108  55  37   107  54  36   107  52  32   106  51  31   100  47  29    95  42  24    92  41  24    95  44  27    94  45  30    91  42  27    89  40  26    90  41  27    91  42  28    89  40  26    91  42  28    97  45  32    96  44  30    92  40  26    93  42  25    98  47  28    97  46  29    89  40  23    85  38  20    88  41  23    91  45  29    94  48  32    96  53  36   102  59  43    99  55  42   100  56  45   102  58  47   104  60  49   106  62  51   106  62  51   105  61  50   103  59  48
 90  47  30    92  46  30    95  46  29    96  47  30    99  48  29   101  50  31   103  51  30   104  52  31   107  50  31   106  49  30   103  48  27   103  48  27   105  51  27   108  54  30   110  58  34   112  60  36   107  55  31   109  57  35   109  58  37   110  59  38   114  63  44   121  70  51   125  74  57   124  75  60   138  92  79   116  72  61   116  69  61   121  74  66   111  62  55   105  56  49   104  57  49    98  51  43    87  42  36    79  36  29    82  41  35    80  43  35    64  30  21    61  31  21    65  35  25    56  28  17    59  29  21    60  30  22    60  30  22    60  30  22    59  30  22    58  29  21    56  29  20    55  28  19    51  27  17    49  25  15    44  22  11    41  19   8    37  17   6    37  17   6    38  18   7    42  19  11    45  20  15    47  22  18    48  23  19    48  24  20    45  24  19    46  26  19    47  28  21    50  31  24    47  28  21    47  29  19    46  28  18    48  28  19    52  29  21    55  30  23    58  31  24    58  31  24    59  28  26    69  35  34    64  30  28    68  33  29    73  36  30    66  27  20    68  30  21    70  32  23    76  36  26    83  45  34    91  53  42    94  58  46    92  58  48    94  61  52   100  67  58   106  73  64   108  70  67   121  81  79   115  77  74   107  69  66   112  77  73   112  77  73   109  74  68   117  82  76   115  80  74   111  76  70   101  64  58    95  58  52   100  61  54   100  59  53    99  56  50   103  59  56    98  54  51   100  56  55   104  60  57   105  61  58   100  56  53    94  50  47    96  53  47   103  60  54   107  64  58   109  66  60   104  61  54    95  52  45    94  51  44    99  56  49    98  55  48    90  47  38    93  51  39    95  53  39    98  56  42    99  57  43   100  58  44   101  59  45   103  61  47   104  62  48   119  77  65   127  85  73   116  74  62   103  61  49   109  67  55   117  73  62   114  70  59   117  70  60   128  79  72   135  86  79   129  80  73   121  72  65   127  78  71   136  87  80   132  83  76   122  73  66   129  80  73   121  72  65   116  67  60   119  70  63   123  74  67   121  72  65   117  68  61   117  67  58   112  58  48   122  65  54   125  68  57   122  65  54   119  65  53   123  69  57   122  68  56   119  65  53   125  73  60   134  82  69   117  65  52   114  62  49   123  74  60   121  72  58   118  69  55   115  69  54   108  71  55   107  74  57    98  65  50    79  46  31    64  31  16    62  29  14    67  31  19    69  31  20    79  37  25    80  36  25    83  37  24    85  37  25    89  40  26    92  43  28    95  46  31    96  47  30   100  51  34   102  53  36   107  58  41   116  67  50   125  76  59   132  83  66   135  88  72   135  88  72   124  76  62   131  83  71   134  87  79   144  97  91   142  94  90   140  92  90   145  97  97   131  85  85   129  85  82   129  86  80   130  85  80   129  84  79   127  82  76   125  80  74   126  79  71   124  77  69   118  70  60   115  65  56   111  59  48   108  56  45   108  56  43   110  58  45   111  57  45   109  57  43   110  58  44   106  57  40   106  55  38   104  53  36   105  52  34   104  51  33   106  51  31   105  50  30   100  47  29    96  43  25    93  42  25    97  46  29    96  47  33    92  43  29    89  41  29    89  41  29    92  44  32    89  41  27    90  41  27    93  44  29    94  42  28    92  41  24    94  43  24    98  47  28    99  48  29    91  42  25    87  40  22    89  43  27    91  45  29    90  47  31    91  49  33    95  53  39    94  50  39    96  52  43   100  56  45   104  60  49   107  63  52   108  64  53   108  64  53   107  63  52
 89  46  29    91  45  29    92  43  26    92  43  26    95  44  25    97  46  27   100  48  27   102  50  29   107  50  31   105  48  29   103  48  27   103  48  27   104  50  26   108  54  30   109  57  33   112  60  36   108  56  34   114  62  40   115  64  43   112  61  40   114  63  44   121  70  53   123  71  57   117  68  54   131  83  71   115  68  58   117  70  62   122  75  67   112  65  57   104  57  49   100  53  45    91  44  36    82  37  31    77  34  27    81  40  34    81  44  36    69  35  26    65  35  25    69  39  29    61  33  22    64  34  26    63  33  25    61  31  23    59  29  21    57  28  20    56  27  19    55  28  19    55  28  19    53  29  19    51  27  17    46  24  13    43  21  10    40  20   9    40  20   9    41  21  10    44  21  13    48  23  18    50  25  20    53  28  23    52  29  23    50  30  23    50  30  23    52  32  25    54  34  25    51  31  22    52  32  21    54  32  21    55  31  21    58  31  22    60  33  24    63  34  26    67  37  29    70  37  32    76  41  37    67  32  28    73  36  30    77  38  31    69  29  21    74  34  26    81  41  31    85  42  33    89  49  39    96  56  46    98  60  49    97  60  51    96  62  52   101  67  58   106  72  63   109  71  68   120  82  79   115  77  74   109  71  68   112  77  73   111  76  72   104  71  66   108  75  70   114  81  74   113  80  73   108  73  67   104  67  61   101  62  57    92  53  48    93  52  48   106  65  61   104  60  57   104  60  57   106  62  59   106  62  59   100  56  53    92  48  45    93  50  44   100  57  51   104  61  55   105  62  56   101  58  51    94  51  44    93  50  43    98  55  48    97  54  47    91  48  39    99  57  45    99  57  43   100  58  44   103  61  47   107  63  50   106  62  49   104  60  47   103  59  46   105  61  50   115  71  60   113  69  58   102  58  47   102  58  47   114  67  57   117  70  60   112  65  55   126  77  70   134  85  78   126  77  70   120  71  64   131  82  75   136  87  80   127  78  71   120  71  64   127  78  71   121  72  65   116  67  60   117  68  61   119  70  63   118  69  62   116  67  60   116  66  57   114  62  51   124  70  58   127  73  61   120  66  54   118  64  52   123  69  57   121  69  56   115  63  50   120  68  55   130  78  65   115  66  52   114  65  51   124  75  61   122  73  59   122  73  59   119  73  58   112  73  58   109  73  57   103  67  53    88  55  40    75  41  29    67  33  21    67  31  19    69  31  20    76  36  26    77  35  23    78  34  21    80  34  21    84  36  22    89  40  25    95  43  29    97  45  31    98  49  34    97  48  33    99  50  35   106  57  42   118  69  54   129  80  65   135  87  73   138  90  76   131  83  71   129  81  69   129  82  74   141  94  88   139  91  87   134  86  84   136  90  90   128  82  82   127  83  80   128  85  79   127  84  78   122  79  73   118  73  67   117  72  66   122  75  67   127  80  72   115  67  57   110  62  52   105  55  44   104  54  43   109  57  44   110  58  45   109  55  43   105  53  39   107  55  41   104  55  38   104  53  36   102  51  34   102  49  31   101  48  30   104  49  29   104  49  29   100  47  29    97  44  26    95  44  27    99  48  31    97  48  34    93  44  30    89  41  29    90  42  30    91  45  30    88  42  26    88  41  25    90  43  25    92  43  26    91  43  23    92  44  24    94  46  26    97  48  31    91  44  26    89  42  26    91  45  30    91  48  32    87  45  31    87  45  33    89  47  35    91  47  38    94  50  41   100  56  47   105  61  52   108  64  53   109  65  54   109  65  54   109  65  54
 88  45  28    90  44  28    91  42  25    90  41  24    94  43  24    97  46  27   101  49  28   103  51  30   105  48  29   104  47  28   103  48  27   104  49  28   106  51  30   108  54  30   108  56  32   110  58  34   105  53  31   115  63  41   117  66  45   112  61  40   113  62  45   120  69  52   122  70  56   113  64  50   124  76  64   113  66  56   116  69  61   121  74  66   113  66  58   103  56  48    97  50  42    87  43  34    80  37  30    76  36  28    81  42  35    82  45  37    73  39  30    71  38  29    71  41  31    65  37  26    64  34  26    63  33  25    61  31  23    59  29  21    57  28  20    57  28  20    56  29  20    56  29  20    53  29  19    51  27  17    47  25  14    44  22  11    41  21  10    41  21  10    42  22  11    43  23  12    49  26  18    52  27  20    54  31  25    55  32  24    53  33  26    53  33  24    54  34  25    57  35  24    56  34  23    58  36  23    60  36  26    62  35  24    63  34  26    66  36  26    72  39  30    76  43  34    82  45  39    84  47  41    73  34  27    76  37  30    79  39  31    72  29  20    79  36  27    87  44  35    91  47  38    93  50  41    97  54  45    95  55  45    92  54  45    94  56  47    98  61  53   103  66  58   108  70  67   117  79  76   117  79  76   112  77  73   117  82  78   113  80  75   103  70  65   100  67  62   114  81  74   117  84  77   113  78  72   105  70  64   100  63  57    91  52  47    91  52  47   103  62  58   107  63  60   106  62  59   108  64  61   111  67  64   104  60  57    93  49  46    90  47  41    95  52  46   100  57  51   101  58  52    98  55  48    93  50  43    93  50  43    97  54  47    96  53  46    91  48  39   100  58  46    96  54  40    96  54  40   101  59  45   107  63  50   107  63  50   105  61  48   105  61  48    94  50  39   102  58  47   111  64  54   107  60  50   102  55  45   109  62  52   115  68  58   111  63  53   121  72  65   131  82  75   127  78  71   123  74  67   130  81  74   125  76  69   119  70  63   130  81  74   123  74  67   124  75  68   124  75  68   122  73  66   119  70  63   118  69  62   121  72  65   126  76  67   123  71  60   132  78  66   132  78  66   121  67  55   118  64  52   124  70  58   122  70  57   115  63  50   116  64  51   127  75  62   115  66  52   115  66  52   122  73  59   120  71  57   122  73  59   118  72  57   111  72  57   109  72  56   104  68  54    97  61  47    84  50  38    72  38  26    66  32  20    67  31  19    71  33  22    72  32  22    75  33  21    78  34  21    84  36  22    90  41  27    96  44  30    98  46  32    97  48  33    98  49  34    99  50  36   102  53  38   108  59  45   116  67  53   124  76  62   131  83  71   137  89  77   131  83  73   127  80  74   136  88  84   130  82  80   121  73  73   131  85  87   132  86  86   122  78  75   125  82  76   125  82  76   120  77  71   113  68  62   112  67  61   119  72  66   126  79  71   118  70  60   112  64  54   107  57  46   106  56  45   111  59  46   112  60  47   110  56  44   104  52  38   104  52  38   102  53  36   105  54  37   104  53  36   103  50  32   101  48  30   103  48  28   103  48  28   100  47  29    97  44  26    97  46  29   101  50  33    98  49  35    92  44  30    88  40  28    88  42  27    90  44  28    89  44  25    88  43  24    90  43  25    91  44  24    91  44  24    91  43  23    90  43  23    92  45  27    87  41  25    87  41  26    90  46  33    91  49  35    86  46  34    85  45  35    86  46  36    89  46  37    94  50  41   100  56  47   105  61  52   107  63  52   108  64  53   108  64  53   108  64  53
 88  45  28    89  43  27    90  41  24    91  42  25    95  44  25    98  47  28   103  51  30   105  53  32   102  45  26   103  46  27   104  49  29   106  51  30   107  52  31   108  53  32   107  55  31   107  55  31   102  50  28   113  61  39   116  65  44   110  59  38   111  60  43   119  68  51   122  70  56   115  66  52   121  73  61   114  67  57   116  69  61   118  71  63   111  64  56   103  56  48    95  51  42    89  45  36    82  39  32    80  40  32    84  45  38    83  46  38    76  42  33    73  40  31    71  41  31    68  38  28    62  32  24    61  31  23    61  31  23    60  30  22    58  29  21    58  29  21    57  30  21    57  30  21    52  28  18    50  26  16    47  25  14    45  23  12    42  22  11    42  22  11    42  22  11    43  23  12    49  27  16    52  30  19    54  31  23    54  32  21    54  31  23    54  32  21    56  34  23    59  35  23    60  36  24    64  38  25    67  39  28    69  39  28    71  38  29    74  40  30    80  43  34    84  47  38    89  49  41    91  51  43    78  38  30    80  37  28    81  38  29    74  30  19    80  36  25    88  44  33    94  47  37    93  49  38    94  50  41    92  49  40    92  49  42    94  54  46   101  60  54   105  66  59   110  70  68   115  77  74   111  76  72   108  73  69   111  76  72   108  75  70    98  65  60    90  59  54   107  76  71   113  82  77   110  77  72   102  67  63   100  65  61    99  61  58    96  58  55   100  60  58   106  65  61   104  60  57   108  64  61   114  70  67   110  67  61    95  52  46    87  44  38    89  46  40    96  53  46    96  53  46    94  51  44    92  49  42    93  50  41    96  53  44    95  52  43    91  48  39   101  57  46    94  50  39    91  47  36    97  53  42   103  59  48   103  59  48   104  57  47   105  58  48   103  57  44   103  57  44   111  63  51   111  63  51   100  52  40   101  53  41   111  63  51   112  64  52   120  72  62   126  78  68   124  76  66   126  78  68   129  81  71   116  68  58   116  68  58   139  91  81   119  71  61   122  74  64   124  76  66   122  74  64   121  73  63   122  74  64   126  78  68   130  80  71   120  68  57   127  73  63   124  72  61   114  62  51   111  59  48   117  65  54   120  68  57   116  64  53   114  64  53   123  73  62   115  65  54   115  65  54   118  70  58   116  68  56   118  70  58   111  65  52   110  68  56   107  67  55   105  67  56   100  64  52    89  55  45    78  44  34    69  35  25    65  31  21    64  30  18    68  32  20    72  34  21    79  37  23    87  41  26    93  44  30    98  46  32    99  47  33    96  47  33   102  53  39   107  57  46   107  58  44   104  56  44   108  60  48   118  70  58   128  80  68   132  85  75   125  78  70   123  76  70   135  87  83   128  82  82   119  73  75   131  85  87   135  89  91   121  77  76   125  81  78   128  85  79   124  81  75   119  74  69   116  71  65   122  75  69   127  80  72   125  77  67   118  70  60   112  62  51   110  60  49   114  62  51   114  62  51   110  58  45   105  53  39   103  51  37   104  53  36   107  54  38   108  55  39   107  54  36   105  52  34   104  49  29   102  47  27    99  46  28    98  45  27    99  48  31   102  51  34    97  48  34    89  41  27    86  38  26    85  39  24    88  43  24    87  45  23    88  46  24    90  45  24    90  45  24    90  45  24    89  42  24    87  42  23    86  40  24    83  37  21    84  38  25    88  44  33    91  48  39    88  48  40    87  47  39    89  49  41    86  43  34    91  48  39    98  55  46   103  60  51   104  61  52   105  62  53   107  65  53   108  66  54
 88  45  28    89  43  27    91  42  25    92  43  26    96  45  26    99  48  29   103  51  30   104  52  31   102  45  26   103  46  27   103  48  28   105  50  30   107  52  31   108  53  32   107  55  31   107  55  31   103  51  29   111  59  37   113  62  41   110  59  40   110  59  42   118  67  50   123  71  57   121  72  58   122  74  62   119  72  62   118  71  63   116  69  61   109  62  54   102  55  47    94  50  41    90  46  37    86  43  36    85  45  37    86  47  40    84  47  39    77  43  34    74  41  32    73  40  31    70  40  30    62  32  24    62  32  24    61  31  23    60  30  22    59  30  22    59  30  22    58  31  22    58  31  22    51  27  17    50  26  16    48  26  15    46  24  13    43  23  12    43  23  12    44  24  13    44  24  13    51  29  18    52  30  17    53  31  20    53  31  18    52  30  19    55  31  19    58  34  22    62  36  23    64  38  25    67  39  27    71  41  30    75  43  30    80  43  34    82  46  34    85  47  36    88  48  36    91  49  37    97  53  42    85  41  30    81  37  26    82  38  27    79  32  22    85  38  28    88  41  31    93  45  35    93  46  36    94  47  39    93  49  40    95  50  44   101  56  50   109  64  59   113  70  64   113  74  69   109  71  68   102  64  61    93  58  54    95  62  57    97  64  59    91  60  55    86  55  50   101  70  65   108  77  72   106  73  68   100  67  62   105  70  66   107  72  68   105  67  64   103  65  62   106  65  61    98  57  53   101  57  54   108  67  63   110  67  61    94  53  47    87  44  38    85  44  38    92  49  42    89  49  41    90  47  40    88  48  40    92  49  40    93  53  43    94  51  42    92  49  40   102  58  47    93  49  38    90  46  35    96  52  41   101  57  46    99  55  44   101  54  44   104  57  47   111  63  51   106  58  46   109  61  49   108  60  48    99  51  39   103  53  42   119  69  58   129  79  68   124  76  66   122  74  64   120  72  62   127  79  69   133  85  75   122  74  64   121  73  63   140  92  82   116  68  58   116  68  58   116  68  58   117  69  59   122  74  64   127  79  69   126  78  68   123  73  64   117  65  54   120  68  57   118  66  55   114  62  51   112  60  49   117  65  54   121  69  58   120  70  59   116  66  55   122  72  61   114  64  53   114  66  54   117  69  57   115  67  55   115  67  55   105  59  46   108  64  53   108  66  54   105  65  55   100  62  51    94  57  48    85  51  41    74  42  31    65  35  24    60  30  19    65  33  20    72  36  24    78  38  26    86  42  29    93  45  31    98  46  33   100  48  35    95  45  34   103  53  42   111  61  50   112  62  51   109  61  49   111  63  51   121  73  61   131  83  73   130  83  75   124  77  71   123  75  71   138  90  88   134  88  90   124  78  81   127  81  84   123  77  80   122  78  77   126  82  79   130  87  81   130  87  81   127  82  77   124  79  74   126  79  73   128  81  75   128  79  72   121  73  63   115  65  56   112  62  51   114  62  51   114  62  51   110  58  45   107  55  42   105  53  39   104  53  36   105  52  36   107  54  38   109  56  38   107  54  36   106  51  31   102  47  27    98  45  27    98  45  27    99  48  31   100  51  34    95  47  33    85  39  24    80  34  21    78  35  19    84  41  24    88  45  26    90  47  28    87  45  23    87  42  23    87  42  23    88  43  24    87  42  23    85  39  23    79  36  20    80  36  23    84  42  30    87  47  39    86  48  39    88  49  42    91  52  45    83  43  35    90  47  38    96  53  44   100  57  48   101  58  49   102  59  50   105  63  51   108  66  54
 89  46  29    91  45  29    93  44  27    93  44  27    96  45  26    97  46  27    99  47  26    99  47  26   104  47  30   104  47  30   102  47  27   102  47  27   104  49  28   107  52  31   108  56  34   109  57  35   110  58  37   113  61  40   113  62  43   111  60  41   111  60  43   117  65  51   125  73  60   129  80  66   127  79  67   126  78  68   123  74  67   117  68  61   109  62  54   100  53  45    91  47  38    87  43  34    88  45  38    87  47  39    86  47  40    83  46  38    78  44  35    75  42  33    74  41  32    75  42  33    67  37  29    65  35  27    61  31  23    59  29  21    56  27  19    57  28  20    58  31  22    59  32  23    53  29  19    52  28  18    50  28  17    49  27  16    46  26  15    46  26  15    46  26  15    46  26  15    51  32  18    51  32  17    53  31  18    52  30  16    53  29  17    55  32  18    61  35  22    65  37  23    68  39  25    71  39  26    75  41  29    81  45  31    87  47  37    89  49  37    91  49  37    92  48  35    89  43  30   101  55  42    90  44  31    84  38  25    85  39  26    86  38  26    91  43  31    89  41  29    93  43  32    93  45  33    95  47  37    96  49  39    99  52  44   103  56  48   108  61  55   110  65  60   108  67  63   100  63  57    92  55  49    85  50  44    88  55  48    95  62  55    94  63  58    89  58  53   103  72  67   108  77  72   106  75  70   104  73  68   111  77  75   109  75  73   106  71  69   109  71  68   107  68  63    92  53  46    87  46  40    95  56  49   100  59  53    90  51  44    85  45  37    86  48  39    87  47  39    85  47  38    86  46  36    86  48  37    90  50  40    91  53  42    91  51  41    90  50  40    99  57  45    92  48  37    91  47  36    99  55  44   106  59  49   103  56  46   104  56  46   108  60  50   111  61  50   110  60  49   112  62  51   111  61  50   106  56  45   114  62  51   130  78  67   138  88  77   126  78  68   123  75  65   122  74  64   129  81  71   137  89  79   134  86  76   132  84  74   137  89  79   114  66  56   115  67  57   114  66  56   116  68  58   123  75  65   128  80  70   125  77  67   118  68  59   122  70  59   121  69  58   122  70  59   120  70  59   119  69  58   117  67  56   119  69  58   123  73  62   118  68  57   120  72  60   113  65  53   116  68  56   118  70  58   115  69  56   115  69  56   102  56  43   108  61  51   109  65  56   107  64  57   100  60  52    95  58  50    92  58  49    81  51  41    69  41  29    62  34  22    63  35  21    68  36  23    74  38  24    82  40  26    90  42  28    96  44  31    98  46  33    94  44  33    98  50  40   104  56  46   108  60  50   111  63  53   116  68  58   122  75  65   128  81  73   126  79  71   126  79  73   126  81  78   139  93  93   134  88  90   124  78  81   127  80  86   120  74  77   119  75  74   119  78  74   125  81  78   127  83  80   128  85  79   126  83  77   124  79  73   122  77  71   124  77  69   118  71  61   112  64  54   108  60  50   108  58  47   109  59  48   110  58  47   108  56  43   109  56  42   105  52  36   101  48  32   103  50  34   109  53  36   110  54  37   107  52  32   103  48  28    97  44  26    97  44  26    99  48  31    99  50  33    92  44  30    81  35  20    75  29  16    74  30  17    84  42  26    89  48  30    90  49  31    84  43  23    80  37  20    82  39  22    87  44  27    89  46  29    88  45  29    82  39  23    79  37  23    80  40  28    83  43  35    83  45  36    85  48  40    89  52  44    90  50  42    95  52  45    99  56  49    98  55  48    96  53  44    95  52  43    98  55  46   102  59  50
 89  46  29    92  46  30    94  45  28    94  45  28    95  44  25    94  43  24    94  42  21    94  42  21   107  50  33   105  48  31   101  46  26    99  44  24   101  46  26   105  50  29   109  57  35   112  60  38   115  63  42   115  63  42   114  63  44   113  62  43   112  60  46   116  64  50   126  74  61   136  84  71   131  81  72   131  83  73   127  78  71   119  70  63   110  63  55    99  52  44    88  44  35    82  39  30    87  47  39    87  49  40    85  48  40    83  46  38    79  45  36    77  43  34    76  43  34    78  45  36    71  41  33    68  38  30    62  32  24    57  27  19    54  25  17    55  26  18    57  30  21    59  32  23    55  31  21    54  30  20    52  30  19    51  29  18    48  28  17    48  28  17    48  28  17    48  29  15    53  34  19    53  34  19    53  31  17    52  30  16    52  29  15    57  31  16    63  35  21    69  40  26    70  38  25    72  39  24    78  40  27    85  45  33    92  50  38    94  52  38    94  50  37    93  47  32    86  38  24   102  54  40    93  45  31    86  38  24    88  40  26    91  43  29    97  47  36    91  41  30    93  43  32    95  45  34    96  48  38    98  50  40    99  50  43   100  51  44   101  52  47   101  54  48   101  58  52    93  54  47    88  49  44    87  50  44    93  58  52   102  69  62   103  70  63    95  64  59   109  78  73   111  80  75   110  79  74   112  81  76   115  81  79   107  73  71   103  68  66   110  75  71   108  71  65    87  50  42    75  38  30    84  47  39    90  53  45    86  49  41    83  46  37    87  50  41    83  46  37    82  45  36    82  46  34    85  49  37    88  52  40    89  53  41    89  53  41    89  51  40    94  52  40    89  45  34    92  48  37   103  59  48   111  64  54   108  61  51   109  61  51   114  66  56   112  62  51   118  68  57   122  72  61   117  67  56   115  63  52   120  68  57   129  77  66   133  81  70   125  75  66   125  77  67   128  80  70   133  85  75   138  90  80   142  94  84   140  92  82   135  87  77   113  65  55   117  69  59   120  72  62   120  72  62   123  75  65   126  78  68   124  76  66   118  70  60   124  74  63   121  71  60   122  72  61   126  76  65   122  72  61   114  64  53   113  63  52   116  68  56   118  70  58   120  72  60   113  65  53   116  70  57   119  73  60   118  72  59   117  71  58   102  55  45   107  60  52   112  65  57   109  64  58   101  58  51    97  58  51    97  63  54    87  57  47    72  44  33    64  37  26    64  38  25    66  36  25    70  36  24    77  37  25    86  40  27    91  41  30    96  44  33    93  43  34    93  45  35    95  47  37   101  53  43   109  61  51   116  68  58   119  72  64   121  74  66   116  69  63   123  75  71   128  83  80   138  92  94   130  84  87   124  77  83   135  88  96   133  88  93   112  71  69   112  71  67   116  72  69   120  76  73   124  81  75   123  80  74   120  75  70   116  71  65   119  72  64   114  67  59   109  61  51   105  57  47   105  55  44   105  55  44   109  57  46   109  57  44   112  59  45   105  52  36    98  45  29    98  45  29   105  49  32   109  53  36   107  52  32   104  49  29    96  43  25    96  45  26    99  48  31    97  50  32    91  43  29    79  33  18    71  27  14    70  28  14    84  45  30    89  50  35    90  48  32    81  39  23    76  33  17    80  37  21    88  45  29    93  50  34    94  51  35    85  43  29    78  39  24    79  39  27    79  41  30    79  42  33    80  46  36    86  49  40    99  59  51   102  59  52   103  60  53    98  55  48    92  49  40    89  46  37    90  47  38    93  50  41
 86  43  26    92  46  30    95  46  29    92  43  26    93  42  23    96  45  26    96  44  23    92  40  19   107  50  33   104  47  30   100  44  27    99  44  24   101  46  26   106  51  31   109  57  36   112  60  39   112  60  39   116  64  43   113  62  43   113  62  43   120  68  54   122  70  56   123  71  58   128  76  63   123  73  64   123  73  64   125  76  69   119  70  63   108  61  53   105  58  50   100  56  47    89  46  37    86  46  38    83  45  36    81  44  36    81  44  36    80  46  37    79  45  36    77  43  34    74  41  32    68  38  30    69  39  31    65  35  27    57  27  19    52  23  15    55  26  18    57  30  21    57  30  21    54  30  20    52  28  18    50  28  17    49  27  16    47  27  16    49  29  18    50  30  19    51  32  18    54  35  20    55  36  19    59  38  21    60  39  22    62  39  23    64  38  23    66  37  23    68  36  21    75  39  25    79  42  26    84  45  30    88  46  32    89  47  33    91  47  34    94  48  35    95  49  34    95  48  32    94  45  30    97  48  33   103  54  39   100  51  37    92  43  29    92  44  32   102  54  42    92  44  34    91  43  33    93  43  34    95  45  36    92  42  33    88  38  29    92  42  35    97  50  44    94  51  44    95  57  48    94  55  48    94  57  49   101  67  58   103  70  61   105  72  63   111  78  71   112  82  74   112  82  74   113  82  77   112  81  76   111  78  73   107  74  69   103  68  66   100  65  61   101  66  60   101  67  58    98  64  55    91  57  48    82  48  38    78  44  34    79  45  35    82  48  38    76  42  30    83  49  37    84  50  38    77  43  31    79  46  31    88  55  40    88  55  40    82  46  32    91  51  41    94  51  42    95  52  43    97  54  45   106  62  53   112  68  59   110  63  53   103  55  45   107  57  46   116  66  55   118  66  53   115  63  50   122  68  56   127  73  61   130  76  64   134  82  69   126  76  65   119  71  59   124  76  64   130  82  70   125  77  65   126  78  66   133  85  73   134  86  74   120  72  60   126  78  66   124  76  64   121  73  61   122  74  62   117  69  57   110  62  50   113  65  53   123  73  64   126  76  67   120  70  61   115  67  57   118  70  60   113  65  55   106  58  48   109  62  52   118  71  61   110  63  53   110  63  53   109  65  54   119  75  64   119  75  64   104  60  49   110  63  53   113  66  58   107  60  54   109  61  57   110  65  60   104  63  59   101  64  58    95  62  55    83  54  46    70  43  34    63  36  25    61  33  21    68  36  23    76  38  27    80  36  25    85  35  24    90  38  27    92  42  33    92  43  36    98  49  42   106  57  50   105  58  50   103  56  48   109  62  54   118  71  63   111  66  60   119  74  69   120  75  72   129  83  85   141  96  99   136  91  96   135  90  97   155 110 115   127  85  86   123  82  80   119  78  74   117  76  72   119  75  72   119  76  70   119  74  69   118  73  67   128  81  73   115  68  60   108  60  50   111  63  53   113  63  54   106  56  47   103  53  42   108  56  43   109  56  42   106  50  35   100  44  29   100  44  29   103  47  30   105  49  32   105  50  30   103  48  28    95  42  24    98  47  28   100  49  32    92  45  27    83  35  21    77  31  16    75  31  18    78  36  22    81  41  31    86  46  36    86  46  34    80  40  28    78  36  22    81  39  25    83  41  27    81  39  25    85  43  29    82  40  26    77  38  23    79  39  27    82  44  33    83  47  35    79  45  33    78  41  32    86  48  39    98  58  50   100  60  52    99  59  51    91  51  43    93  53  45   105  62  53    92  49  40
 86  43  26    92  46  30    94  45  28    92  43  26    94  43  24    96  45  26    96  44  23    93  41  20   106  49  32   105  48  31   103  47  30   102  46  29   103  48  28   104  49  29   104  52  31   105  53  32   103  51  30   110  58  37   111  60  41   117  66  49   127  75  61   129  77  63   126  74  61   130  78  67   127  77  68   123  73  64   123  74  67   119  70  63   105  58  50    95  51  42    92  49  40    86  46  36    88  50  41    85  47  38    81  44  36    81  44  36    80  46  37    80  46  37    78  44  35    75  42  33    73  40  33    72  42  34    68  38  30    61  31  23    56  27  19    58  29  21    59  32  23    59  32  23    53  29  19    52  28  18    51  29  18    50  28  17    47  27  16    49  29  18    51  31  20    53  34  20    53  34  19    55  36  19    59  38  21    63  40  24    67  41  26    70  42  28    74  42  27    75  42  27    77  41  25    79  42  26    84  42  28    87  45  31    89  45  32    91  47  34    95  49  34    97  51  36    92  45  29    93  44  27   100  51  36   107  58  43   103  54  40    92  44  30    90  42  30    94  48  35    93  45  35    92  44  34    94  46  36    96  46  37    93  43  34    90  40  31    94  44  35    99  50  43    98  54  45    97  57  47    93  53  43    91  53  44    99  62  53   100  66  56   102  68  58   107  74  65   114  81  72   112  82  74   111  81  73   111  80  75   111  78  73   108  75  70   105  70  68   102  67  63   104  71  64   106  73  64   105  72  63    99  66  57    91  59  48    85  53  42    84  52  41    86  54  43    77  45  32    83  51  38    83  51  38    78  46  33    77  45  30    81  49  34    82  50  35    79  46  31    89  51  40    93  50  41    92  49  40    94  51  42   101  57  48   107  63  54   107  60  50   100  53  43    97  49  37   109  59  48   113  61  48   113  61  48   121  67  55   127  73  61   129  75  63   132  80  67   117  67  56   112  64  52   118  70  58   122  74  62   116  68  56   116  68  56   124  76  64   127  79  67   124  76  64   127  79  67   126  78  66   123  75  63   122  74  62   118  70  58   115  67  55   117  69  57   121  71  62   123  75  65   118  70  60   114  66  56   116  68  58   112  65  55   108  61  51   111  64  54   113  66  56   108  64  53   112  68  57   113  69  58   118  74  63   114  70  59   100  56  45   105  61  52   108  61  55   105  58  52   109  61  57   108  63  58   102  58  55    99  60  55    96  61  55    88  58  50    67  40  31    59  35  25    58  31  20    65  35  24    74  37  28    80  37  28    85  37  27    88  38  29    87  39  29    91  42  35    99  50  43   106  57  50   107  60  52   107  60  52   110  63  55   114  67  59   112  67  62   119  74  69   121  75  75   132  86  88   145 100 103   139  94  99   134  89  96   145 103 107   131  89  90   125  84  82   117  76  72   113  72  68   116  72  69   119  75  72   124  79  74   125  80  75   130  83  77   117  70  62   110  61  54   112  64  54   111  61  52   103  53  44    99  49  38   103  51  38   105  52  38   104  48  33   100  44  29   101  45  30   104  48  31   106  50  33   104  49  29   101  46  26    95  42  24    97  46  27    96  47  30    90  43  25    81  35  20    75  32  16    77  35  21    81  39  27    83  43  35    85  45  37    85  45  37    80  40  30    79  36  27    80  38  26    82  40  28    82  40  26    80  38  24    79  37  23    77  38  23    78  40  27    80  42  31    81  45  33    78  44  32    79  43  31    78  40  31    90  50  42    93  53  45    98  58  50    99  59  51   102  62  54   112  69  60   103  60  51
 86  43  26    91  45  29    94  45  28    93  44  27    95  44  25    96  45  26    97  45  24    94  42  21   100  43  26   102  44  30   103  47  30   105  49  32   105  50  30   104  49  29   101  49  28   101  49  28   108  55  37   113  60  42   113  62  45   118  67  50   128  76  62   130  78  65   125  73  62   127  75  64   123  70  62   116  66  57   117  68  61   116  67  60   102  55  47    93  49  40    94  51  42    93  53  43    92  54  45    86  49  40    81  44  36    81  44  36    81  47  38    82  48  39    80  46  37    76  43  34    76  43  36    75  45  37    72  42  34    66  36  28    61  32  24    61  32  24    61  34  25    61  34  25    53  29  19    54  30  20    53  31  20    52  30  19    48  28  17    48  28  17    52  32  21    56  37  23    55  38  22    58  39  22    62  41  24    66  43  27    70  44  27    73  46  29    77  45  30    78  45  30    80  44  28    80  43  27    83  41  27    84  42  28    88  45  29    92  49  33    95  52  36    99  53  38    94  47  31    95  46  31   100  52  38   105  57  43   101  53  41    90  44  31    87  40  30    89  45  34    92  45  37    92  45  37    94  47  37    96  48  38    93  45  33    91  43  31    95  45  34   100  52  42   100  53  43    98  54  43    91  49  37    89  49  39    97  59  48   101  65  53   100  66  54   105  73  62   113  81  70   111  78  69   110  77  68   110  77  70   112  77  71   110  75  69   106  71  67   103  68  62   102  69  60   104  72  61   105  73  62   101  69  58    94  62  51    88  56  45    85  53  40    84  52  39    82  50  37    84  52  39    84  52  37    82  50  35    78  46  31    75  43  28    76  44  29    78  45  30    88  50  39    89  49  41    87  47  39    87  47  39    94  51  42    99  56  47   100  56  45   100  53  43    98  50  38   107  57  46   108  56  43   107  55  42   115  62  48   121  68  54   124  71  57   129  77  64   111  61  50   110  62  50   116  68  56   119  71  59   111  63  51   109  61  49   117  69  57   124  76  64   130  82  70   129  81  69   129  81  69   127  79  67   121  73  61   120  72  60   122  74  62   122  74  62   117  69  59   120  72  62   117  69  59   111  64  54   113  66  56   112  65  55   111  64  54   111  67  56   108  64  53   110  66  55   118  74  63   116  74  62   118  76  64   112  70  58    98  56  44   104  60  51   104  59  53   104  56  52   107  59  57   108  60  58   100  54  54    97  56  54    99  61  58    91  60  55    66  39  32    58  34  24    54  30  18    61  33  21    69  37  26    77  39  28    82  38  27    87  39  29    82  35  25    89  42  32    98  51  41   103  56  46   108  61  51   111  64  54   109  65  56   107  63  54   121  76  71   125  80  75   123  79  78   131  87  88   143  98 101   136  91  96   127  84  91   137  95  99   131  89  90   126  86  84   117  77  75   115  75  73   115  74  70   116  75  71   123  80  74   123  80  74   123  78  72   113  69  60   109  62  54   110  63  55   109  61  51   101  53  43    99  49  40   102  50  39   104  48  35   103  45  31   102  44  30   104  46  32   107  50  33   108  51  34   104  49  29   101  46  26    95  42  24    96  45  26    94  45  28    88  41  23    81  35  20    78  35  19    81  39  25    85  45  33    87  47  39    84  43  37    84  41  35    83  40  33    81  38  29    79  37  25    82  38  27    85  41  30    75  33  19    77  35  21    77  37  25    77  39  26    77  39  28    77  41  29    77  43  31    81  45  33    77  39  30    87  48  41    87  48  41    97  58  51   106  66  58   106  66  58   111  68  61   106  63  56
 86  43  26    89  43  27    92  43  26    93  44  27    95  44  25    96  45  26    97  45  24    96  44  23    94  36  22    97  39  25   101  45  28   104  48  31   105  49  32   104  49  29   102  50  29   102  50  29   113  60  42   116  63  45   112  61  44   115  64  47   125  73  60   128  76  63   126  74  63   129  77  66   119  66  58   118  65  57   118  68  61   112  63  56    98  51  43    92  49  40    95  55  45    95  57  46    95  58  49    89  52  43    83  46  38    81  44  36    81  47  38    83  49  40    80  46  37    77  43  34    76  43  36    75  45  37    73  43  35    69  39  31    64  35  27    62  33  25    62  35  26    62  35  26    55  31  21    58  34  24    57  35  24    54  32  21    48  28  17    48  28  17    51  31  20    56  37  23    60  43  27    61  44  26    65  44  27    68  45  29    71  45  28    73  44  28    75  43  28    76  43  28    82  45  29    80  43  27    80  41  26    82  40  26    86  44  28    90  48  32    95  52  36    97  54  38   100  52  38    97  49  35    98  50  36    98  52  39    94  48  35    86  42  31    85  41  30    89  46  37    87  43  34    89  45  36    92  48  37    94  47  37    91  45  32    91  43  31    94  46  34    98  50  38    96  48  34    96  50  35    90  46  33    91  49  35   100  61  46   104  66  53   104  68  54   107  73  61   110  76  64   107  75  64   105  72  63   106  73  64   109  74  68   109  74  68   106  71  65   103  68  62   103  69  60   103  71  60   104  70  60    99  67  56    94  60  50    87  55  44    85  51  39    83  51  38    87  53  41    85  53  40    87  54  39    87  55  40    82  49  34    74  42  27    76  43  28    83  50  35    87  50  41    87  49  40    85  47  38    86  46  38    89  49  39    94  51  42    97  55  43    98  54  43   107  61  48   110  62  50   105  56  42   102  50  37   109  56  42   113  60  46   116  63  49   123  71  57   114  65  51   116  68  56   122  74  62   123  75  63   115  67  55   111  63  51   119  71  59   129  81  69   137  89  77   132  84  72   132  84  72   130  82  70   121  73  61   121  73  61   126  78  66   123  75  63   115  67  57   118  70  60   116  69  59   111  64  54   111  64  54   113  66  56   112  68  57   113  69  58   109  65  54   111  67  56   117  75  63   116  74  62   120  78  66   117  75  63   102  60  48   105  62  53   108  65  59   102  57  52   105  57  55   105  57  55   102  54  54   101  57  56   100  60  58    92  59  54    72  43  37    63  38  31    57  33  23    58  31  20    63  33  22    73  36  27    80  37  28    83  39  28    80  33  23    89  42  32    96  49  39    99  52  42   105  58  48   112  65  55   110  66  57   105  61  52   116  71  65   120  75  70   120  76  73   126  82  81   136  92  93   135  90  93   136  94  98   148 106 110   122  82  82   125  85  83   120  80  78   122  82  80   121  80  76   115  74  70   117  74  68   112  69  63   113  68  62   107  62  56   107  60  52   108  61  53   108  60  50   103  55  45   103  53  44   107  55  44   104  48  35   104  46  32   104  46  32   106  48  34   108  51  34   109  52  35   106  51  31   104  49  29    98  45  27    97  46  27    94  45  28    88  43  24    82  39  23    82  40  24    85  46  31    91  51  39    89  49  41    83  42  36    83  40  34    84  41  34    82  39  30    78  35  26    81  37  26    87  43  32    77  33  22    78  36  24    79  37  25    75  35  25    72  34  23    73  36  27    79  42  33    83  46  37    83  46  38    92  53  46    87  48  41    96  57  50   107  67  59   101  61  53   101  58  51    98  55  48
 84  41  24    87  41  25    90  41  24    92  43  26    95  44  25    95  44  25    96  44  23    97  45  24    95  37  23    98  40  26   101  45  30   103  47  30   102  46  29   102  46  29   100  48  27   102  50  29   106  53  35   110  57  39   109  58  41   114  63  46   125  73  60   130  78  65   130  78  67   134  82  71   123  70  62   126  73  65   124  74  67   109  60  53    92  45  37    91  48  39    93  53  43    87  49  38    96  59  50    91  54  45    83  49  40    80  46  37    83  46  38    84  47  39    82  45  37    78  44  35    75  42  35    72  42  34    71  41  33    68  38  30    64  35  27    61  32  24    61  34  25    64  37  28    60  36  26    61  37  27    60  38  27    56  34  23    49  29  18    48  28  17    51  31  20    55  36  22    59  42  26    60  43  25    65  44  27    67  44  28    70  44  29    73  44  30    74  42  27    75  42  27    81  43  30    80  42  29    81  42  27    81  42  27    83  44  29    86  47  32    92  50  36    94  52  38    98  52  39    95  49  36    95  49  36    92  48  37    89  45  34    84  41  32    84  41  32    85  45  37    81  38  31    85  42  33    88  46  34    89  45  34    86  42  29    89  43  30    91  45  30    95  47  33    94  47  31    98  51  35    95  49  34    96  53  37   105  63  47   107  68  53   105  68  52   109  73  59   107  71  59   104  70  58   103  69  59   104  70  60   108  71  63   109  72  64   109  72  64   108  71  63   112  75  66   109  75  65   108  71  62   101  67  57    97  61  49    91  57  45    91  55  43    89  55  43    93  57  43    89  56  41    92  56  42    92  59  44    89  53  37    79  46  29    83  47  31    88  55  40    87  50  41    85  48  40    84  47  38    86  48  39    89  51  40    92  52  42    96  54  42    98  54  43   108  62  49   110  62  50   106  57  43   103  54  40   110  58  44   111  59  45   111  58  42   117  65  51   119  70  56   122  74  60   126  78  64   126  78  64   121  73  59   116  68  54   121  73  59   132  84  70   139  91  77   132  84  70   132  84  70   130  82  68   123  75  61   123  75  61   125  77  63   121  73  61   113  66  56   116  69  61   118  71  63   113  66  58   108  64  55   112  68  59   115  71  62   113  69  60   108  65  56   106  63  54   108  65  56   107  64  55   115  75  65   117  77  67   102  62  52   101  61  51   112  71  65   103  59  56   100  54  54   103  55  55   103  55  55   105  59  59   101  59  60    88  53  51    81  52  46    73  48  41    64  40  30    57  33  21    59  31  19    67  33  23    75  37  26    80  37  28    79  35  24    88  41  31    92  46  33    94  48  35    98  54  41   107  63  50   109  65  54   106  62  53   110  67  60   117  74  68   123  79  76   127  83  82   128  86  87   128  86  88   134  92  96   147 105 109   112  72  72   120  80  80   117  77  75   123  83  81   123  82  80   114  73  69   117  74  68   109  66  60   106  61  55   105  60  54   107  60  52   108  61  53   107  58  51   103  54  47   103  55  45   106  56  45   107  51  38   107  49  35   106  48  34   106  48  34   108  51  34   109  52  35   109  54  34   108  53  33   100  47  29   100  49  30    97  48  31    91  46  27    87  44  28    87  45  29    90  51  36    95  55  43    91  48  41    84  41  34    83  38  32    85  40  34    85  41  32    82  38  29    85  38  28    87  43  32    82  38  27    80  37  28    77  34  25    72  32  24    69  31  22    72  35  27    79  42  34    85  48  40    84  47  39    91  54  46    85  46  39    92  53  46   101  60  54    94  53  47    95  52  45    94  51  44
 82  39  22    84  38  22    88  39  22    91  42  25    95  44  25    94  43  24    95  43  22    97  45  24   100  42  28   103  45  31   104  48  33   103  47  32   100  44  27    97  41  24    96  44  23    97  45  24   101  48  30   109  56  38   113  62  45   118  66  52   127  75  62   126  74  61   123  71  60   126  74  63   118  65  57   123  70  62   121  71  64   105  56  49    91  44  36    94  51  42    97  57  47    87  49  38    95  58  49    92  55  46    86  52  43    83  49  40    83  46  38    82  45  37    81  44  36    77  43  34    74  41  34    69  39  31    68  38  30    67  37  29    63  34  26    61  32  24    62  35  26    66  39  30    63  39  29    63  39  29    61  39  28    57  35  24    51  31  20    50  30  19    52  32  21    55  36  22    56  39  23    58  39  22    63  42  25    67  44  28    71  45  30    75  46  32    77  45  30    79  46  31    78  40  27    80  42  29    83  44  29    83  44  29    82  43  28    83  44  29    86  47  32    88  49  34    88  44  31    89  45  34    91  47  36    92  49  40    90  47  38    84  44  36    80  40  32    78  40  31    75  35  27    81  41  31    85  45  35    85  43  31    83  41  27    85  42  26    90  44  29    91  45  29    96  47  30   102  53  36   101  54  36   102  56  40   106  63  46   106  64  48   103  64  47   107  70  54   108  70  57   107  71  59   107  71  59   106  72  62   109  72  64   111  74  66   114  77  69   116  79  71   117  79  70   114  76  67   108  70  61   102  64  55    96  58  47    93  55  44    92  54  43    92  54  43    97  59  46    95  57  44    96  58  45    97  59  46    94  57  41    88  51  35    88  51  35    93  57  43    84  50  40    81  47  38    83  46  37    88  51  42    93  55  46    94  56  45    94  54  42    96  54  42    98  54  41   103  57  44   104  56  42   109  60  45   118  66  52   115  63  49   111  58  42   113  62  45   121  72  58   123  75  61   122  74  60   122  74  60   122  74  60   117  69  55   119  71  57   128  80  66   134  86  72   129  81  67   127  79  65   127  79  65   126  78  64   126  78  64   123  75  61   117  69  57   113  66  56   117  70  62   121  74  66   116  69  61   108  64  55   112  68  59   116  72  63   110  66  57   104  61  52   101  58  49   101  58  49    98  55  46   108  68  58   114  74  64   100  60  50    98  58  50   111  70  64   102  58  55    99  53  53   103  55  55   104  54  55   106  58  58   101  57  58    87  49  48    89  58  53    85  58  51    75  51  41    64  40  30    61  33  22    63  33  22    72  35  26    75  35  25    81  37  26    86  39  29    89  43  30    91  45  32    93  49  36   100  56  43   106  62  51   108  64  53   110  67  58   120  77  70   129  86  80   132  88  85   127  86  84   122  80  81   123  81  83   128  86  88   108  68  68   117  77  77   112  72  70   119  79  77   119  78  76   112  71  69   121  77  74   115  72  66   107  62  57   108  63  57   111  64  58   110  63  55   106  57  50   101  52  45   100  52  42   102  52  41   108  52  39   108  50  36   107  49  35   107  49  35   108  51  34   109  52  35   108  53  33   109  54  34   101  48  30   101  50  31    99  50  33    95  50  31    91  48  32    90  48  32    91  52  37    93  53  41    87  44  35    84  41  32    83  38  32    85  41  32    86  42  33    85  41  32    87  40  30    88  41  31    86  42  33    81  36  30    74  31  24    72  29  23    73  32  26    77  38  33    83  43  41    86  49  43    78  41  33    87  50  42    84  45  38    87  48  41    92  51  45    90  49  43    99  56  49    98  55  48
 81  38  21    81  35  19    85  36  19    90  41  24    94  43  24    92  41  22    94  42  21    97  45  24   100  42  28   104  46  32   107  51  36   105  49  34   100  44  27    96  40  23    94  41  23    95  42  24   101  48  30   111  58  40   116  65  48   119  67  53   123  71  58   120  68  55   116  64  53   120  68  57   111  56  49   113  60  52   112  62  55   102  53  46    93  46  38    97  54  45   100  60  50    92  54  43    92  55  46    92  55  46    89  55  46    85  51  42    83  46  38    80  43  35    79  42  34    77  43  34    74  41  34    68  38  30    66  36  28    66  36  28    63  34  26    61  32  24    63  36  27    70  43  34    63  39  29    62  38  28    60  38  27    57  35  24    54  34  23    54  34  23    55  35  24    57  38  24    58  39  24    60  41  26    64  42  28    68  45  31    72  46  31    76  47  33    79  47  34    80  46  34    74  36  23    80  42  29    85  47  34    85  47  34    81  44  28    79  42  26    80  43  27    84  45  30    84  40  29    86  42  33    88  44  35    88  45  38    86  46  38    83  44  37    80  41  34    77  40  32    72  34  25    79  41  30    84  46  35    82  42  30    82  40  26    85  43  27    88  45  29    90  44  28    95  46  29   102  54  34   103  55  35   102  55  37   104  61  42   103  62  44   103  64  47   109  72  56   112  75  59   113  77  63   115  79  67   115  79  67   115  78  69   117  80  71   124  86  77   129  91  82   122  82  74   118  78  70   111  71  63   104  64  56    99  59  49    96  56  46    94  54  44    93  53  43   101  61  49    99  59  47    99  59  47    98  58  46    95  56  41    92  53  38    91  52  37    91  53  40    82  48  38    77  44  35    80  46  37    88  54  44    96  59  50    96  58  47    93  53  41    93  51  39    95  51  38    99  53  40   100  52  38   108  59  44   119  67  53   116  65  48   111  60  43   115  64  47   121  72  58   121  73  59   116  68  54   117  69  55   122  74  60   118  70  56   115  67  53   122  74  60   125  77  63   123  75  61   120  72  58   123  75  61   130  82  68   130  82  68   121  73  59   115  67  55   114  67  57   117  73  64   123  79  70   118  74  65   109  65  56   113  69  60   115  72  63   107  64  55   102  59  50   103  60  51   102  62  52    96  56  46   105  65  55   110  70  60    98  58  48    98  58  50   102  63  56    97  56  52   100  54  54   103  55  55   100  50  53   101  51  54    99  53  55    90  50  50    90  59  56    91  64  57    86  62  52    73  49  39    65  38  27    63  35  23    68  34  24    72  34  23    81  37  26    84  38  25    85  41  28    89  45  32    91  47  34    94  50  37   101  57  44   108  64  53   108  65  56   114  71  64   120  79  73   126  85  81   127  86  84   125  83  84   122  80  82   120  78  80   110  70  70   119  81  80   112  72  70   119  79  77   118  77  75   110  69  67   122  78  75   116  73  67   108  63  58   111  66  60   115  68  62   112  65  59   105  56  49    99  50  43    97  49  39    99  49  38   105  49  36   108  49  35   109  50  36   109  50  36   108  49  33   106  49  32   105  50  30   105  50  30   100  47  29   100  49  30   100  51  34    98  53  34    94  51  35    91  49  33    88  49  34    88  49  34    83  41  29    84  40  29    84  40  31    84  40  29    89  42  32    92  45  35    90  43  33    87  40  30    87  40  32    78  33  27    71  28  22    73  29  26    79  38  36    85  45  43    88  48  48    87  47  45    79  42  36    89  52  44    87  50  42    84  47  39    80  41  34    85  44  38   102  59  52    99  56  49
 80  37  20    80  35  16    83  36  18    90  41  24    92  44  24    91  40  21    92  41  20    97  44  26    96  40  25   102  44  30   107  51  36   107  51  36   103  47  30    98  42  25    95  42  24    96  43  25    98  45  27   108  55  37   112  61  44   113  61  47   117  65  51   117  65  52   119  67  56   128  76  65   112  59  51   108  58  49   107  59  49   101  54  46    93  46  38    93  50  41    95  55  45    89  51  40    92  54  45    92  55  46    92  55  46    89  52  44    83  46  38    78  41  33    76  42  33    76  42  33    74  41  32    70  37  28    67  34  27    65  35  27    64  34  26    61  32  24    65  38  29    73  46  37    62  38  28    59  37  26    58  36  25    57  35  24    56  36  25    57  37  26    58  38  27    59  40  26    63  44  30    66  44  30    68  45  31    72  46  33    74  46  32    77  45  32    78  44  32    80  44  32    71  33  20    79  41  28    87  49  36    87  49  36    81  43  30    77  40  24    78  38  26    81  41  29    85  42  33    84  41  32    81  41  33    80  40  32    80  42  33    81  43  34    81  44  35    81  44  35    71  34  25    80  42  31    84  46  33    83  44  29    83  41  25    86  44  28    89  46  29    90  44  28    90  43  27    99  50  33   100  53  35    99  52  34   103  57  41   103  60  43   107  65  49   116  77  60   118  79  64   120  83  67   123  85  72   122  84  73   121  83  72   124  86  75   131  93  82   138  98  88   133  90  83   129  86  79   122  79  72   115  72  65   110  67  60   106  63  54   103  60  51   101  58  49   104  62  50   104  62  50   102  60  48    99  57  43    97  55  41    95  53  37    93  51  35    89  50  35    81  45  33    75  41  31    78  44  34    91  54  45   100  62  51    97  59  48    92  52  40    91  49  35    98  56  42    98  55  39    94  51  35   100  54  38   110  63  47   110  61  46   110  61  47   117  68  54   123  74  60   121  72  58   114  64  53   114  66  52   122  74  62   119  71  59   114  66  54   119  71  59   117  69  57   118  70  58   114  66  54   119  73  60   132  86  73   132  86  73   119  73  60   113  66  56   112  68  57   118  74  63   126  82  73   120  76  65   109  65  56   113  69  58   115  72  63   105  63  51   103  60  51   108  66  54   110  70  60   103  63  51   106  66  56   110  70  58    99  59  49   101  63  52    93  54  47    93  52  48   100  56  53   101  55  55    95  47  47    94  46  46    96  52  51    93  53  51    91  58  53    95  66  60    94  67  58    83  56  47    70  42  31    66  36  26    67  35  24    70  33  24    79  36  27    80  36  27    84  40  29    90  46  35    91  47  36    90  46  33    97  53  40   107  65  51   117  75  63   113  73  63   114  76  67   119  80  73   122  83  78   124  83  81   120  78  79   113  71  72   114  74  74   125  85  83   118  77  75   125  84  80   122  78  75   110  66  63   118  74  71   111  66  61   107  62  57   112  67  61   116  69  63   112  65  57   104  57  49    98  51  41    96  49  39    98  50  38   102  46  33   105  47  33   108  49  35   108  50  36   107  49  35   105  48  31   101  45  28    98  45  27    97  46  27    99  48  29   100  51  34    99  52  34    96  50  34    91  48  31    87  45  29    85  43  27    82  36  23    86  39  29    87  40  30    86  39  29    91  43  33    96  48  38    92  45  35    86  39  29    84  37  29    75  30  24    69  26  20    72  31  27    84  43  41    92  52  52    91  51  51    87  47  45    86  49  41    96  59  50    92  58  48    83  49  40    72  35  27    78  39  32    97  57  49    94  51  44
 78  37  19    79  36  17    82  37  18    84  37  17    86  39  19    89  41  21    91  43  21    94  43  24    93  37  22    97  39  27   101  45  30   103  47  32   103  47  30   102  46  29    99  47  26    99  47  26   102  50  29   107  54  36   107  54  36   108  55  39   116  63  49   119  66  52   123  69  57   130  78  65   111  63  51   105  61  48    98  54  41    92  48  37    96  52  41   103  59  48    99  57  45    89  47  35    88  48  38    90  52  41    92  54  43    88  51  42    81  44  35    74  40  30    73  41  30    74  42  31    75  41  31    72  35  26    69  35  26    69  36  27    66  36  26    62  34  23    66  39  28    74  47  36    66  42  30    65  43  30    64  42  31    59  39  28    57  37  26    58  38  27    63  41  30    65  43  30    68  46  33    69  46  32    71  45  32    75  45  34    80  46  34    82  46  34    82  44  33    81  41  31    82  42  32    84  44  34    85  45  35    84  44  34    82  42  32    79  39  27    81  38  29    81  38  29    81  41  31    79  41  32    78  40  31    77  39  30    76  38  29    76  38  27    77  39  28    77  39  26    78  40  27    78  38  26    81  42  27    87  45  31    87  45  29    85  43  27    88  46  30    93  50  34    92  46  33    99  53  40   105  59  46   106  60  47   108  65  49   116  73  57   120  76  63   119  77  63   125  83  69   126  87  72   130  91  76   134  95  80   136  97  82   139 100  85   147 108  93   156 114 102   141  98  91   147 102  97   143  98  93   131  86  80   120  75  69   114  69  63   111  67  58   110  66  57   115  71  60   109  65  52   105  61  48   105  62  46   104  61  45    98  55  38    92  49  32    91  49  33    85  47  34    86  50  38    94  56  45   101  61  49   104  62  48   102  60  46    97  55  39    91  49  33    97  55  39    97  58  41    99  60  43   102  60  46   104  60  47   107  60  50   111  64  56   116  67  60   119  66  58   114  62  51   114  61  53   110  60  49   110  60  51   119  69  60   123  75  65   117  69  59   113  66  56   122  75  65   118  71  63   114  70  61   129  85  76   135  91  82   120  75  69   105  62  53   108  66  54   113  71  57   120  78  66   120  78  64   115  71  60   119  75  62   119  75  64   110  66  53   103  59  48   110  68  54   115  75  63   113  74  59   105  67  54   101  64  48   106  68  55   113  75  62    90  52  43    91  50  44    98  57  51    98  57  53    90  49  45    94  53  49   100  61  56    95  58  52    92  57  51    91  56  50    96  63  54    96  63  54    84  51  42    76  43  34    73  39  30    70  33  25    80  41  36    80  39  35    82  39  33    88  43  37    94  50  41    98  54  43    97  53  40    93  51  35   102  65  49   109  73  57   108  75  60   106  72  60   116  79  70   128  89  82   122  81  77   103  62  58   106  65  61   122  81  77   136  92  89   132  89  83   120  75  70   112  67  61   110  65  59   111  64  56   105  58  50   103  56  46   100  56  45   101  57  44    98  56  42    94  52  38    91  52  37    97  54  38   101  49  35   104  48  35   105  47  35   103  47  34   102  46  33   100  44  29    97  44  28    96  43  27    98  47  30    97  46  29    95  47  27    96  48  28    96  49  31    96  49  31    93  48  27    92  45  27    98  46  35    91  38  30    89  37  26    93  41  30    94  44  33    92  42  31    91  43  31    93  46  36    89  42  32    78  34  25    73  30  23    77  36  30    82  43  38    82  44  41    82  44  41    85  48  42    83  46  37    94  60  48    89  57  44    81  49  38    70  36  26    73  36  27    92  53  46    97  56  50
 80  39  21    80  39  19    83  38  19    84  39  18    87  40  20    89  42  22    92  44  22    95  44  25    93  37  22    96  40  27    98  42  27    99  43  28   100  44  27   101  45  28   101  49  28   103  51  30   110  58  37   109  57  36   103  50  32   106  53  37   119  66  52   122  69  55   118  64  52   115  66  52   108  62  49   100  58  44    93  51  37    91  49  35    96  52  41    99  55  44    96  52  41    90  48  36    88  48  38    90  50  40    91  53  42    87  51  39    79  45  35    73  41  30    71  41  30    75  43  32    79  42  33    76  39  30    71  37  27    69  37  26    65  35  25    63  35  24    65  38  27    67  43  31    66  44  31    66  44  31    64  44  33    62  42  31    60  40  29    62  40  29    64  42  31    66  44  31    68  46  32    69  46  32    73  45  33    78  46  35    83  47  35    84  46  35    82  42  32    80  40  30    83  43  33    85  45  35    86  46  36    85  45  33    83  43  33    81  41  29    82  39  30    83  40  31    79  41  30    78  40  29    78  40  31    77  39  28    77  39  28    78  38  26    78  38  26    78  39  24    81  39  25    81  39  25    85  41  28    90  47  31    91  48  32    90  47  31    93  50  34    98  55  39    97  51  38   106  59  49   114  67  57   118  71  61   121  75  62   126  80  67   128  82  69   126  80  67   129  85  72   134  90  77   140  96  83   140  96  83   140  96  83   143 100  84   147 103  90   150 106  95   155 110 104   159 111 107   155 107 103   143  96  90   134  87  81   130  83  75   127  80  72   125  78  68   119  73  60   116  70  57   111  65  50   112  66  51   115  69  53   108  62  46   101  56  37   100  57  40    90  51  36    91  53  40    98  56  44   103  61  47   106  63  47   107  61  46   101  58  41    97  54  37   102  60  44   100  61  44    99  60  45    97  58  43    98  56  44   100  56  47   104  57  51   107  58  53   112  59  51   112  57  50   114  61  53   115  62  54   112  62  53   120  70  61   124  75  68   118  69  62   117  70  62   124  77  69   119  74  68   117  72  66   127  84  77   130  87  80   120  77  71   112  69  62   113  73  61   112  73  58   118  76  62   117  75  61   112  68  55   113  69  56   116  72  59   111  67  54   111  67  54   115  73  59   118  76  62   113  74  59   105  68  52    99  62  46    98  62  46   100  64  50    89  49  41    94  53  47   100  61  54    97  58  51    88  49  42    92  53  46    96  59  51    91  54  46    94  57  49    93  56  48    95  61  52    96  62  53    88  54  45    83  49  40    77  43  34    65  30  24    76  38  35    76  36  34    79  38  36    86  43  37    94  49  43    98  54  43    96  54  40    92  53  36    94  57  39   101  66  47   103  70  53   102  69  54   107  71  59   115  77  68   118  77  71   113  72  68   107  64  58   121  78  72   132  87  82   127  82  77   117  70  64   110  63  57   108  61  53   108  61  53   107  60  50   101  54  44    98  54  41    99  57  43    99  57  41    93  54  37    94  57  39   102  60  44   108  56  42   109  53  40   105  49  36   103  47  34    99  46  32    99  46  32    99  46  30   100  47  31   104  53  36   102  51  34    99  51  31    99  51  31    99  51  31    98  50  30    95  49  26    94  45  28   100  46  34    96  39  30    92  38  28    95  41  31    95  43  32    90  40  29    89  39  28    88  42  29    91  44  34    83  39  28    78  35  26    79  39  31    82  43  36    83  46  40    85  47  44    87  50  44    82  45  36    91  57  45    91  59  46    83  53  42    77  47  36    76  43  34    87  48  41    96  55  49
 81  40  22    81  40  20    84  39  20    85  40  21    87  40  20    89  42  22    92  44  22    95  44  25    92  39  23    95  39  26    96  40  25    94  41  25    95  42  24    98  45  27   102  50  29   106  54  33   114  61  43   112  59  41   106  53  37   108  55  39   119  66  52   119  66  52   111  57  45   106  57  43   105  59  46    94  52  38    89  47  33    91  49  35    94  52  40    93  51  39    91  49  37    91  49  37    87  47  37    89  49  39    89  51  40    86  50  38    78  44  34    74  42  31    71  41  30    75  43  32    76  42  32    75  41  31    71  39  28    66  36  25    66  36  26    68  40  29    68  41  30    65  41  29    67  45  32    68  46  33    68  46  33    67  45  32    65  43  30    66  42  30    67  43  33    68  44  32    67  45  31    69  46  30    73  47  32    78  49  35    83  49  37    85  47  36    82  42  30    78  38  26    80  40  28    80  42  29    82  44  31    81  44  28    78  40  27    78  39  24    80  38  26    80  38  26    78  38  26    78  38  26    79  39  29    80  40  28    80  40  28    82  40  28    82  40  28    82  40  26    85  41  28    85  42  26    90  44  29    96  50  34   100  53  37   100  53  37   105  56  41   111  62  47   114  62  51   120  68  57   126  74  63   129  77  66   130  80  69   135  85  74   137  87  76   137  87  76   136  88  78   145  97  87   152 105  95   147 100  90   145  98  88   149 103  90   147 100  90   145  98  88   160 111 106   159 110 106   156 107 103   148  99  94   141  92  87   140  91  84   138  89  82   133  85  75   123  75  63   123  75  63   118  70  56   119  71  57   125  78  62   119  72  56   110  63  45   110  64  48   102  58  45   101  59  45   105  59  46   107  61  48   112  64  50   111  64  48   107  60  44   104  58  42   108  65  48   105  64  46   102  60  44   100  56  43   100  56  45   102  55  47   103  54  47   104  54  47   106  53  45   108  56  45   115  62  54   117  64  56   113  63  54   120  70  61   124  76  66   118  70  60   120  73  65   123  76  68   120  75  69   120  75  69   123  80  73   122  79  72   116  76  68   117  77  67   119  79  67   113  74  59   115  73  59   115  73  59   108  64  51   107  63  50   112  68  55   113  69  56   115  71  58   117  75  61   119  77  63   113  74  59   105  68  52    97  60  44    92  56  40    91  55  41    88  48  40    98  57  51   104  65  58    97  58  51    88  49  42    91  52  45    93  56  48    86  49  41    93  56  48    93  56  48    95  61  52    94  60  51    90  56  47    90  56  47    82  48  39    65  30  24    73  35  32    73  33  31    76  35  33    84  41  35    92  47  41    97  53  42    97  55  41    93  54  39    98  61  43   102  67  48   104  71  54   101  68  53    99  63  51   102  64  55   109  68  62   117  74  68   108  65  59   116  73  67   121  78  72   116  73  67   109  64  58   107  62  56   113  66  58   117  70  62   107  60  50    99  52  42    95  51  38   100  58  44   101  59  43    94  55  38    95  58  40   106  64  48   104  55  40   105  52  38   102  49  35   100  47  33   100  47  33   103  50  36   106  55  38   108  57  40   105  54  37   104  53  36   102  51  32   102  51  32   101  53  33   102  54  34   101  53  33   101  50  33   101  47  35    99  42  33    96  42  32    97  43  31    95  43  30    89  40  26    87  38  24    84  38  23    92  46  33    89  45  34    85  42  33    80  40  32    81  42  35    86  47  40    89  52  46    90  53  47    82  45  36    85  51  41    85  55  44    79  51  40    83  55  44    83  53  45    85  48  42   102  63  58
 80  39  21    80  39  21    81  38  19    84  39  20    86  39  19    88  41  21    90  42  20    92  44  24    93  40  24    94  41  27    94  41  25    93  40  24    94  41  23    96  43  25   101  49  28   104  52  31   107  54  36   114  61  43   114  61  45   113  60  44   115  62  48   111  58  44   106  52  40   107  58  44   100  56  43    89  47  33    86  44  30    92  50  36    93  51  39    88  46  34    87  45  33    91  49  37    86  46  36    87  49  38    87  49  38    82  48  36    78  44  34    74  42  31    72  42  31    73  43  32    71  39  28    72  40  29    68  38  27    64  36  24    67  39  28    73  46  35    71  47  35    66  42  30    66  44  31    67  45  32    69  47  34    69  45  33    68  44  32    69  42  31    70  43  32    69  45  33    69  46  32    71  48  32    77  49  35    82  53  39    86  52  40    87  49  36    83  43  31    78  38  26    79  41  28    81  44  28    81  45  29    80  45  26    79  42  26    77  40  22    81  39  23    82  40  26    80  38  24    81  39  25    83  39  28    85  41  28    86  42  29    87  43  30    89  43  30    89  43  28    95  47  33    96  47  32   100  51  36   108  56  42   112  60  46   114  61  45   119  66  50   128  72  57   132  75  64   133  76  67   134  77  68   134  77  68   136  79  70   139  85  75   145  91  81   149  95  85   144  91  83   152 102  93   161 111 102   152 102  93   149  99  90   155 107  97   150 101  94   147  98  91   157 106 102   156 105 102   155 104 100   152 101  97   147  96  92   148  98  91   146  96  89   137  87  78   128  78  69   130  80  69   125  75  64   123  74  60   130  81  67   125  76  61   115  66  51   115  68  52   115  69  54   115  69  56   112  62  51   111  62  48   118  66  52   117  65  51   113  61  47   111  62  47   113  66  50   109  63  47   107  61  45   107  61  46   109  63  50   110  62  50   110  60  51   110  57  49   105  53  42   107  55  44   115  62  54   114  64  55   111  61  52   116  68  58   122  74  64   117  70  60   118  71  63   116  72  63   117  72  66   117  74  67   115  72  65   111  68  61   111  71  63   119  79  69   120  80  68   110  71  56   112  70  56   114  72  58   108  64  51   105  61  48   110  66  53   113  69  56   110  66  53   114  72  58   119  77  63   114  75  60   103  66  50    95  58  42    91  55  39    91  55  41    88  48  40   102  61  55   107  68  61    99  60  53    90  51  44    92  53  46    91  54  46    85  48  40    90  53  45    95  58  50    97  63  54    92  58  49    87  53  44    91  57  48    88  54  45    72  37  31    70  35  31    71  33  30    73  33  31    79  38  32    89  46  39    95  52  43    97  55  43    94  55  40   104  67  51   106  70  54   107  71  57   106  70  56   106  68  59   108  68  60   113  70  64   114  71  65   117  74  68   119  76  70   117  74  68   111  68  62   107  62  56   107  62  56   115  68  60   121  74  66   105  58  48    96  49  39    95  51  38   104  60  47   104  62  46    94  55  38    93  54  37   101  59  43   100  51  36   102  50  36   102  49  35   101  49  35   104  51  37   105  53  39   107  56  39   108  57  40   101  50  33   100  49  32    99  48  29   100  49  30   101  53  33   104  56  36   104  56  36   106  55  38   102  48  36   103  46  35   100  46  34   100  46  34    97  45  32    94  42  29    89  40  26    86  38  24    92  46  33    93  49  36    90  48  36    83  40  31    80  40  32    86  47  40    91  52  47    91  54  46    84  47  39    79  45  35    78  48  38    72  44  33    83  54  46    89  59  51    83  48  44   109  71  68
 78  37  19    78  37  19    79  36  17    81  36  17    83  36  16    85  38  18    87  40  20    89  41  21    93  42  25    94  42  28    95  44  27    95  44  27    94  43  24    94  43  24    97  44  26    99  46  28    99  46  28   112  59  41   118  65  49   116  63  49   114  60  48   107  53  41   106  52  42   111  61  50    98  54  41    85  46  31    86  44  30    93  51  37    93  51  39    85  43  31    85  43  31    92  50  38    86  46  36    85  47  36    85  47  36    80  46  34    77  43  33    74  42  31    72  42  31    73  43  32    67  39  28    69  41  30    68  40  29    64  37  26    67  40  29    71  47  35    70  46  34    64  42  29    65  41  29    67  43  31    69  45  33    71  44  33    70  44  31    71  43  31    72  44  32    73  45  33    72  49  33    74  51  35    81  54  37    88  56  41    92  56  42    90  52  39    85  45  33    81  42  27    84  47  31    85  48  30    84  49  30    83  48  28    82  45  27    82  45  26    86  45  27    87  46  28    86  40  25    87  41  26    89  41  29    92  44  30    95  46  32    96  47  33   100  48  35   100  48  34   108  55  41   108  55  39   114  58  43   121  63  49   125  67  53   128  69  53   134  75  59   142  83  69   147  84  75   146  83  74   145  82  73   143  83  73   143  83  75   145  85  77   150  91  85   155  96  90   150  92  88   155 100  95   166 111 106   154 101  95   152  99  93   161 111 104   156 105 101   156 105 101   164 113 110   160 111 107   163 114 110   163 114 109   158 109 104   159 110 103   156 107 100   143  95  85   135  87  77   136  88  76   131  83  71   126  78  64   127  79  65   124  76  62   118  70  56   119  71  57   127  78  64   127  78  64   120  66  54   116  63  49   124  68  55   123  67  52   116  63  47   117  66  49   114  65  48   112  65  47   111  64  46   112  65  49   115  66  51   116  64  51   113  61  50   110  58  47   108  56  45   107  57  46   111  61  50   110  60  49   106  56  45   111  63  51   119  71  61   115  68  58   111  64  54   107  63  52   111  67  58   113  70  61   107  64  55   100  60  50   105  65  55   115  75  65   114  74  62   107  67  55   111  69  57   115  73  61   110  66  55   106  62  51   110  66  55   112  68  57   106  62  51   114  72  60   121  79  67   114  74  62   101  63  50    91  53  40    90  54  40    93  57  45    89  49  41   103  62  56   107  68  61   100  61  54    95  56  49    95  56  49    91  54  46    87  50  42    87  50  42    95  58  50    99  65  56    92  58  49    82  48  39    88  54  45    92  58  49    84  49  43    72  39  34    69  36  31    69  34  30    74  37  29    83  45  36    90  50  40    93  53  41    92  55  39    99  63  47   101  65  49   102  66  52   105  67  54   116  76  68   126  83  76   122  79  73   112  69  63   122  79  73   118  77  71   118  75  69   113  70  64   109  64  58   105  60  54   107  60  52   109  62  54   102  55  45    96  49  39    97  53  40   106  62  49   106  64  48    95  56  39    89  50  33    92  50  34    96  48  34    98  49  35   103  51  38   103  54  40   105  53  39   102  53  38   100  51  36    99  50  35   100  49  32    98  47  30    98  47  30   100  49  32   102  51  32   104  53  34   104  53  34   103  52  35   102  49  35   106  49  38   104  50  38   103  50  36   100  48  34    98  46  32    94  45  30    92  45  29    90  44  29    93  49  36    90  48  36    83  40  31    80  40  32    86  46  38    92  51  45    92  53  46    85  48  40    76  42  33    76  46  38    70  41  33    83  54  48    91  60  55    79  45  43   102  67  65
 75  36  19    77  36  18    78  35  18    78  35  16    81  36  17    83  36  16    85  38  18    86  39  19    91  42  25    95  43  29    97  46  29    97  46  29    96  45  26    95  44  25    96  43  25    97  44  26    98  45  27   108  55  39   113  60  46   114  60  48   116  62  50   113  59  49   110  56  46   113  63  52    97  53  40    88  49  34    89  47  33    95  53  39    93  51  39    85  43  31    85  43  31    90  50  38    85  45  35    83  45  34    81  45  33    78  44  32    75  43  32    73  43  32    73  43  32    72  44  32    70  43  32    68  44  32    70  43  32    65  41  29    65  41  29    66  42  30    63  41  28    59  37  24    64  40  28    67  40  29    69  42  31    71  43  31    71  43  31    73  43  32    78  46  35    78  49  35    81  53  39    82  55  38    88  56  41    93  60  45    97  59  46    95  56  41    89  50  35    85  46  29    83  44  27    83  46  27    83  46  27    82  45  26    81  43  24    81  43  22    85  44  24    89  44  25    92  45  29    93  44  29    97  45  32    99  47  33   103  50  36   106  53  37   111  55  42   113  57  42   119  61  47   120  61  47   125  63  50   132  70  57   136  73  58   138  75  60   145  82  67   154  88  76   153  86  77   153  86  78   155  88  80   155  91  82   153  88  82   149  86  79   150  87  82   150  89  84   149  90  86   151  93  89   162 107 102   153  98  95   151  98  94   164 110 108   160 106 104   163 112 109   167 118 114   162 114 110   168 120 118   169 121 117   162 114 110   164 117 111   163 116 110   148 101  93   146  99  91   145  98  90   141  94  84   133  86  76   126  80  67   126  80  67   128  82  69   128  80  68   133  84  70   135  81  69   124  68  55   119  63  50   129  71  57   128  70  56   121  65  50   123  70  54   119  68  51   117  68  51   115  66  49   114  65  48   115  64  47   112  60  46   109  56  42   107  53  41   111  59  46   107  57  46   108  58  47   105  55  44   100  52  40   108  60  48   114  67  57   111  64  54   103  59  48   100  58  46   105  62  53   109  66  57   101  61  51    98  58  48   104  64  54   109  69  59   108  68  56   105  65  53   113  71  59   117  75  63   112  68  57   109  65  54   111  67  56   109  65  54   109  65  54   116  74  62   121  79  67   114  74  62    99  61  48    89  51  38    88  52  38    91  55  43    89  49  41    99  58  52   102  63  56    99  60  53    99  60  53    96  57  50    91  54  46    91  54  46    86  49  41    93  56  48    97  63  54    91  57  48    81  47  38    86  52  43    94  60  51    92  59  52    77  46  41    72  41  38    69  36  31    70  35  29    78  41  33    85  48  39    90  52  41    91  53  40    96  60  46    99  63  47   101  63  50   105  65  55   119  76  69   128  85  78   124  79  74   111  66  61   109  68  62   108  67  61   112  69  63   115  72  66   114  69  63   107  62  56   102  55  47   100  53  45   104  57  47   100  53  43    99  55  42   104  60  47   106  63  47    98  56  40    91  49  33    88  46  30    87  41  26    91  43  29    97  48  34   101  52  38   104  55  40   105  56  41   104  55  40   103  54  39   105  54  37   104  53  36   103  52  35   103  52  35   104  53  34   103  52  33   100  49  30    98  45  29   103  50  36   106  53  39   107  54  40   103  51  37   101  49  35    99  50  35    99  50  35    96  49  33    90  44  29    92  46  31    90  46  33    86  44  32    85  42  33    86  46  38    91  50  44    93  52  46    85  46  39    77  43  34    82  49  42    75  46  38    85  56  50    91  60  55    77  42  40    88  53  51
 76  37  20    78  37  19    78  35  18    79  36  17    81  36  17    83  38  19    85  38  18    86  39  19    90  43  25    93  44  27    95  46  29    96  47  30    97  46  27    96  45  26    98  45  27    99  46  28   101  45  30   108  52  37   108  55  41   111  57  45   119  65  55   118  63  56   113  60  52   114  64  55    98  54  41    92  53  38    92  53  38    95  56  41    93  51  39    86  44  32    85  45  33    90  50  38    84  44  34    82  44  33    79  43  31    76  42  30    75  43  32    73  43  32    73  43  32    72  44  32    68  44  32    66  44  31    68  44  32    67  45  32    64  42  29    60  38  25    58  36  22    59  37  23    64  41  27    68  42  29    71  43  31    72  42  31    75  43  32    79  45  33    85  49  37    86  52  40    89  57  44    90  58  43    95  59  45    99  62  46   103  61  47   100  58  44    95  53  39    91  49  33    86  44  28    85  47  28    85  47  28    84  46  25    85  44  24    86  44  22    90  45  24    93  46  28   101  50  33   101  48  32   104  48  35   105  49  34   110  52  38   115  58  41   121  62  48   124  65  49   128  66  51   128  65  50   133  67  53   138  72  58   142  74  61   144  76  63   152  82  70   159  89  79   154  84  76   152  83  76   153  84  77   154  87  79   151  84  78   143  78  72   141  78  73   141  80  77   144  84  83   142  84  82   155 100  97   150  94  93   150  96  94   161 107 107   155 104 103   164 114 113   158 113 110   153 109 106   161 117 116   164 120 117   159 115 112   166 122 119   171 127 124   159 116 110   158 115 109   154 111 104   152 109 102   141  98  91   126  83  74   130  87  78   142  99  90   141  97  86   133  84  70   136  83  69   125  69  56   120  64  51   133  75  61   133  75  61   125  69  54   129  76  60   126  75  56   123  75  55   120  72  52   115  67  47   113  62  43   110  59  42   110  57  41   110  57  41   110  58  45   104  55  41   103  55  41   101  53  39    99  51  37   107  59  45   113  67  54   108  62  49   100  56  43    97  55  41   105  63  51   108  68  56   103  63  51   103  63  51   106  68  55   104  66  53   105  65  53   107  67  55   116  74  62   117  75  63   111  67  56   112  68  57   112  68  57   106  62  51   116  72  61   116  74  62   117  75  63   110  70  58   101  63  50    94  56  43    89  53  39    88  52  40    88  48  40    93  52  46    93  54  47    96  57  50   101  62  55    96  57  50    90  53  45    95  58  50    87  50  42    88  51  43    92  58  49    91  57  48    84  50  41    87  53  44    95  61  52    93  60  53    84  53  48    77  46  43    68  37  32    68  35  28    71  38  29    79  45  35    86  50  38    88  52  38    98  60  47   101  63  50   106  66  56   109  69  59   114  71  64   119  74  68   124  76  72   123  78  73   111  70  64   106  67  60   107  66  60   113  70  64   114  69  63   107  62  56   103  56  48   100  53  45   110  63  53   107  60  50   103  57  44    99  55  42   100  57  41   101  59  43    98  56  40    93  51  35    92  46  31    92  46  31    95  47  33    97  49  35   100  52  38   103  55  41   107  58  43   109  60  45   110  58  44   109  57  43   109  58  41   109  58  41   110  57  41   107  54  38   102  49  33    98  45  29   105  52  38   109  56  42   108  55  41   102  51  34    99  48  31    98  49  32    99  50  33    97  50  32    91  45  29    90  44  29    88  44  31    89  47  35    90  47  38    90  47  38    91  51  43    94  54  46    85  45  37    81  44  35    85  51  42    78  48  40    85  54  49    92  61  56    83  48  44    87  49  46
 77  38  21    77  38  21    79  38  20    80  37  20    82  37  18    84  39  20    86  39  19    87  40  20    90  43  25    91  44  26    94  45  28    95  46  29    97  46  27    97  46  27   101  48  30   102  49  31   101  45  30   107  51  38   107  53  41   111  57  47   119  64  57   118  65  57   115  62  56   115  66  59    97  55  43    95  56  41    96  57  42    96  57  42    93  51  39    88  46  34    86  46  34    90  50  38    83  45  34    80  44  32    79  43  31    75  43  30    75  43  32    73  43  32    73  45  33    72  46  33    65  41  29    62  40  27    65  43  30    68  46  33    65  43  30    59  37  24    58  36  22    64  41  27    68  42  29    70  42  30    72  42  31    75  43  30    78  44  32    83  47  35    90  52  41    94  56  43    96  58  45    97  60  44   101  59  45   105  61  48   108  62  49   105  59  44   101  55  40    97  51  35    98  55  38    99  56  39    99  56  37    98  55  36    98  53  32    99  52  32   103  55  35   107  56  37   107  51  36   108  50  36   107  49  35   110  51  37   114  55  39   121  59  44   127  65  50   132  69  54   134  68  54   132  66  52   136  68  55   141  73  60   144  74  62   146  76  64   154  82  70   161  88  79   153  82  76   148  79  72   145  76  69   144  77  69   140  73  67   132  67  63   132  68  66   136  75  72   140  80  79   136  78  76   151  95  94   148  94  92   149  95  95   157 106 105   151  99 101   162 114 114   151 107 108   145 103 104   156 114 115   162 120 121   159 117 118   172 130 131   184 143 141   175 134 132   167 126 122   160 119 115   160 119 115   148 107 103   128  87  81   136  95  89   153 112 106   154 109 103   131  81  70   135  82  68   122  68  56   120  64  51   136  78  66   137  79  65   129  73  60   133  80  64   132  81  64   128  80  60   124  76  56   117  69  49   114  63  44   112  61  42   116  63  45   118  65  49   107  55  41   101  52  38   100  52  38    99  51  37    99  51  37   108  60  46   112  66  53   106  60  47   100  56  43    98  56  42   106  64  52   109  69  57   105  65  53   108  68  56   109  71  58   102  64  51   106  66  54   109  69  57   118  76  64   116  74  62   110  66  55   112  68  57   113  69  58   103  59  48   118  74  63   114  72  60   110  68  56   106  66  54   104  66  53   100  62  49    93  57  43    88  52  40    86  46  38    88  47  41    86  47  40    93  54  47   101  62  55    95  56  49    89  52  44    97  60  52    88  51  43    84  47  39    87  53  44    92  58  49    89  55  46    90  56  47    94  60  51    92  59  52    89  58  53    79  50  46    69  40  34    65  34  29    67  37  29    76  43  34    83  49  39    87  51  39    93  55  44    99  61  50   110  70  60   116  73  64   113  68  62   113  68  62   130  82  78   147 102  97   132  91  85   120  81  74   112  71  65   109  68  62   107  64  57   102  57  51   100  53  45    99  52  44   115  68  58   112  65  55   104  58  45    96  50  37    96  53  37   104  61  45   105  63  47   101  58  42   109  63  48   105  59  44    99  53  38    94  48  33    94  46  32    96  48  34   100  51  36   103  54  39   111  59  45   112  60  46   113  62  45   114  63  46   115  62  46   113  60  44   107  54  38   103  50  34   106  53  39   109  57  43   108  57  40    99  50  33    95  46  29    95  48  30    97  50  32    95  50  31    92  46  30    86  43  26    88  44  31    93  51  37    94  51  42    92  49  40    91  51  43    96  56  48    85  45  37    82  44  35    86  49  40    78  45  36    83  50  43    96  63  56    95  58  52    94  57  51
 77  38  21    76  37  20    77  36  18    79  38  20    83  40  21    83  40  21    82  37  18    80  35  16    85  38  20    88  41  23    93  45  25    95  47  27    97  46  27    97  46  27    98  45  27   100  44  27    99  43  28   103  47  34   103  49  37   105  51  41   109  56  48   114  64  57   114  63  59   107  60  52    90  48  36    97  60  44    95  56  41    88  49  34    90  50  38    88  48  36    82  42  30    83  43  31    80  42  31    77  41  29    75  39  27    73  41  28    76  44  33    74  44  33    71  43  31    66  40  27    59  35  23    66  44  31    73  51  38    72  50  37    65  43  30    60  38  25    61  38  24    66  40  27    73  45  31    76  47  33    82  48  36    84  48  34    85  47  34    89  49  37    97  55  43   103  61  49   109  65  52   115  69  54   117  69  55   115  66  52   114  65  51   116  64  51   113  61  48   106  57  42   100  53  37   100  53  35   100  53  35   100  53  35   102  54  34   105  54  35   108  55  37   110  54  37   112  53  37   111  52  36   114  55  39   120  58  43   121  59  44   123  60  45   131  67  55   143  77  65   133  67  55   139  71  60   140  70  60   138  68  58   147  74  65   156  83  74   154  81  72   142  72  62   153  84  77   149  82  76   143  76  70   135  70  64   132  67  63   134  71  66   137  76  73   141  81  80   142  84  83   140  84  83   140  86  86   144  93  92   152 100 102   156 106 107   157 107 110   155 106 109   142  97 100   152 107 110   158 113 116   156 111 114   161 116 119   174 129 132   182 137 140   181 136 139   174 130 131   177 133 134   182 138 139   167 123 124   142  98  99   150 106 107   170 126 125   171 126 121   147  99  89   145  96  82   134  82  71   130  76  64   141  84  73   140  84  71   133  76  65   132  79  65   132  83  68   122  75  57   114  67  49   114  67  49   121  73  53   127  76  57   124  71  53   118  65  47   111  60  43   112  63  48   110  61  46   104  55  40   100  53  37   104  57  41   106  60  45   105  59  44    97  54  38   101  59  43   104  62  48   103  61  47    99  60  45    97  58  43    98  59  44   103  63  51   107  67  55   117  77  67   122  79  70   116  73  64   113  69  60   116  72  63   114  70  61   108  64  55   120  76  67   115  72  63   105  62  53   103  63  53   109  71  60   102  64  53    89  53  41    89  53  41    90  50  42    88  47  41    84  45  38    92  53  46   100  61  54    92  53  46    85  48  40    93  56  48    88  51  43    88  51  43    89  55  46    94  60  51    94  60  51    90  56  47    89  55  46    90  57  50    89  60  54    84  56  52    75  48  41    66  37  31    60  31  23    66  36  26    81  49  38    93  59  49    91  54  45   101  63  54   104  64  56   110  67  60   111  66  60   122  77  71   138  90  86   127  82  77   118  79  72   116  79  71   112  73  66   115  74  68   117  74  67   103  58  52    96  49  41   105  58  50   109  62  52   109  62  52    97  51  38    89  43  30    92  49  33    94  51  35    93  50  34    99  56  40   105  59  46   109  63  50   101  55  42   102  56  43   106  60  45   107  61  46   110  62  48    99  51  37   107  58  43   109  60  45   109  57  43   106  54  40   107  56  39   110  59  42   106  53  37    97  44  28   105  53  39   109  60  45   103  54  37   100  53  35    96  49  31    93  46  28   100  53  35    94  49  30    98  52  36    90  47  30    91  47  34    96  54  40    95  52  43    89  49  39    89  49  41    91  51  43    88  45  36    85  45  35    82  44  33    70  36  26    83  49  39   106  72  63   102  63  56    93  54  47
 75  38  22    75  36  19    76  34  18    78  37  19    81  38  21    82  39  20    82  37  18    79  34  15    84  37  19    88  41  23    93  45  25    95  47  27    97  46  27    98  45  27   101  45  28   102  46  31   100  44  31   102  48  36   105  51  41   106  53  45   109  59  52   112  63  58   110  61  56   102  57  51    89  49  37    97  60  44    95  56  41    89  50  35    90  50  38    88  48  36    84  44  32    84  46  33    82  44  33    78  42  30    72  38  26    71  39  26    71  41  30    71  43  31    71  43  31    69  43  30    62  38  26    67  45  32    73  49  37    71  49  36    66  42  30    62  38  26    65  39  26    70  42  30    77  48  34    81  49  34    86  50  36    86  48  35    89  47  35    93  49  38   101  54  44   107  61  48   113  64  50   119  67  54   121  67  55   118  64  52   119  62  51   120  63  52   118  62  49   111  58  44   105  54  37   102  53  36   102  51  34   101  50  33   102  49  33   107  51  34   111  53  39   114  55  39   116  54  41   114  52  37   117  55  42   124  62  47   129  65  53   130  66  54   133  67  55   136  70  58   132  64  55   139  71  62   142  74  65   140  70  62   142  72  64   149  79  71   148  78  70   140  72  63   142  75  69   141  76  70   140  77  72   137  74  69   131  70  65   129  68  65   131  71  70   134  76  74   143  87  86   139  85  83   137  86  85   139  89  88   144  94  95   146  98  98   145  96  99   143  94  98   144  97 103   152 105 111   155 108 114   153 106 112   157 110 116   168 121 127   173 126 132   170 123 129   175 128 134   176 130 133   182 135 141   171 125 128   154 107 113   164 118 121   183 137 140   182 136 136   162 115 107   159 111 101   147  97  88   142  89  81   145  91  81   142  88  78   135  81  71   134  82  71   135  86  72   124  77  61   114  67  51   113  66  48   120  71  54   127  76  57   128  75  57   124  71  53   115  64  47   115  66  49   112  63  48   105  56  41   102  53  38   103  56  40   106  58  44   105  59  44   100  54  39   101  58  42   104  60  47   103  61  47   101  59  45    98  59  44    99  60  45   101  62  47   108  68  56   118  78  68   122  79  70   115  72  63   111  67  58   112  68  59   110  66  57   104  60  51   115  71  62   112  69  60   107  64  55   107  67  57   112  74  63   104  66  55    89  53  41    87  51  39    91  50  44    88  47  41    85  46  39    92  53  46   102  63  56    96  57  50    90  53  45    97  60  52    94  57  49    89  52  44    85  51  42    91  57  48    95  61  52    94  60  51    92  58  49    90  57  50    88  59  53    82  54  50    74  47  40    65  38  31    63  34  26    66  37  29    75  45  35    84  50  40    91  54  45   102  62  54   105  62  55   108  65  58   108  63  57   117  72  66   130  85  80   120  77  71   116  77  70   113  76  68   110  71  64   112  73  66   115  72  65   103  60  53    96  52  43   105  58  50   107  60  50   107  60  50   100  54  41    97  51  38   100  54  39    96  53  37    93  50  34    99  56  40   102  56  43   106  60  47    99  53  40   103  57  44   109  63  48   113  67  52   120  72  58   112  64  50   106  57  42   104  55  40   103  51  37   101  49  35   102  51  34   102  51  34    98  47  30    93  42  25    92  43  28   102  55  39    97  50  34    96  51  32    98  53  34    96  51  32   102  57  38    98  55  36    95  52  35    91  49  33    91  49  35    91  51  39    91  51  41    89  49  39    90  50  42    92  52  44    91  49  37    86  44  32    79  41  30    67  31  19    77  43  33   102  65  56   101  60  54    95  54  48
 73  36  20    73  34  17    75  33  17    77  36  18    79  36  19    80  37  20    81  36  17    79  34  15    83  36  16    87  39  19    94  43  24    96  45  26    98  45  27    99  46  28   102  46  31   103  47  32   103  50  36   107  53  41   110  58  47   110  60  51   112  63  56   112  65  59   106  61  56   100  57  50    91  51  39    96  59  43    95  58  42    90  53  37    91  51  39    89  49  37    86  48  35    87  49  36    80  42  31    77  41  29    73  39  27    73  41  28    71  41  30    69  41  29    69  41  29    68  42  29    68  41  30    70  46  36    74  47  36    70  46  34    68  41  30    67  40  29    71  43  31    75  45  34    83  51  38    86  53  38    90  52  39    92  50  36    94  48  35    96  50  37   104  56  44   110  61  47   116  63  49   122  66  53   124  66  54   121  63  51   121  61  50   123  63  52   120  62  50   116  58  46   110  57  43   106  54  40   103  50  36   100  47  33   103  45  33   107  48  34   114  52  41   117  55  42   117  53  43   115  51  39   117  53  43   125  61  49   132  68  58   132  68  58   128  64  54   126  62  52   130  63  55   138  71  63   141  74  66   138  69  62   137  68  61   141  72  65   141  72  65   136  69  63   131  68  63   135  74  69   137  78  74   134  75  71   125  67  63   122  64  62   123  68  65   127  73  71   142  88  88   137  86  85   134  84  85   134  86  86   137  89  89   136  90  90   134  88  90   133  84  88   143  92  99   149  96 106   150  97 107   148  95 105   152  99 109   160 107 117   162 109 119   158 105 115   164 111 121   163 110 118   169 116 126   165 112 120   158 105 115   171 118 126   186 133 141   181 131 134   169 122 116   164 120 111   156 109 101   149 100  93   149  99  92   146  93  87   140  87  81   138  88  81   137  89  79   127  79  67   115  67  55   112  64  50   117  68  53   125  74  57   129  76  60   128  75  59   122  69  51   122  71  52   119  68  51   112  61  44   107  56  39   105  56  39   105  58  42   104  58  42   102  56  40   100  57  40   103  60  44   104  61  45   102  59  43   101  59  43   102  60  44   101  59  45   107  67  55   116  76  66   121  78  69   114  71  62   109  65  56   108  64  55   106  62  53   101  57  48   111  67  58   109  66  57   108  65  56   111  71  61   114  76  65   105  67  56    91  55  43    87  51  39    93  52  46    89  48  42    85  46  39    93  54  47   101  62  55    99  60  53    95  58  50   100  63  55    99  62  54    90  53  45    83  49  40    89  55  46    96  62  53    97  63  54    94  60  51    90  57  50    87  56  51    82  53  47    74  47  40    68  41  34    65  38  29    66  37  29    70  40  32    74  41  32    87  50  42    97  56  50   101  58  52   106  61  56   105  60  55   113  68  63   126  81  76   115  74  68   111  74  66   109  72  64   107  68  61   108  69  62   112  69  62   104  61  54    99  55  46   106  59  51   104  57  47   105  57  47   103  55  43   104  58  45   106  60  45    99  53  38    96  50  35   102  56  41   101  55  42   104  58  45    97  51  38   102  56  43   110  62  50   114  66  54   122  74  60   117  69  55   108  60  46   102  54  40    98  49  34    98  49  34    98  49  34    95  46  31    92  43  28    90  41  26    86  40  25   102  56  40    96  50  34    93  50  33    99  56  39    97  54  37    98  55  38    96  55  37    89  47  31    91  52  35    91  52  37    89  49  37    90  50  40    89  51  42    88  49  42    89  49  41    95  53  41    83  44  29    76  38  25    64  28  16    74  37  28    97  60  51   100  60  52    96  56  48
 71  34  18    71  34  18    72  33  16    75  33  17    77  34  17    78  35  18    80  35  16    80  35  16    83  35  15    87  39  19    93  42  23    97  44  26    98  45  27   101  45  28   103  47  32   105  49  34   109  56  42   112  60  47   114  64  55   115  66  59   114  67  61   110  65  60   104  60  57    97  56  50    92  54  41    95  58  42    96  59  43    93  56  40    92  52  40    90  50  38    88  50  37    88  50  37    75  39  27    73  39  27    76  42  30    76  47  33    74  44  33    68  40  28    65  39  26    66  40  27    70  43  34    72  43  35    73  45  34    72  44  33    71  43  32    73  45  34    78  48  37    84  52  39    87  54  39    91  53  40    95  53  39    94  50  37    95  47  35    99  50  36   105  56  42   113  61  47   117  59  45   122  63  49   122  63  49   122  60  49   122  60  49   124  62  51   120  60  49   115  57  45   112  56  43   108  55  41   104  51  37   104  47  36   105  47  36   110  47  38   114  50  41   117  53  44   115  51  42   115  51  41   116  52  43   121  57  48   125  61  52   126  62  53   125  61  52   123  58  52   128  63  57   133  68  62   133  68  64   130  65  61   130  65  61   134  69  65   135  70  66   131  68  63   129  70  66   133  75  73   136  78  76   128  73  70   118  63  60   112  58  56   117  63  61   122  71  68   137  86  85   132  82  81   128  80  80   129  81  81   129  83  83   131  85  85   129  83  85   128  79  82   133  80  88   138  82  91   138  82  93   138  82  91   142  86  97   149  93 102   150  94 105   145  89  98   146  90 101   145  89 100   150  94 105   152  96 107   153  97 108   164 108 119   171 115 126   162 109 115   152 107 104   151 108 101   150 105 100   149 101  97   149 100  96   147  96  93   145  94  91   145  94  90   141  92  85   131  82  75   120  72  62   116  66  55   119  67  54   124  71  57   127  71  58   127  71  56   128  72  55   126  73  55   124  71  55   118  67  50   112  61  44   109  58  41   105  56  41   103  56  40   105  58  42   101  55  39   103  57  42   103  60  44   101  58  42   103  60  44   105  62  46   100  58  44   104  64  52   112  72  62   117  74  65   113  70  61   110  66  57   109  65  56   108  64  55   105  61  52   111  67  58   108  65  56   108  65  56   111  71  61   111  73  62   104  66  55    94  58  46    92  55  46    95  54  48    90  49  43    86  47  40    92  53  46    98  59  52    98  59  52    96  59  51   100  63  55    97  60  52    89  52  44    84  50  41    90  56  47    96  62  53    96  62  53    93  59  50    90  57  48    86  55  50    85  56  50    80  53  46    74  47  40    66  39  30    63  36  27    65  36  28    71  38  31    81  44  38    90  49  43    96  53  47   104  59  54   105  60  55   111  68  62   126  83  77   117  76  70   108  71  63   104  70  61   104  67  59   105  66  59   107  67  59   105  62  55   103  59  50   104  60  51   103  55  45   101  53  43   103  55  43   108  60  48   107  61  46   100  54  39    98  52  37   104  58  43   102  56  43   104  58  45    97  51  38   102  56  43   106  58  46   106  58  46   112  64  50   107  59  45   112  64  50   104  56  42   100  53  37   103  56  40   103  54  39    96  49  33    92  43  28    91  44  28    90  47  31   108  66  50    99  57  41    94  53  35   100  59  41    92  54  35    89  48  30    83  45  26    82  43  26    90  53  37    92  52  40    86  48  37    88  50  41    89  51  42    86  47  40    85  47  38    93  53  41    79  41  28    74  38  24    64  30  18    71  37  27    95  58  49   101  61  53    99  59  51
 69  32  16    70  33  17    72  33  16    74  32  16    76  33  16    76  33  16    78  35  18    81  36  17    83  35  15    88  37  18    93  40  22    96  43  25    99  43  26   102  45  28   105  47  33   106  50  35   111  58  44   111  59  46   112  62  53   112  65  57   108  63  57   100  59  53    94  55  50    91  54  46    93  57  43    93  57  41    97  60  44    97  60  44    93  55  42    89  51  38    88  50  37    87  49  36    78  42  30    74  40  28    76  42  30    76  47  33    72  42  31    65  37  25    64  38  25    69  43  30    71  42  34    73  43  35    73  43  33    74  44  34    76  46  36    81  48  39    85  53  42    89  55  43    91  53  40    93  53  41    95  51  38    94  48  35    94  45  31    98  46  33   104  52  39   111  58  44   114  55  41   120  58  43   120  58  43   118  54  42   118  54  42   119  57  44   116  56  45   112  54  42   109  52  41   107  53  41   106  52  40   107  50  41   108  49  41   111  48  41   113  48  44   114  49  45   116  51  45   117  54  45   118  55  48   117  54  47   117  54  47   119  56  49   124  61  54   127  64  59   127  64  59   127  64  59   122  61  58   120  59  56   123  62  61   128  67  66   129  69  68   127  67  66   125  69  68   131  75  74   134  78  77   127  73  71   117  63  61   110  56  56   111  57  57   114  63  62   128  77  76   123  73  72   118  70  68   118  70  68   120  72  72   121  73  73   117  71  71   117  68  71   120  65  71   123  66  73   124  67  76   125  68  75   131  74  83   137  80  87   137  80  89   134  77  84   134  77  86   133  76  85   138  81  90   144  87  96   148  91 100   155  98 107   154  97 106   142  89  95   131  87  86   131  90  86   139  94  91   144  96  94   145  95  96   147  95  97   148  97  96   148  97  96   146  95  92   140  89  86   132  81  77   128  75  69   127  73  63   127  70  59   128  68  58   126  66  55   128  72  57   129  73  56   129  73  56   125  72  54   120  67  49   112  61  42   108  57  40   104  55  38   108  59  42   102  55  37   104  57  41   105  59  43   101  55  39   104  58  42   109  63  47   102  59  43   103  60  51   107  67  59   112  69  62   112  69  62   113  68  62   114  69  63   113  68  62   110  65  59   114  69  63   108  65  58   108  65  58   108  68  60   105  67  58   101  63  54    99  62  53    99  62  53    97  56  50    91  50  44    89  50  43    91  52  45    93  54  47    94  55  48    96  59  51    98  61  53    89  52  44    89  52  44    90  56  47    94  60  51    94  60  51    90  56  47    90  56  47    92  59  50    86  55  50    89  60  54    89  62  55    80  53  46    66  41  34    61  34  27    64  35  29    73  40  33    80  43  37    88  47  43    94  51  45   103  60  54   104  61  55   110  67  61   122  82  74   115  77  68   108  71  63   103  69  60   104  67  59   103  64  57   104  64  56   107  64  57   107  63  54   103  59  50   103  55  45    98  50  40   100  52  40   105  57  45   104  56  42   102  54  40   102  56  41   105  59  44   104  56  44   106  58  48   101  53  43   106  58  48   107  59  47   102  54  42   105  57  45   100  52  40   110  62  48   104  56  42   102  54  40   106  60  45   107  60  44    98  52  36    92  45  29    89  43  27    97  55  39   114  75  58   102  63  46    94  55  38    98  59  42    89  52  34    80  41  24    72  35  17    84  47  31    93  57  41    89  51  38    80  44  32    83  46  37    86  49  41    86  49  43    90  53  45    91  53  42    75  39  27    73  39  27    70  38  27    75  43  32    94  60  51   101  62  55   100  61  54
 68  31  15    69  32  16    72  33  16    72  33  16    74  33  15    76  33  16    78  35  18    82  37  18    84  35  18    89  38  19    93  40  22    97  41  24   100  43  26   102  45  28   105  47  33   107  51  36   110  53  42   106  54  43   105  55  46   103  56  50    96  53  47    87  48  43    82  47  43    83  49  40    94  58  46    92  56  40    98  61  45   101  64  48    94  56  43    88  50  37    87  49  36    84  46  33    83  47  35    78  44  32    76  42  30    73  44  30    68  38  27    62  34  22    66  40  27    78  50  38    74  44  36    76  43  36    77  44  35    79  46  37    83  50  41    87  53  43    89  55  45    91  55  43    91  51  39    93  51  39    94  48  35    92  44  30    92  40  27    94  40  28   101  48  34   109  53  38   110  51  35   114  52  37   115  52  37   112  49  34   111  47  35   112  50  37   110  50  39   104  48  35   101  47  35   102  48  38   104  50  40   105  50  43   108  49  43   108  47  44   110  45  43   109  44  42   116  53  48   119  56  49   120  57  50   116  53  48   114  51  46   116  55  50   123  62  57   127  66  63   121  62  58   120  60  59   118  58  57   115  57  56   117  59  58   121  63  62   122  66  67   122  66  67   118  64  64   124  70  70   130  76  76   130  76  76   122  68  68   112  58  58   103  52  51   100  49  48   115  65  64   110  60  59   106  56  55   103  55  53   105  57  57   106  58  58   104  56  56   102  54  54   107  52  57   109  54  59   112  55  61   113  58  63   118  61  67   121  66  71   122  65  71   120  65  70   120  63  70   119  64  70   123  66  73   127  72  78   133  76  85   135  80  86   132  75  84   122  69  75   121  77  78   119  77  78   126  82  83   134  85  88   135  85  88   139  87  91   143  91  95   142  90  92   146  94  96   145  91  91   141  87  85   138  83  80   136  79  72   133  74  66   133  70  63   130  68  57   128  70  56   127  71  54   129  73  56   130  74  57   126  70  53   116  63  45   111  58  42   110  59  42   112  61  44   103  54  37   105  56  41   105  58  42    98  51  35   102  56  40   110  64  48   105  62  46   103  60  51   103  63  55   108  65  58   110  67  60   115  70  64   116  71  65   114  69  63   110  65  59   116  71  65   108  65  58   109  66  59   108  68  60   102  64  55    99  61  52   101  64  55   102  65  56    97  56  50    93  52  46    92  53  46    92  53  46    88  49  42    91  52  45    97  60  52   100  63  55    86  49  41    90  53  45    95  61  52    98  64  55    93  59  50    87  53  44    90  56  47    96  62  53    88  55  50    92  61  56    94  65  59    86  59  52    70  45  38    63  36  29    64  35  29    71  38  33    82  45  39    88  49  44    94  50  47   104  61  55   104  61  55   105  64  58   117  79  70   111  74  65   108  74  65   105  71  62   105  68  60   101  64  56   102  62  54   108  68  60   111  67  58   102  58  49   103  55  45    98  50  40    98  50  38   100  52  40   100  52  38   106  58  44   109  63  48   107  59  45   104  54  45   106  56  47   103  53  44   110  62  52   110  62  50   103  55  43   106  58  46   102  54  42   104  56  42   100  54  39   100  54  39   103  57  42   104  58  42    99  53  37    92  46  30    85  42  26    93  54  39   109  72  56    99  62  46    92  55  37    94  57  39    87  52  33    81  44  26    68  33  14    92  56  40    98  62  48    88  52  40    78  41  32    83  46  38    85  48  40    89  52  46   101  64  58    88  54  44    70  38  27    73  43  32    74  46  35    76  48  37    91  61  53    98  63  57    99  60  55
 68  31  15    70  33  17    72  33  16    72  33  16    73  32  14    74  33  15    79  36  19    83  38  19    87  36  19    91  38  20    95  39  22    97  41  24    99  42  25   101  44  27   105  47  33   106  50  35   112  55  44   105  53  42   100  52  42    95  50  44    87  46  40    80  43  37    77  44  39    82  49  40    92  58  46    91  55  39    98  62  46   103  67  51    95  57  44    87  49  36    85  47  34    81  43  30    83  47  35    78  44  32    79  45  33    77  48  34    70  40  29    62  34  22    66  40  27    78  50  38    79  46  39    80  45  39    81  46  40    85  50  44    88  54  45    91  54  45    89  52  43    87  49  38    88  48  36    90  48  36    91  45  32    87  39  25    87  35  22    90  37  23    98  42  29   105  47  33   105  46  30   107  48  30   108  46  31   104  42  27   103  41  28   103  44  30   102  44  32    98  41  30    95  41  31    95  43  32    98  45  37   100  45  40   104  45  41   104  43  42   106  40  41   105  39  40   110  47  42   114  51  46   115  52  47   113  49  47   112  51  48   117  56  53   119  58  55   117  57  56   114  56  54   116  60  59   119  63  62   117  61  62   110  56  56   109  55  55   114  59  62   119  64  67   111  59  61   115  63  65   121  69  71   124  72  74   121  69  71   112  60  62   101  49  51    94  42  44   103  52  51    97  47  46    93  43  42    93  43  42    97  47  46    99  49  48    99  49  48    97  47  46    99  47  49   101  49  51   105  50  53   104  52  54   106  51  54   104  52  54   106  51  54   104  52  54   103  48  53   101  49  53   104  49  54   106  54  58   113  58  64   113  61  65   113  58  64   108  58  61   115  70  73   108  66  68   113  68  71   118  69  73   118  67  72   126  73  79   135  80  86   133  78  84   136  81  87   137  82  87   138  82  83   139  81  80   139  78  75   137  74  69   137  70  64   134  70  61   129  70  54   127  70  51   128  71  52   129  74  54   126  70  53   117  64  46   115  62  44   117  66  47   114  63  46   103  54  37   106  57  40   104  57  39    94  47  31   100  53  37   113  66  50   110  64  49   108  65  56   103  63  55   105  62  55   108  65  58   114  69  63   114  69  63   109  64  58   103  58  52   114  69  63   107  64  57   112  69  62   113  73  65   103  65  56    99  61  52   100  63  54   100  63  54    96  55  49    94  53  47    96  57  50    94  55  48    86  47  40    91  52  45   102  65  57   106  69  61    90  53  45    93  56  48    96  62  53    99  65  56    95  61  52    89  55  46    93  59  50   100  66  57    88  55  50    90  59  54    92  63  57    88  61  54    77  52  45    69  42  35    63  34  28    63  30  25    79  41  38    85  46  41    92  48  45   102  58  55   101  60  54   103  62  56   114  76  67   109  72  63   112  78  69   109  75  66   108  71  63   102  65  57   101  61  53   110  70  62   114  70  61   101  57  48   104  56  46   100  52  42    99  51  39    98  50  38   100  52  38   112  64  50   117  69  55   107  59  45   100  50  41   103  53  44   100  50  41   108  58  49   109  59  48   102  52  41   106  58  46   105  57  45    99  53  38    99  53  38    99  53  38    98  55  39   100  57  40   100  57  40    94  51  34    86  44  28    84  47  31    98  62  46    92  56  40    86  50  34    88  52  36    85  52  35    84  48  32    66  33  16    93  60  45    99  66  51    92  58  46    87  53  43    92  58  49    88  53  47    88  53  49   104  69  63    90  57  48    68  38  28    73  45  34    77  50  41    75  48  39    87  58  52    93  60  55    94  56  53
 67  31  17    70  33  17    71  34  18    72  33  16    71  32  15    74  33  15    78  36  20    84  38  22    86  37  20    91  38  22    96  40  25    97  41  24    99  42  25   101  43  29   104  46  32   106  50  37   114  60  48   106  56  47   100  53  45    94  51  44    86  47  42    78  43  37    79  46  39    85  52  43    94  58  46    91  53  40   100  62  49   106  68  55    96  58  45    87  49  36    83  45  34    77  41  29    76  42  30    76  42  30    82  50  37    85  56  42    76  48  36    64  36  24    64  36  24    75  45  34    82  49  40    83  48  42    84  49  43    88  54  45    93  56  48    92  55  46    88  50  39    83  45  34    86  46  34    88  46  34    88  42  29    85  37  23    82  33  19    85  33  19    93  40  26   100  44  31   101  43  29   104  45  29   103  44  30    99  40  26    97  37  26    98  40  28    96  39  28    91  37  27    90  37  29    91  38  30    93  40  34    95  42  38    99  41  39   100  40  40   100  38  39   101  37  37   102  39  34   103  42  37   107  44  39   106  45  40   111  50  45   115  56  52   111  52  48   103  45  43   106  51  48   117  61  60   124  70  70   121  67  67   106  54  56   100  48  50   106  54  56   115  63  65   111  59  61   111  59  61   113  61  63   115  65  66   115  65  66   110  60  61   101  51  50    93  43  42    93  44  40    89  41  37    86  38  36    86  41  38    92  47  44    97  52  47    98  53  48    98  53  48    96  48  46    98  50  48   100  52  50    99  51  49    96  48  46    92  44  42    92  44  44    94  44  45    93  43  44    93  43  44    93  43  44    95  45  46   100  50  51   103  53  54   105  55  56   106  58  58   110  66  67    99  57  58   101  56  59   105  56  62   104  53  60   113  62  69   124  71  79   122  69  77   120  67  73   123  71  75   128  73  76   132  74  73   133  72  71   134  70  68   136  68  67   133  68  62   129  70  56   126  69  52   126  69  52   128  71  54   124  68  51   120  64  49   121  65  50   123  70  54   116  63  47   105  54  37   107  58  43   105  56  41    91  44  28    97  51  35   113  67  51   110  67  51   112  69  60   104  64  56   103  60  53   106  63  56   112  67  61   111  66  60   103  58  52    95  50  44   112  64  60   107  62  56   114  71  64   117  77  69   107  67  59   100  62  53    99  63  51    96  59  50    94  56  47    93  54  47    98  59  52    96  57  50    86  47  40    92  53  46   106  69  61   111  74  66    96  59  51    96  59  51    96  62  53    98  64  55    96  62  53    93  59  50    96  62  53   103  69  60    88  55  50    89  56  51    89  58  53    89  60  54    84  57  50    74  47  40    62  33  27    53  22  17    72  37  33    78  40  37    85  45  43    97  58  53    99  60  55   102  63  56   115  76  69   111  74  66   115  81  72   111  77  68   110  73  65   103  66  57   100  62  53   111  71  63   114  71  62   101  57  48   104  57  47   102  54  44   100  52  40    97  49  37   101  53  41   117  69  55   121  73  59   108  58  47    98  48  37    99  49  40    95  45  36   102  54  44   102  54  42    96  48  36   103  55  43   103  57  44   100  54  41   102  56  43    99  55  42    97  54  38    99  56  40   102  61  43    96  58  39    87  50  32    79  41  28    91  55  41    87  51  37    83  47  33    81  48  33    84  51  36    84  51  36    65  32  17    89  55  43   100  66  54    99  65  55   101  67  58   107  72  66    94  61  54    87  52  48   100  67  62    90  60  52    66  39  28    73  46  37    76  52  42    72  47  40    83  56  49    87  56  51    89  54  50
 68  35  20    70  34  20    71  35  21    71  34  18    70  33  17    72  33  16    75  36  21    81  38  22    84  35  21    90  37  23    95  39  26    98  42  27   100  42  28   102  44  30   105  47  35   104  50  38   105  55  46   107  60  54   104  61  55    95  56  51    84  47  41    77  42  36    80  45  39    85  51  42    92  54  45    95  55  45    95  55  45    91  51  41    85  45  35    81  41  31    79  41  32    77  43  33    80  48  37    72  42  31    75  47  35    85  57  45    81  53  41    67  39  27    70  38  27    83  51  40    83  49  40    86  52  43    88  54  45    88  54  44    88  51  42    85  48  39    84  46  35    84  46  35    82  42  30    86  44  32    86  44  30    82  39  23    76  33  17    76  30  15    82  36  21    90  41  27    98  41  30    99  41  30    99  40  32    97  40  31    97  40  31    94  40  30    92  39  31    89  39  30    88  38  31    86  35  31    89  38  34    95  41  39    95  41  39    92  36  37    91  32  34    94  34  33    94  35  29    97  38  30   103  43  35   106  47  39   108  49  41   107  50  43   105  48  41   101  46  41   101  46  43   117  64  60   122  68  66   116  62  62   108  53  56    98  43  46    99  44  49   110  58  60   110  59  58   100  50  49    99  49  50   107  58  61   108  60  60    99  51  49    93  48  43    98  53  47    87  44  35    86  46  38    80  39  33    78  39  32    86  47  40    89  51  42    89  53  39    95  59  47    90  53  45    88  50  47    90  50  48    91  51  49    89  48  46    84  43  41    85  44  40    92  48  45    87  43  40    85  41  38    84  40  37    86  42  39    90  46  43    93  49  46    94  50  47    94  50  47    96  52  49    95  51  50    95  49  51    94  48  51    95  45  54    99  49  58   104  57  65   110  63  69   111  65  68   114  66  66   117  67  66   121  67  65   125  67  66   130  68  69   138  72  74   142  76  77   134  76  65   132  76  61   129  73  58   124  68  53   121  63  49   121  63  51   124  66  54   125  69  56   120  67  53   113  61  47   101  52  38   101  53  39    97  51  36    98  55  39   110  67  51   104  62  48   109  69  57   103  63  53   103  60  53   107  64  57   109  64  59   109  61  57   107  59  55   108  60  56   117  67  66   114  66  62   111  66  60   109  66  59   103  63  53   100  62  51    98  62  48    99  63  49    93  56  47    98  61  52   102  65  56    97  60  51    93  56  47   103  66  57   109  72  63   102  65  56    96  59  50    94  57  48    96  59  50   101  64  55   103  66  57    99  62  53    97  60  51    97  63  54    83  50  45    80  46  44    86  53  48    93  60  55   102  72  64    92  62  54    60  31  23    54  25  19    58  29  23    66  37  33    75  44  41    78  44  42    98  60  59   114  74  72   110  69  65   116  75  69   117  80  72   118  81  72   111  74  65   101  64  55   101  63  54   109  69  59   110  67  58   102  58  49   102  58  47   104  57  47   103  55  45   102  54  42   108  58  47   114  64  53   114  64  53   109  59  48    96  46  35   108  58  47    99  51  39    98  52  39    99  55  44    95  51  40   104  60  49   113  66  56   100  53  43   108  61  51   113  66  56   104  60  47    99  57  43   104  65  48    97  60  42    75  39  23    77  41  29   102  66  54    89  53  41    96  60  48    97  63  51    86  52  40    91  57  47    68  34  24    80  48  37    94  61  52   108  75  66   100  67  60    96  63  56    90  60  52    79  46  41    81  50  45    81  54  45    64  40  30    82  58  48    82  58  48    64  37  28    69  42  33    81  51  43    83  50  43
 65  32  17    66  33  18    70  34  20    70  34  20    70  33  17    71  34  18    75  36  21    79  37  23    83  35  21    89  37  24    94  41  27    99  43  30   101  43  29   102  44  30   103  46  35   102  50  39   105  56  49   107  62  57   105  64  60    96  59  53    84  46  43    76  41  35    79  44  38    87  50  42    86  46  38    89  46  39    89  46  39    87  44  37    84  41  34    80  40  32    77  39  30    74  40  30    76  46  35    70  42  30    71  45  32    77  51  38    74  46  34    66  36  25    71  39  28    83  49  39    81  47  38    83  49  40    85  51  41    85  51  41    84  47  38    81  45  33    81  43  32    81  43  32    80  40  28    83  43  31    85  43  29    80  38  24    74  32  16    73  31  15    80  37  21    89  41  27    93  39  29    95  38  29    95  38  31    92  37  30    90  37  29    87  37  28    86  37  30    85  36  29    87  38  33    85  36  31    87  36  33    91  40  37    93  39  39    89  35  35    89  33  34    91  36  33    96  39  32    98  41  30   100  43  32   102  45  34   104  47  38   102  48  38   102  47  40   101  48  42   105  52  48   114  61  57   114  60  58   109  58  57   110  55  58   102  50  52   100  45  50   104  52  54   110  60  59   103  55  53   102  53  56   104  58  60   104  58  60    96  52  51    92  49  43    91  51  41    85  47  36    85  47  36    77  40  32    74  37  31    79  45  36    82  48  38    82  49  34    88  55  40    84  49  43    83  48  44    84  49  45    89  51  48    87  49  46    83  45  42    85  46  41    89  50  45    84  43  39    82  41  37    80  39  35    81  40  36    83  42  36    85  44  38    85  44  38    84  43  37    89  48  42    90  46  43    89  45  44    88  42  45    89  42  48    91  46  53    95  50  57    98  53  56   100  56  57   102  58  57   104  59  54   108  59  55   113  57  58   120  58  61   128  61  68   130  66  67   128  69  61   125  72  58   125  68  57   122  66  53   121  63  52   121  63  52   123  65  54   126  68  57   121  64  53   113  59  47   104  52  39   104  55  41   100  52  38   101  55  40   112  69  53   106  64  50    96  56  44    95  55  45   100  57  50   108  63  57   110  65  60   108  60  56   104  56  54   105  57  55   115  65  64   113  65  63   112  67  62   109  66  59   103  63  55   102  64  53   102  66  52    98  62  48   100  64  52   102  65  56   106  69  60   103  66  57    99  62  53   106  69  60   109  72  63    98  61  52    99  62  53    96  59  50    97  60  51   100  63  54   100  63  54    95  58  49    93  56  47    93  56  48    82  47  45    86  52  50    96  61  59    96  61  55    99  66  59    90  60  50    66  36  28    59  32  23    55  27  23    62  37  32    71  43  40    68  38  36    87  52  50   109  69  67   109  68  66   114  73  67   114  75  68   115  78  69   110  73  64   103  66  57   103  65  54   105  65  55   106  63  54   106  63  54   109  65  54   107  63  52   104  57  47   102  54  44   107  57  46   113  63  52   112  62  51   107  57  46    98  49  35   109  61  47   104  56  44   103  59  46   106  62  51    98  56  44   103  59  50   106  62  53   104  57  49   107  60  52   111  64  54   104  60  49    97  55  41    97  60  44    90  55  36    71  38  21    89  53  41   108  71  62    93  56  47   102  65  56   108  71  62    93  59  49    92  58  49    70  36  27    90  56  47    99  66  57   108  75  68    98  65  58    94  61  54    91  61  53    83  52  47    90  61  55    83  56  47    70  46  36    87  63  53    90  63  54    73  46  37    76  47  39    84  54  46    87  57  49
 64  28  14    66  30  16    70  32  19    71  33  20    72  33  18    72  33  18    74  35  20    77  35  21    82  36  21    88  39  25    96  43  29   101  45  32   101  45  30   101  45  30   102  45  34   100  48  37   106  57  50   108  65  59   107  66  62    97  59  56    84  46  43    75  40  34    80  43  37    86  49  41    86  46  38    84  44  36    85  42  35    85  42  35    82  42  34    80  42  33    76  39  30    70  38  27    74  44  33    70  42  30    69  43  30    69  43  30    67  39  27    66  36  25    73  41  30    82  48  38    80  43  34    82  45  36    84  47  38    83  46  37    81  43  32    78  40  29    77  39  28    77  39  26    79  39  27    81  41  29    83  41  27    79  37  23    75  32  16    74  31  15    79  36  20    87  41  26    90  38  27    90  36  26    90  36  26    88  36  25    87  34  26    84  34  25    83  34  27    83  34  27    85  38  32    84  37  31    85  36  31    87  38  33    88  37  34    86  35  32    88  34  32    90  35  32    97  42  35    97  43  33    96  42  32    96  42  32    97  42  35    98  45  37   100  47  41    99  49  42   105  54  50   104  53  50   100  49  48   101  51  50   111  59  61   110  60  61   104  52  56   100  50  53   108  62  62   106  62  63   105  60  65   104  59  64   102  57  62    96  54  55    91  50  46    88  47  41    82  43  36    82  43  36    74  36  33    70  32  29    75  37  34    75  38  32    73  36  27    77  40  31    79  42  36    78  40  37    80  42  39    84  44  42    83  43  41    79  39  37    80  39  37    84  43  41    80  39  35    79  38  34    77  36  32    78  37  33    79  38  34    81  40  36    81  40  36    80  39  35    86  45  39    84  43  39    82  41  39    83  39  40    84  39  42    86  41  44    88  43  46    86  44  45    90  49  47    93  50  44    95  50  45    98  49  44   103  47  46   108  48  50   116  51  57   119  54  58   119  60  54   119  62  51   121  62  54   120  62  51   121  61  53   122  62  52   125  65  55   127  67  57   123  65  54   118  60  49   110  53  42   111  57  45   107  55  42   107  58  44   118  70  56   111  65  52   101  57  46   100  58  46   105  61  52   110  66  57   111  66  60   108  63  57   108  63  58   111  66  61   111  63  61   110  65  62   113  70  64   108  68  60   103  63  55   107  69  58   107  71  59    96  60  48   106  68  59   105  67  58   107  69  60   107  69  60   105  67  58   108  70  61   106  68  59    93  55  46   100  62  53   102  64  55   104  66  57   103  65  56    97  59  50    90  52  43    90  52  43    92  55  47    84  49  47    91  56  54   100  65  63    95  60  54    95  62  55    92  62  52    74  44  36    66  39  30    54  26  22    60  35  30    68  40  37    63  33  31    77  43  41   101  63  60   107  66  64   113  72  66   115  76  69   118  81  72   112  74  65   106  68  59   108  68  58   102  62  52    99  56  47   106  63  54   113  69  58   109  65  54   104  57  47   100  53  43   106  58  46   112  64  52   112  62  51   106  56  45   106  57  43   112  64  50   106  58  46   106  62  49   109  65  54   102  60  48   104  61  52   103  60  51   103  59  50   100  56  47   102  58  47   101  57  46    95  53  39    92  55  39    89  54  35    79  43  27    96  58  45   110  72  61    97  59  48   103  67  55   107  70  61    91  54  45    86  49  40    71  37  27    99  65  56   104  70  61   106  72  63    92  59  50    88  55  48    91  58  51    89  56  49    99  69  61    87  58  50    81  54  45    94  67  58    98  69  61    87  58  50    84  54  46    87  57  49    95  62  55
 64  28  14    66  30  16    70  32  19    71  33  20    71  32  17    70  31  16    71  32  17    74  32  18    81  35  20    87  39  25    95  43  29   100  47  33   101  48  32   100  47  33   100  46  34    97  47  36   106  59  51   107  64  58   105  64  60    95  57  54    83  45  42    74  39  33    79  42  36    86  47  40    92  54  45    90  50  42    89  46  39    89  46  39    87  47  39    84  46  37    77  40  31    69  37  26    71  41  30    71  43  31    68  42  29    66  40  27    65  37  25    68  38  27    75  43  32    80  46  36    79  42  33    80  43  34    81  44  35    80  44  32    78  40  29    75  37  26    75  37  24    75  37  24    77  37  25    79  39  27    81  39  25    78  36  22    74  31  15    74  31  15    78  35  19    84  38  23    88  38  27    89  37  26    88  36  25    85  35  24    84  34  25    83  35  25    83  34  27    82  35  27    86  39  33    85  38  32    86  37  32    86  37  32    87  36  33    87  36  33    89  35  33    90  37  33    96  43  35    96  44  33    93  43  32    92  42  33    92  42  33    94  44  37    95  45  38    95  46  41   100  51  47    95  46  42    93  43  42    98  50  48   110  62  62   114  66  66   108  59  62    99  53  55   109  65  66   109  67  69   107  64  71   100  59  65    97  54  61    96  54  58    92  50  51    85  44  42    77  38  33    79  39  37    74  34  34    71  31  32    76  36  37    74  34  34    70  31  26    72  33  26    80  39  37    78  37  35    79  38  36    81  40  38    80  39  37    74  33  31    72  31  29    74  33  31    78  34  31    76  35  31    78  34  31    77  36  32    80  36  33    79  38  34    82  38  35    80  39  35    82  43  36    80  41  34    79  38  34    79  38  36    83  39  40    83  41  42    82  40  41    80  40  38    85  46  39    87  47  39    89  46  39    92  45  39    96  42  40   101  42  44   107  45  50   110  48  51   111  52  48   112  55  46   116  57  51   118  59  51   120  60  52   122  62  54   126  66  58   129  69  59   128  68  58   124  64  54   117  59  48   119  62  51   115  61  49   115  61  49   124  72  59   115  66  52   116  68  56   111  64  54   109  62  52   107  63  54   105  61  52   104  59  53   110  65  60   117  74  68   105  61  58   107  63  60   111  70  64   106  67  60   102  64  55   110  72  63   110  73  64    95  59  47   106  68  59   101  63  54   102  64  55   105  67  58   104  66  57   105  67  58   101  63  54    89  51  42   100  62  53   105  67  58   109  71  62   106  68  59    96  58  49    89  51  42    91  53  44    97  58  51    91  53  52    88  53  51    95  60  56    92  57  51    96  62  53    98  65  56    82  52  44    75  48  39    56  28  24    55  30  25    64  36  33    64  34  32    75  41  39    93  55  52   102  61  57   114  73  67   122  84  75   126  89  80   116  78  69   107  69  60   112  72  62   105  65  55    95  52  43    99  56  47   108  64  53   104  60  49   101  54  44    99  52  42   107  59  47   114  66  54   113  63  52   106  56  45   114  65  51   114  66  52   103  57  44   103  59  46   104  62  50   103  61  49   108  65  56   106  63  54   102  58  49    93  49  40    95  51  40    99  55  44    95  53  39    93  54  39    96  59  41    95  59  43    98  60  47   112  74  63   103  65  54   103  65  54   103  65  54    84  47  38    80  43  34    80  43  34   107  70  61   104  70  61   101  67  58    87  53  44    85  51  42    87  54  47    87  52  46   100  67  60    92  62  54    92  62  54    98  68  60   102  72  64    97  67  59    90  57  50    91  58  51    99  66  59
 66  28  17    69  31  20    72  32  20    72  32  20    72  30  18    71  29  17    71  29  17    71  29  15    79  36  20    86  40  25    93  46  30    97  48  33   100  48  34   100  48  34    98  49  35    97  49  39   103  58  52   100  59  53    96  57  52    88  50  47    80  42  39    77  40  34    80  41  36    84  45  38    94  56  47    91  53  44    89  49  41    89  49  41    91  51  43    87  49  40    80  43  34    71  39  28    70  40  29    71  43  31    70  44  31    67  41  28    68  40  28    72  42  31    76  44  33    77  43  33    78  42  30    80  42  31    81  43  32    80  42  31    78  38  28    76  36  24    75  35  23    76  36  24    78  36  22    79  37  23    79  37  23    76  34  20    73  31  15    72  30  14    76  33  17    81  35  20    90  40  29    89  39  28    87  37  28    85  37  27    84  36  26    83  36  26    83  36  26    82  38  27    85  41  32    85  41  32    87  40  32    86  39  31    87  38  33    88  39  34    89  38  34    89  38  34    90  42  32    91  43  33    91  43  33    92  43  36    92  43  36    91  44  38    90  43  37    90  42  38    95  47  43    91  46  43    93  47  47   100  54  54   106  60  62   110  64  66   106  62  63    98  56  57   106  66  67   108  69  72   105  65  73    94  54  63    89  47  57    89  48  54    85  45  46    79  39  39    78  36  37    83  41  43    83  41  45    86  43  50    96  51  56    95  50  53    89  45  46    90  46  45    98  52  52    95  47  47    91  45  45    92  46  46    88  42  42    81  35  35    77  31  31    77  33  32    82  36  36    81  37  36    82  36  36    81  37  36    81  35  35    79  35  34    79  33  33    78  34  31    80  39  33    77  38  31    76  35  31    77  36  32    79  38  36    80  39  35    78  39  34    75  38  30    81  44  35    81  45  33    82  44  33    84  41  34    88  39  35    92  38  38    99  40  44   102  42  44   103  45  43   106  49  42   110  51  47   113  54  48   117  56  51   121  60  55   127  64  59   131  68  61   134  71  64   131  68  61   124  64  54   128  68  58   124  66  54   123  65  53   131  75  62   121  67  55   123  74  60   116  68  56   110  62  50   105  58  48    99  55  46    98  54  45   103  60  53   109  69  61   101  60  54   104  65  58   108  69  62   103  66  58   102  65  57   110  73  64   110  73  64    96  59  50   105  67  58    99  59  51   101  61  53   106  66  58   105  65  57   104  64  56   102  62  54    95  55  47   105  65  57   107  67  59   108  68  60   106  66  58   103  63  55   101  61  53   101  61  53   100  61  54    91  53  50    83  48  46    94  56  53    94  59  53    95  61  52    95  62  53    87  57  49    88  61  52    62  34  30    50  25  20    60  32  29    69  39  37    77  43  41    87  49  46    96  57  52   116  75  69   125  87  78   132  94  85   118  80  71   107  69  60   117  77  69   115  75  67   101  58  49    95  52  43   102  58  49   101  57  48   100  53  43   100  53  43   106  58  48   111  63  53   108  60  50   101  53  41   113  65  51   111  63  49   102  56  43   103  59  46   104  62  50   101  61  49   108  68  58   105  62  53   104  60  51    93  49  40    93  49  38    99  55  44    96  54  40    95  56  41   103  66  48   109  72  56   107  67  55   118  78  66   108  68  56   103  63  51   105  65  53    90  52  41    84  46  35    92  54  43   113  75  64   107  70  61   102  65  56    91  54  45    91  54  45    92  58  49    89  52  44    98  64  55   103  68  62    99  66  59    98  65  58   103  70  63   100  67  60    91  56  50    91  56  50    99  64  58
 68  30  19    69  31  20    72  32  20    71  31  19    72  30  18    71  29  17    71  29  17    72  30  16    78  36  22    83  40  24    91  45  29    95  48  32    98  49  34    99  50  36    99  51  39    99  52  42   100  57  50    92  51  47    83  45  42    78  40  37    77  39  36    79  42  36    82  43  38    83  44  37    88  50  41    86  48  39    86  46  38    88  48  40    91  51  43    88  50  41    82  45  36    74  42  31    70  40  29    71  43  31    70  44  31    70  44  31    72  42  31    72  42  31    76  42  32    77  40  31    77  39  28    78  40  29    79  41  30    78  40  29    76  36  24    75  35  23    76  36  24    77  37  25    78  36  22    78  36  22    78  36  22    75  33  19    72  30  14    71  29  13    73  30  14    75  32  16    87  41  28    87  39  27    84  37  27    82  35  25    81  34  24    79  35  24    80  36  25    81  37  26    84  40  31    86  42  33    88  41  33    87  40  32    87  40  34    89  40  35    89  40  35    87  38  31    86  39  31    85  41  30    87  43  34    89  44  38    89  44  38    88  43  38    86  41  36    84  40  37    93  48  45    93  49  48   100  56  55   104  63  61   103  61  62   103  61  62   103  61  62    97  57  57   101  65  65   102  66  70   100  60  69    90  50  61    85  45  54    86  45  53    86  45  49    85  43  45    95  50  53   102  57  62   107  60  68   115  65  76   126  76  85   128  77  84   123  72  77   125  75  78   126  74  76   120  68  70   115  63  65   114  62  64   110  60  61   103  53  54    99  49  50    98  50  50    99  51  51    99  51  51    97  49  49    94  46  46    88  40  40    83  35  35    81  33  33    78  32  32    83  40  34    79  38  32    80  37  31    79  35  32    77  36  32    77  36  32    75  36  31    74  37  29    75  41  31    75  41  31    77  40  31    76  38  29    79  34  29    83  33  32    89  35  35    92  36  37    95  40  37    98  43  38   103  45  43   106  48  44   110  51  47   115  56  50   122  61  56   126  65  60   131  71  63   131  68  61   127  64  55   133  70  61   129  69  58   129  69  58   137  77  66   127  69  57   129  75  63   121  72  58   117  67  56   114  66  54   109  62  52   101  58  49   100  60  50   103  65  56   100  61  54   104  67  59   103  66  58   100  63  55   104  67  59   109  72  64   105  68  60    99  61  52   105  65  57    98  58  50   103  63  55   111  71  63   107  67  59   104  64  56   104  64  56   103  63  55   110  70  62   106  66  58   102  62  54   103  63  55   110  70  62   114  74  66   110  70  62   101  62  55    89  51  48    83  48  44    98  60  57   100  63  57    91  57  48    90  57  48    91  61  53   100  73  64    69  42  35    47  22  17    56  28  25    71  42  38    78  45  40    84  47  41    94  55  50   117  76  70   121  83  74   128  90  81   120  82  73   110  72  63   119  79  71   121  81  73   109  66  57    98  55  46   101  57  48   102  58  49   103  56  46   101  54  44   105  57  47   107  59  49   104  56  46    97  49  39   109  61  49   108  62  47   102  58  45   107  65  51   105  65  53   102  62  50   107  67  57    98  58  48   106  63  54    97  53  44    98  54  45   104  60  49    99  57  45    98  56  42   104  65  50   111  72  57   108  69  54   115  75  63   105  63  51    95  55  43   106  66  54   101  61  49    88  48  38    92  54  43   117  79  68   108  70  59   103  65  56    96  59  50   102  65  56   103  66  57    93  56  48    99  62  54   116  79  73   106  69  63    95  58  52   100  63  57    99  62  56    87  52  46    91  54  48    98  61  55
 67  29  18    68  30  19    70  30  20    70  30  20    72  30  18    72  30  18    75  31  20    77  35  21    78  36  22    82  40  24    88  45  28    93  47  31    95  49  34    97  51  36   100  53  43   100  56  47    95  54  48    82  43  38    69  31  28    65  30  28    74  36  33    82  45  39    84  45  40    81  42  35    86  49  41    85  48  40    86  47  40    88  49  42    90  51  44    87  50  42    80  46  37    73  43  33    72  44  33    68  41  30    68  41  30    70  43  32    72  42  32    70  40  30    73  39  30    76  39  30    74  36  25    76  36  24    77  37  25    76  36  24    74  34  22    74  34  22    75  35  23    76  36  24    76  36  24    76  36  24    75  36  21    72  33  18    71  29  15    69  27  13    69  27  13    70  28  14    81  37  26    79  35  24    77  33  22    75  31  20    74  30  21    74  31  22    75  32  23    76  33  24    80  37  28    84  41  32    86  42  33    84  40  31    84  40  31    88  41  33    87  40  32    83  36  28    81  38  29    80  40  30    84  41  34    86  43  36    87  44  38    86  42  39    85  41  38    82  41  39    89  45  44    89  47  48   101  59  60   108  68  68   105  65  63   104  66  63   105  67  64    97  62  60    95  59  59    95  61  62    94  57  64    93  53  62    93  53  62    99  58  66   107  65  69   113  68  71   123  77  80   131  82  88   133  82  91   139  85  98   151  95 108   152  94 106   149  92  99   153  94 100   151  90  95   144  84  86   139  79  81   137  78  80   133  77  78   128  74  74   125  70  73   126  71  74   123  71  73   123  71  73   120  68  70   115  63  65   107  55  59   100  48  52    98  43  48    94  42  44    95  47  43    92  47  41    90  45  40    87  42  37    82  38  35    79  38  34    78  39  34    75  40  34    73  40  33    73  40  33    73  40  31    72  38  29    73  34  29    76  32  29    82  34  32    85  35  34    87  36  33    91  38  34    94  38  37    97  42  39   102  44  42   107  49  45   115  56  52   120  61  55   123  64  56   124  64  56   123  63  53   131  71  61   133  71  60   134  72  61   142  80  69   132  72  61   132  76  63   126  73  59   123  71  58   123  73  62   119  73  60   110  68  56   105  65  55   105  67  56   100  63  54   103  69  59    96  62  53    94  60  51   107  70  64   107  70  64   101  62  57   102  63  56    98  58  50    97  54  47   107  64  57   117  74  67   110  67  60   102  59  52   103  60  53   106  63  56   110  67  60   108  65  58   104  61  54   105  62  55   112  69  62   119  76  69   116  73  66   106  65  59    92  52  50    90  52  49   105  67  64   102  65  59    90  56  47    92  60  49    96  66  56   102  75  66    73  46  39    47  22  15    52  27  22    66  38  34    72  41  36    81  46  40    95  56  51   117  76  70   119  78  72   124  83  77   123  82  76   118  77  71   118  78  70   116  76  68   109  66  59   102  59  52    99  55  46   102  58  49   104  57  49   102  55  47   102  55  45   105  58  48   104  57  47   100  53  43   112  64  52   110  64  51   106  62  51   110  68  56   104  64  54   100  62  51   106  68  59    97  57  49   104  61  54    98  55  46   104  60  51   110  66  55   103  61  49   100  58  44   103  64  49   105  66  51   103  61  47   112  70  56   105  61  48    93  51  37   109  67  53   111  69  55    92  50  38    94  54  42   115  75  65   104  64  54   100  60  50    98  60  49   110  72  61   112  74  63    97  59  50   100  61  54   128  89  84   109  70  65    91  52  47    96  57  52    94  55  50    84  47  41    92  53  48    94  57  51
 65  27  16    67  29  18    69  29  19    69  29  19    72  30  18    74  32  20    79  35  24    81  39  27    76  37  22    80  41  24    86  45  27    90  47  30    93  50  34    96  52  39    99  55  46   101  58  51    92  53  48    76  38  35    58  23  21    58  23  21    70  35  31    83  46  40    84  47  41    79  42  34    91  54  46    90  53  45    90  53  45    91  54  46    91  52  45    87  50  42    79  46  37    72  42  32    73  45  34    67  40  29    66  39  28    69  42  31    71  41  31    69  36  27    70  36  27    76  39  30    71  33  22    73  33  21    74  34  22    74  34  22    73  33  21    72  32  20    74  34  22    76  36  24    77  37  25    76  36  24    75  35  23    72  33  18    69  29  17    66  27  12    68  26  14    66  26  14    74  34  22    72  32  20    70  30  20    68  28  18    67  27  17    67  27  17    69  29  19    72  29  20    78  35  26    82  39  30    86  42  33    84  40  31    84  40  31    86  42  33    83  39  30    79  35  26    79  39  29    79  41  30    80  42  33    82  41  35    83  42  38    83  42  38    83  42  40    83  42  40    82  40  41    84  42  43    98  58  58   108  70  69   108  70  67   108  73  69   109  74  70   101  68  63    89  55  53    90  56  55    93  57  61    99  59  67   106  65  73   117  74  81   132  87  90   145  96  99   148  98 101   154  99 105   153  95 107   155  95 107   163 101 114   163 100 111   158  95 103   162  97 103   163  97 101   156  90  92   150  84  88   150  85  89   148  86  89   145  85  87   143  84  86   145  86  90   142  86  89   142  86  89   140  84  87   135  79  82   126  69  75   121  62  68   117  58  64   114  58  61   109  58  54   107  58  51   104  55  50    98  49  45    91  43  41    85  41  40    83  43  41    83  45  44    76  42  40    74  43  40    72  43  37    71  40  35    72  37  31    74  37  31    78  37  33    84  39  34    81  33  31    84  35  31    86  35  32    88  37  34    94  40  38    99  46  42   108  53  50   113  58  53   116  59  52   117  60  51   118  59  51   129  71  60   131  71  61   133  73  62   142  82  71   134  74  63   129  71  59   123  67  54   118  64  52   118  69  55   117  71  58   110  68  54   106  66  54   105  67  56   101  65  53   103  69  59    93  59  50    92  58  49   108  71  65   105  68  62    97  58  53   105  64  58    93  50  44    93  50  43   106  63  56   117  74  67   107  64  57    96  53  46    97  54  47   102  59  52   103  60  53   108  65  58   110  67  60   108  65  58   108  65  58   113  70  63   115  72  65   112  71  65    97  57  55    95  57  54   107  70  64   101  64  56    93  56  47    99  67  56   100  70  60    98  71  60    73  48  41    48  23  16    50  25  20    60  32  28    67  36  31    81  46  40    97  58  51   115  74  68   118  77  71   122  81  75   126  85  79   125  84  78   116  76  68   107  67  59   105  62  55   104  61  54    97  53  44   101  57  48   104  57  49   101  54  46   102  55  45   106  59  49   109  62  52   109  62  52   120  72  60   115  69  56   107  63  52   107  67  55    99  61  50    96  60  48   108  70  61   100  62  53    97  57  49    97  54  47   106  63  54   113  69  60   107  65  53   103  61  49   105  63  49   103  61  47   100  56  43   117  73  60   115  71  58   101  57  44   115  73  59   119  77  63   100  58  46   106  64  52   110  70  60    97  57  47    93  53  43    96  56  46   111  73  62   114  76  65    98  60  51    99  61  52   138  97  93   112  71  67    90  49  45    94  53  49    91  50  46    83  44  39    92  53  48    93  54  49
 64  26  17    67  29  20    68  28  18    65  25  15    69  26  17    76  33  24    79  36  27    78  36  24    77  38  23    79  40  23    85  44  26    89  48  30    93  51  35    97  55  41   104  61  52   108  67  61    90  52  49    72  37  35    63  29  27    58  24  22    67  34  29    81  46  40    79  42  36    80  43  35    82  48  39    84  50  41    89  55  46    91  57  48    87  50  42    77  43  34    75  42  33    77  47  37    75  47  36    69  42  31    66  39  28    68  41  30    70  40  30    69  36  27    67  33  24    70  33  24    71  33  22    73  33  21    72  34  21    72  34  21    72  34  23    71  33  22    70  32  21    69  31  20    73  35  24    72  34  23    71  33  22    69  31  18    67  29  18    66  28  15    65  25  15    64  26  15    68  32  20    73  37  25    70  32  23    68  30  21    73  35  26    70  32  23    65  27  18    70  30  22    73  33  25    76  36  28    79  36  29    77  34  27    80  37  30    83  40  33    80  37  28    73  30  21    77  39  30    80  43  34    84  47  39    85  46  39    83  42  38    83  42  40    85  43  44    89  47  48    84  42  43    90  48  49    97  57  57   101  63  62   101  66  62   100  67  60   101  68  61   102  69  62    98  65  58   111  76  72   121  82  83   130  91  94   144 102 106   152 107 110   159 111 111   168 118 117   172 117 120   173 114 118   170 109 117   178 115 126   177 111 123   175 107 118   180 110 118   168  97 103   165  94  98   168  98 100   172 101 105   164  95  98   161  95  97   159  95  96   149  87  88   158  96  99   158  98 100   154  94  96   153  91  96   152  90  95   146  84  89   139  74  80   137  72  80   139  77  80   131  73  69   127  72  65   123  68  63   115  62  58   106  55  54    98  50  50    90  45  48    83  44  47    77  43  44    83  53  53    75  47  44    62  34  30    64  33  28    68  35  28    70  33  25    73  34  27    75  31  28    79  34  31    83  38  35    84  39  34    87  39  35    88  41  35    90  41  36    92  42  35   103  50  44   106  53  45   114  60  50   121  67  55   124  67  56   124  66  55   129  71  60   137  79  68   129  71  59   126  70  57   123  69  57   122  70  57   119  71  57   114  70  57   109  67  53   103  65  52   102  66  54   108  72  60   103  66  57    97  60  51   101  62  55   102  63  56   100  59  55   101  60  54    96  53  47    90  47  40   102  59  52   117  74  67   111  68  61   102  59  52   101  58  51   100  57  50    97  54  47   100  57  50   106  63  56   111  68  61   115  72  65   116  73  66   114  71  64   111  70  64    97  58  53   104  64  62   103  64  59    95  58  50    99  62  53   105  71  61    92  62  52    70  43  32    51  26  19    56  33  25    53  28  23    54  26  22    65  36  30    78  45  38    91  54  46   108  68  60   114  73  67   121  78  72   120  77  71   119  76  70   119  76  70   110  67  61   102  59  52   105  62  55   106  61  55    99  54  48   101  57  48   102  58  49    99  55  46   105  61  52   113  69  60   110  66  55   110  64  51   106  62  49   109  67  55   101  61  49    86  50  38    83  49  39    92  55  46    90  53  44    95  57  48    99  59  51   105  62  55   113  70  61   114  70  59    99  57  45    93  51  37   104  62  48   102  58  45   103  59  46   112  68  55   109  65  52   111  67  54   117  73  60   108  66  54   106  64  52   108  65  56   106  63  54    95  55  45    94  54  44   107  67  57   107  67  57    97  57  49    92  52  44   131  87  84   116  72  69    99  55  52    86  45  41    88  47  43   102  61  57   104  65  60    95  56  51
 63  26  17    67  29  20    66  28  17    65  25  15    67  27  17    75  32  23    78  35  26    75  35  23    78  39  24    81  42  25    87  46  28    89  47  31    93  51  37    96  56  44   100  60  50   100  61  54    83  48  44    72  38  36    70  39  37    69  38  36    76  45  42    87  54  47    80  46  37    79  45  36    80  47  38    82  49  40    88  54  45    89  55  46    84  50  41    75  42  33    73  43  33    78  50  39    74  46  35    68  41  30    67  40  29    69  42  31    71  41  31    69  36  27    67  33  24    70  33  24    69  31  20    69  31  18    70  32  19    71  33  22    70  32  21    70  32  21    69  31  20    67  31  19    71  33  22    70  34  22    70  33  24    69  32  23    68  31  22    65  28  19    63  26  17    61  24  15    66  32  23    69  36  27    66  32  23    63  29  20    67  33  24    66  29  21    62  25  17    66  28  19    78  37  31    78  38  30    75  35  27    71  31  23    73  30  23    76  36  28    79  36  29    75  35  27    71  34  25    74  37  28    77  40  32    79  40  33    80  39  35    81  40  38    84  42  43    88  46  47    91  49  50    92  50  51    92  52  52    92  54  51    92  57  51    97  64  55   103  73  63   108  78  67   124  92  81   134 100  91   141 103 100   149 109 109   162 120 121   169 123 123   173 125 121   182 131 127   185 129 128   183 123 125   181 116 122   188 121 130   187 117 127   183 111 122   183 110 117   170  95 100   168  93  97   169  95  96   169  95  96   158  86  89   165  95  97   173 105 106   165  99 100   168 104 105   163  99 100   164  99 103   162  97 101   159  92  99   158  91  98   161  91  99   160  90 100   156  90  94   144  80  78   139  79  71   133  72  67   123  65  63   114  58  57   105  53  55    99  53  56    95  54  58    86  51  55    92  62  64    91  63  62    75  47  44    63  34  30    64  34  26    69  36  27    71  34  26    71  30  26    72  31  29    77  33  30    80  36  33    80  37  31    80  37  31    83  38  32    86  41  35    95  46  41    97  48  41   104  54  45   113  61  50   117  63  53   119  65  53   129  72  63   139  82  71   133  75  64   130  73  62   126  72  60   124  72  59   120  72  58   115  69  54   106  64  50   100  61  46   101  63  50   108  70  59   106  68  57   101  63  54   103  64  57   104  63  57   101  60  56   102  61  55    99  56  49    91  48  41    96  53  46   105  62  55   101  58  51    98  55  48   102  59  52   105  62  55   101  58  51   103  60  53   106  63  56   108  65  58   109  66  59   108  65  58   106  63  56   102  61  55    98  57  53   102  63  58   101  62  57    95  56  49    95  58  49    99  65  55    89  59  49    73  46  35    66  42  32    62  39  31    54  29  24    50  25  18    63  34  26    75  42  33    88  51  43   104  66  57   113  72  66   119  76  70   119  76  70   121  78  72   124  81  75   114  71  65   104  61  54   106  63  56   101  56  50    98  53  47   102  58  49   103  59  50    98  54  45    99  55  46   103  59  50   100  56  47   108  61  51   110  66  53   117  75  63   107  69  58    84  47  38    72  38  28    79  45  35    84  50  40    94  57  48    98  60  51   100  60  52   107  64  57   110  66  57   101  57  46    94  52  40   101  59  45    98  54  41   100  56  43   110  66  53   107  63  50   108  64  51   114  70  57   106  64  52   106  64  52   110  67  58   112  69  60    98  58  48    87  47  37    97  57  47   107  67  57   101  61  53    92  51  45   118  74  71   110  66  63   101  57  54    90  49  45    91  50  46   102  63  58   103  64  59    86  49  43
 62  28  18    65  28  19    65  28  19    64  26  17    65  27  16    71  31  21    73  33  23    73  33  21    78  39  22    84  46  27    90  48  32    89  47  31    91  52  37    97  57  45    96  58  49    89  52  46    73  39  37    67  37  35    76  46  46    80  50  48    84  55  51    87  57  49    77  44  35    76  43  34    78  45  36    78  48  40    85  52  45    86  53  46    81  48  41    75  42  35    75  45  37    80  51  43    73  44  36    68  41  32    67  40  31    70  43  34    71  41  33    69  36  29    66  31  25    68  31  23    65  28  19    66  30  18    67  31  19    68  31  22    68  31  22    67  30  21    67  30  21    64  30  20    67  30  21    66  32  22    67  33  24    67  33  24    66  32  23    63  29  20    60  26  17    56  23  14    61  31  23    62  33  25    60  30  22    57  27  19    60  27  20    59  24  18    58  21  15    61  24  16    70  31  26    71  32  25    70  31  24    67  28  21    69  28  22    73  34  27    79  38  32    79  41  32    76  39  30    76  40  28    76  39  30    77  38  31    79  38  34    82  38  37    85  41  42    87  43  44    94  50  51    92  50  51    91  51  49    93  55  52    99  65  56   111  79  68   123  93  82   132 103  89   149 117 102   156 122 110   159 122 113   165 126 119   175 134 130   180 135 130   181 132 127   188 135 129   191 133 129   188 127 126   189 123 127   198 128 136   199 126 135   198 122 132   194 119 124   181 105 107   172  96  96   172  96  96   169  95  94   158  86  87   169  99  99   181 113 112   169 104 102   166 102 102   163  99  99   171 107 108   175 109 111   171 102 107   171 100 106   176 105 111   174 101 110   165  94 100   158  90  89   152  87  81   145  80  76   135  71  69   124  64  63   117  63  63   115  66  69   114  72  74   124  88  90   112  80  81   110  82  81   102  74  71    80  51  47    72  42  34    74  41  32    67  33  24    72  33  28    70  31  26    72  31  27    76  35  31    76  35  29    73  32  26    76  35  29    82  42  34    88  43  37    90  46  37    96  49  41   102  54  44   107  57  48   113  61  50   123  68  61   132  78  68   131  74  65   131  74  63   128  74  62   127  75  62   122  73  59   116  68  54   109  63  48   102  58  45   104  62  48   113  71  59   110  70  60   105  65  55   107  67  59   107  64  57   104  61  55   105  62  56    97  57  49    89  49  41    90  50  42    97  57  49    97  57  49    99  59  51   105  65  57   109  69  61    98  58  50    99  59  51    99  59  51    99  59  51    98  58  50    97  57  49    96  56  48    96  55  49   100  59  55   105  64  60   106  65  61   102  63  56   100  63  54    99  65  53    96  64  53    88  60  49    81  57  47    67  45  34    52  29  21    50  25  18    61  32  24    70  40  30    82  48  39    99  61  52   113  72  66   119  75  72   119  75  72   120  76  73   125  82  76   119  76  70   108  65  59   106  63  57    96  51  45    96  51  45   102  57  51   105  60  54    99  55  46    97  53  44    99  55  46    98  54  45   100  56  45   108  66  54   120  80  70   114  78  66    84  50  40    63  31  20    68  35  26    82  48  39    95  58  50    99  60  53    98  58  50    99  56  49   105  61  52   103  59  48    97  53  42    99  55  44    97  53  42   101  57  46   113  69  58   109  65  54   107  65  53   112  70  58   106  63  54   108  65  56   107  67  57   116  76  66   103  63  55    84  44  36    89  51  42   107  69  60   105  66  59    92  53  46   107  66  62   105  64  60   101  60  56    89  50  45    86  47  42   100  61  56   101  62  57    81  44  38
 63  29  19    63  29  19    64  27  18    63  26  17    65  27  16    68  30  19    71  33  22    72  32  20    76  37  20    85  47  28    91  49  33    89  47  31    92  53  38    98  60  47    93  56  47    79  46  39    65  34  31    63  35  32    76  48  47    81  53  50    81  53  49    79  50  42    69  39  29    71  41  30    76  46  38    77  47  39    83  50  43    84  51  44    80  47  40    75  42  35    75  45  37    81  52  44    71  44  35    67  40  31    66  39  30    70  43  34    71  41  33    68  35  28    66  31  25    68  31  23    65  28  19    66  29  20    67  30  21    67  30  21    68  31  22    65  31  21    65  31  22    64  30  21    64  30  21    64  31  24    64  31  24    61  31  23    60  30  22    58  27  22    56  25  20    54  23  18    55  27  23    56  28  24    54  26  22    52  23  19    51  20  17    52  19  14    53  18  14    58  21  15    61  22  17    65  26  21    68  29  24    69  30  23    69  30  23    71  32  25    73  34  27    74  37  29    78  42  30    78  42  30    79  41  32    82  41  35    88  44  41    94  48  48    98  52  54   101  55  57   105  59  61   106  62  61   109  68  66   116  77  72   124  90  80   137 105  92   149 117 104   155 126 110   166 137 119   173 142 124   174 140 128   179 142 133   188 148 140   188 145 138   185 137 127   186 136 127   199 142 135   198 139 135   204 138 140   208 139 144   202 129 138   197 122 129   193 118 122   183 107 107   177 102  99   178 103  98   178 104 101   170  99  95   177 108 103   179 111 108   162  97  93   159  95  93   160  96  94   170 106 106   179 113 115   180 111 114   180 109 115   182 109 116   179 104 111   171  96 101   170  98  99   164  95  90   156  86  84   143  78  74   134  73  68   133  75  71   134  85  81   136  92  89   172 134 131   136 102 100   131 100  98   135 106 102   111  80  77    92  59  52    86  52  43    75  38  30    78  39  34    73  34  29    72  33  28    75  36  31    74  35  28    70  31  24    72  33  26    80  41  34    84  44  36    87  44  37    90  45  39    95  48  40    99  50  43   104  54  45   111  61  54   119  66  58   123  68  61   125  71  61   127  73  63   127  73  61   125  73  60   118  69  55   112  64  50   108  60  46   111  65  52   120  74  61   117  73  62   111  67  58   110  66  57   107  64  57   103  60  54   105  62  56    95  55  47    93  53  45    95  55  47   101  61  53   104  64  56   106  66  58   108  68  60   109  69  61    94  54  46    93  53  45    92  52  44    90  50  42    90  50  42    92  52  44    96  56  48    99  58  52    96  55  51   102  61  57   108  67  61   110  70  62   106  68  57    99  65  53    98  66  55    97  69  57    84  60  50    66  44  33    51  28  20    51  26  19    61  34  25    69  39  29    79  45  35    92  54  45   115  74  68   125  81  78   120  76  73   113  69  66   119  76  70   122  79  73   114  71  65   106  63  57    94  49  43    95  50  44   100  55  49   104  59  53   102  58  49   100  56  47   105  61  52   110  66  57    94  50  39   103  61  49   117  77  67   115  79  67    89  55  45    64  32  21    66  33  24    81  48  39    94  60  51   102  63  56    97  57  49    94  51  44   102  58  49   106  62  53   101  57  46    99  55  44    99  55  44   105  61  50   119  75  64   115  71  60   111  69  57   114  71  62   107  64  55   107  64  55   102  62  52   114  74  66   108  68  60    91  51  43    93  55  46   110  71  64   109  70  63    93  54  47   105  66  61   104  65  60   100  61  56    84  47  41    78  39  34    96  59  53   103  66  60    82  47  41
 63  30  21    61  28  19    61  27  17    62  28  18    65  28  19    66  29  20    69  32  23    72  34  23    74  35  18    86  45  27    91  49  33    90  48  32    92  53  38    97  59  48    89  55  46    74  43  38    65  35  33    61  35  34    73  49  49    76  52  50    74  49  45    72  45  38    65  37  26    72  44  32    77  48  40    76  47  39    80  50  42    81  51  43    80  47  40    76  43  36    75  45  37    79  50  42    71  44  35    65  41  31    66  39  30    69  42  33    70  40  32    68  35  28    66  31  25    68  31  25    64  30  21    65  31  22    66  32  23    66  32  23    66  32  23    65  32  23    64  31  24    63  30  23    63  30  23    60  29  24    58  27  22    55  26  20    54  25  19    54  25  21    54  25  21    53  25  21    50  25  21    49  24  20    49  24  20    48  20  17    45  15  13    47  16  13    53  18  16    55  20  16    62  24  21    64  26  23    68  30  27    70  33  27    70  33  27    69  32  26    71  34  28    74  37  29    74  38  26    76  38  27    81  43  34    89  48  42   102  58  55   113  67  67   124  75  78   128  79  82   131  83  83   131  85  85   136  92  89   143 102  96   152 116 104   160 127 112   168 137 119   171 143 122   187 159 137   192 164 143   194 162 147   197 163 151   205 167 156   200 160 150   194 148 135   193 145 133   199 145 135   202 145 138   214 150 150   212 146 148   201 130 136   194 122 126   193 119 120   189 115 112   179 106 100   177 107  99   182 113 106   181 114 106   182 118 109   176 113 106   162 102  94   170 109 104   174 113 110   171 110 107   174 110 110   182 116 117   189 118 122   187 115 119   182 107 112   178 103 108   177 105 106   171 101  99   162  93  88   153  86  78   148  86  75   149  91  79   154 102  89   158 112  99   187 147 137   157 120 112   155 120 114   159 126 121   132  97  93   111  73  70   106  67  62    96  55  51    85  46  41    80  41  36    76  37  30    75  36  29    70  33  25    67  30  22    69  32  24    77  38  31    78  39  32    82  41  35    86  43  37    89  44  38    93  46  40    98  49  42   104  53  49   108  55  49   117  64  58   120  65  58   124  69  62   125  71  61   123  69  57   118  66  53   114  62  49   112  60  47   119  70  56   126  76  65   122  74  62   115  67  57   113  66  58   108  64  55   103  58  52   102  59  52    99  59  51   101  63  54   101  63  54   100  62  53   102  64  55   102  64  55   101  63  54   100  62  53    91  53  44    90  52  43    88  50  41    85  47  38    84  46  37    88  50  41    95  57  48   102  61  55    91  50  46    99  55  52   105  64  58   109  69  61   104  66  55    96  60  48    91  59  48    90  62  50    79  55  45    63  41  30    52  29  21    55  30  23    62  35  26    70  40  30    78  46  35    84  47  38   115  72  66   130  85  82   123  78  75   105  60  57   109  64  61   121  76  73   118  73  68   107  62  57    96  53  47    96  53  47    96  53  46    98  55  48    98  55  48    98  55  48   106  63  56   117  74  65    96  52  41   102  60  48   109  71  60   109  75  63    93  61  50    69  39  28    65  35  25    78  45  36    93  59  50   101  64  56    98  58  50    94  51  44   102  58  49   110  63  55   107  60  50   103  59  48    99  55  46   105  62  53   119  76  67   115  72  63   111  68  59   112  69  62   100  60  52   100  60  52    94  54  46   106  65  59   110  71  64   102  63  56   102  63  56   112  73  68   109  72  66    95  58  52    98  61  55    97  60  54    96  59  53    82  47  41    77  40  34    97  62  56   109  74  68    89  54  48
 63  30  21    60  27  18    61  27  17    63  29  19    66  29  20    67  30  21    69  32  23    74  36  25    75  36  19    86  45  27    92  50  34    92  50  34    92  52  40    93  55  44    85  51  42    73  42  37    68  40  37    63  39  37    72  51  50    74  53  50    72  48  44    69  44  37    66  39  28    78  50  38    81  52  44    78  49  41    79  49  41    82  52  44    83  50  43    76  46  38    73  44  36    74  47  38    72  45  36    65  41  31    65  38  29    68  39  31    69  39  31    67  34  27    68  31  25    69  32  26    66  32  23    66  32  23    66  32  23    65  32  23    65  32  25    64  31  24    63  30  23    60  29  24    59  28  23    56  27  21    53  24  20    50  22  18    49  21  17    50  22  19    51  23  20    50  24  23    48  24  22    46  22  20    47  23  21    47  21  20    44  16  15    48  17  15    58  24  23    61  26  24    62  24  23    62  24  21    66  28  25    72  34  31    78  40  37    82  45  39    87  52  46    95  58  50    86  48  37    90  52  39    97  57  47   107  64  57   117  72  67   129  81  79   139  89  90   145  95  98   148  98  99   149 101  99   153 108 103   160 120 112   172 134 123   183 147 131   190 157 138   193 162 141   199 173 148   205 179 156   207 178 160   209 177 162   215 179 167   208 170 157   200 158 144   201 155 140   198 148 137   202 147 140   217 157 156   215 151 152   203 134 139   198 127 131   197 125 126   198 127 123   179 111 102   178 112 100   187 121 109   188 126 115   190 130 119   186 128 117   183 125 114   200 143 134   215 158 151   194 135 131   182 121 118   190 126 126   196 127 130   188 117 121   179 107 111   179 107 110   185 113 116   178 108 106   169 100  95   162  96  84   161  98  83   165 106  88   169 117  96   171 124 104   172 131 113   168 131 115   175 138 129   167 130 122   140  99  95   128  84  83   128  82  82   122  77  74    96  55  51    92  53  48    86  47  40    78  39  32    72  33  26    69  32  24    71  34  26    74  37  29    75  36  29    78  39  32    83  40  34    83  40  34    89  41  37    94  47  41   100  49  46   100  49  45   113  60  56   116  63  57   120  65  60   120  65  58   118  64  54   115  61  49   114  57  46   112  55  44   123  69  57   130  76  64   125  73  62   117  67  56   117  69  59   112  65  57   104  57  51    99  56  49   106  66  58   110  72  63   105  67  58    95  57  48    93  55  46    93  55  46    92  54  45    93  55  46    92  54  45    93  55  46    91  53  44    88  50  41    85  47  38    87  49  40    93  55  46    98  60  51    97  56  52   105  62  56   110  69  63   112  72  64   106  68  57    98  62  50    89  57  46    85  57  45    76  52  42    64  42  31    58  35  27    57  33  23    60  33  24    70  40  29    79  47  36    81  44  35   107  64  58   127  82  79   123  78  75   102  57  54   102  57  54   116  71  68   116  71  66   108  63  58   103  60  54    99  56  50    94  51  44    95  52  45    96  53  46    94  51  44    99  56  49   113  70  63   106  62  53   107  65  53   105  67  56   102  68  56    95  63  52    76  46  35    66  36  26    70  40  30    87  54  45    99  62  54   100  60  52    98  55  48   105  58  50   108  61  53   107  60  50   107  63  52    96  52  43   100  57  48   112  69  60   108  65  56   105  62  55   104  64  56    95  55  47    94  54  46    91  50  44   100  61  54   109  70  63   108  69  62   105  66  61   110  71  66   109  72  66    99  62  56    86  49  43    82  47  41    90  55  49    87  52  46    82  47  41   104  69  63   115  80  74    93  60  53
 61  31  21    58  28  18    59  27  16    63  31  20    66  32  22    66  32  22    69  35  25    76  40  28    81  39  23    88  45  28    94  51  35    95  53  37    92  52  40    88  50  39    78  45  38    71  42  38    63  37  36    60  36  36    71  50  49    75  54  51    72  51  46    69  46  38    69  42  31    81  55  42    84  57  48    80  51  43    79  49  41    83  53  45    84  54  46    79  49  41    72  43  35    69  42  33    74  47  38    66  42  32    64  37  28    66  37  29    67  37  29    66  33  26    68  31  25    70  33  27    65  30  24    64  31  24    65  32  25    64  31  24    63  30  25    59  28  23    58  27  22    56  27  23    54  25  21    52  24  20    50  22  19    48  20  17    47  19  16    46  20  19    46  20  19    46  22  20    47  26  25    45  24  23    50  26  26    51  25  24    47  19  18    54  22  23    66  32  33    69  33  33    65  26  27    65  27  26    71  33  32    84  46  43    93  58  54    99  64  60   106  71  67   114  77  69   112  74  63   118  78  66   125  82  73   130  87  80   137  89  85   144  94  93   150 100 101   156 104 106   157 105 107   160 110 109   166 121 116   179 136 127   192 152 140   202 166 150   207 174 155   209 178 157   206 180 155   212 188 164   212 187 167   211 184 167   215 183 168   211 175 161   205 166 151   209 166 150   213 165 153   211 158 150   223 165 163   216 156 156   205 140 144   202 136 138   197 129 130   196 129 123   183 119 109   185 123 108   196 134 119   198 140 126   205 149 134   205 152 138   202 148 136   218 164 154   238 184 174   214 159 152   202 143 139   204 143 140   202 136 137   187 117 119   180 108 111   184 112 115   195 123 126   186 116 116   177 108 101   172 106  92   173 111  90   177 120  93   179 128  99   179 132 102   166 124  99   176 135 115   176 137 122   163 123 113   152 107 102   148 100 100   143  93  94   135  85  86   117  72  69   113  72  66   104  63  57    88  49  42    79  40  33    81  42  35    81  44  36    79  42  34    79  40  35    81  42  37    82  38  35    79  35  32    84  36  34    90  42  38    95  44  43    94  43  40   104  53  49   107  57  50   112  59  53   115  60  53   113  59  49   113  56  45   114  56  45   115  57  45   122  64  52   129  71  59   127  70  59   122  68  58   123  73  64   118  70  60   105  58  50    96  52  43   104  66  57   113  76  67   108  71  62    93  56  47    89  52  43    90  53  44    90  53  44    93  56  47    90  53  44    93  56  47    96  59  50    95  58  49    91  54  45    90  53  44    92  55  46    96  58  49   103  62  58   110  67  61   115  72  66   113  73  65   111  73  62   106  70  58    97  65  54    88  60  48    81  57  47    74  52  41    67  44  36    58  34  24    54  27  18    67  37  26    81  49  38    81  44  35    93  49  46   117  71  71   121  76  73   107  62  59   105  60  57   110  65  62   111  66  61   109  64  59   108  65  59   104  61  55    98  55  48    99  56  49   102  59  52    96  53  46    96  53  46   108  65  58   112  68  59   112  69  60   104  66  55    96  62  50    92  62  51    81  53  42    69  41  30    70  40  30    79  46  37    94  57  49   100  59  53   101  58  51   106  59  51   104  57  49   105  58  50   110  66  57    97  52  46    97  54  47   103  63  55    97  57  49    97  57  49   103  63  55    97  56  50    96  57  50    92  53  46    99  60  53   107  68  63   101  64  58    94  57  51   102  65  59   109  71  68   102  64  61    81  46  40    74  41  34    84  51  44    89  56  49    85  52  45   103  70  63   113  80  73    93  60  53
 60  31  23    57  27  17    57  27  17    64  32  21    67  33  23    67  33  23    70  36  26    78  40  27    84  42  28    89  46  30    94  52  36    97  55  41    91  51  39    82  45  36    74  41  34    70  41  37    57  31  30    54  30  28    67  46  43    74  53  48    73  53  46    70  48  37    66  42  30    80  54  41    87  60  49    81  52  44    79  50  42    83  54  46    85  56  48    79  50  42    71  42  34    65  38  29    73  49  39    66  42  32    63  36  27    65  36  28    66  36  28    65  32  25    68  31  25    71  34  28    65  30  24    64  31  24    63  30  23    62  29  22    59  28  23    57  26  21    54  25  21    53  24  20    49  21  17    49  21  17    49  21  18    48  20  17    46  20  19    45  19  18    43  19  17    43  19  17    50  29  28    46  25  24    53  29  29    54  28  27    51  21  21    60  26  25    73  37  37    78  39  40    77  37  37    77  37  35    86  46  44    99  62  56   109  72  66   109  75  66   109  75  66   111  77  67   128  90  77   137  95  83   145 101  90   151 104  96   155 104 100   161 107 105   167 113 113   172 118 118   167 113 113   170 120 119   180 135 130   195 152 143   206 168 155   213 178 159   212 180 159   207 179 157   213 189 165   219 195 171   218 193 173   216 189 170   219 187 172   214 181 164   213 176 160   217 178 163   215 171 160   208 161 155   216 165 162   213 159 159   208 149 151   209 149 149   202 141 140   197 137 129   187 127 116   194 137 120   206 150 133   207 156 139   215 166 149   217 170 154   209 161 147   216 168 154   226 177 163   217 165 154   216 159 152   218 157 154   208 142 143   188 120 121   185 114 118   195 125 127   201 131 133   191 123 120   180 116 106   175 114  96   178 121  94   183 128  97   183 133  98   181 135  99   181 136 105   182 138 111   170 125 106   162 116 103   169 120 115   167 116 115   150  95  98   136  81  84   135  85  84   136  88  84   125  77  73   103  58  53    92  48  45    94  53  49    94  55  50    89  50  45    86  47  42    87  46  42    84  40  37    78  33  30    78  33  30    83  38  35    86  41  38    85  40  37    94  46  42    99  50  46   103  54  49   107  57  48   110  58  47   112  58  46   116  60  47   119  61  47   118  60  46   126  68  56   126  69  58   125  71  59   128  78  67   122  74  64   105  58  48    93  50  41    98  60  49   113  77  65   111  74  65    98  61  52    95  58  49    96  59  50    96  59  50    99  62  53    85  48  39    92  55  46    99  62  53   101  64  55    98  61  52    94  57  48    94  57  48    96  58  49    97  58  53   103  62  58   106  65  59   107  66  60   108  70  61   109  72  63   101  68  59    90  61  53    89  65  55    83  60  52    75  50  43    57  32  25    49  20  12    65  35  25    83  49  39    82  45  36    81  40  36   106  62  59   118  74  71   114  69  66   110  65  62   107  62  59   105  62  56   109  66  60   108  67  61   105  64  58   100  59  53   104  63  57   109  68  62   100  59  53    96  55  49   108  65  59   113  68  62   114  71  64   104  64  56    95  58  49    93  60  51    85  55  45    75  45  35    75  45  35    72  42  34    88  53  47    98  61  55   101  60  54   102  59  52    99  55  46   103  56  48   114  67  59   101  56  50    98  55  49   100  59  53    94  53  47    96  56  48   104  66  57   101  62  55   103  64  57    95  58  50   100  63  55   103  66  60    91  56  50    81  46  42    94  59  55   107  72  70   102  67  63    85  52  45    74  41  34    82  49  42    87  54  47    83  50  43    99  66  59   109  76  69    90  57  50
 55  28  21    56  27  19    57  27  17    60  28  17    64  30  20    69  33  21    72  36  24    74  36  23    78  36  22    84  42  28    92  52  40    95  57  46    93  56  47    94  61  52    84  55  49    65  37  33    51  26  22    54  30  26    66  43  37    78  55  47    77  55  44    68  44  32    70  44  31    78  52  39    85  57  46    83  55  44    91  63  52    94  67  56    83  56  45    71  44  33    67  40  29    61  37  25    67  43  31    65  41  29    64  37  26    62  34  23    62  32  22    64  31  22    65  32  23    67  32  26    67  32  26    62  27  23    59  26  21    62  29  24    60  29  24    56  25  20    52  23  19    53  24  20    47  19  16    47  19  16    45  20  16    45  20  16    45  20  16    47  22  18    49  25  23    52  28  26    64  43  40    64  43  40    60  34  33    66  36  36    64  30  29    64  26  25    81  40  38    89  45  44    90  46  43   101  58  52   115  72  65   122  82  72   122  86  74   120  87  72   122  90  75   125  92  77   145 107  94   157 113 102   166 118 108   168 115 107   172 114 110   177 118 114   178 118 117   175 117 115   178 122 121   177 128 124   188 143 138   205 165 157   212 176 162   211 180 160   213 185 163   217 191 168   221 194 173   221 194 173   222 194 173   223 192 172   222 189 172   219 183 167   214 178 164   211 173 164   213 174 167   184 144 142   195 153 154   167 126 124   176 131 128   193 146 140   208 158 151   204 152 141   198 146 132   207 158 141   215 168 150   216 173 156   216 177 160   219 180 163   217 178 161   215 173 157   206 163 147   222 174 160   227 173 161   202 143 137   199 135 133   192 126 128   176 110 114   208 139 142   199 131 128   178 114 104   187 125 110   190 134 111   188 134 106   196 146 113   194 146 108   188 140 102   184 136 100   183 132 101   166 114  92   166 113  97   189 134 127   187 131 130   161 105 108   146  90  93   142  84  83   144  86  85   126  70  69   101  47  47   109  59  60   117  71  73   102  60  62   102  62  62    97  55  56    99  55  54    95  47  47    82  34  34    73  28  25    72  33  28    74  39  33    75  42  35    80  40  38    82  41  39    93  50  44    99  55  44   103  55  41   113  64  47   121  70  51   116  63  45   116  63  45   115  62  46   113  61  47   113  64  50   121  73  61   125  79  66   116  70  57   100  58  46   100  62  49   107  74  59   108  74  62    97  63  51    93  57  45    98  62  50   100  62  51    95  57  46    87  49  38    87  49  38    96  58  49   101  63  54    97  59  50    95  57  48    96  58  49    93  56  47    94  57  51    94  59  53    98  61  55    98  61  55    99  61  58   109  71  68   103  69  67    83  52  49    89  61  57    85  60  55    87  59  55    72  45  38    54  23  18    66  33  26    83  46  40    75  36  29    70  31  24    86  47  40   111  70  64   129  86  80   126  83  77   116  73  67   112  71  67   114  75  70   108  71  65    98  61  55   102  67  61   105  70  64   107  70  64   106  69  63    99  60  55   104  63  59   104  60  57   105  60  57   101  58  52    96  55  49   108  71  63   101  67  58    73  40  33    68  39  31    66  37  31    75  46  40    88  57  52    98  63  59   100  61  54   102  59  52   111  64  56   120  73  65    99  54  51   105  61  60   106  65  61   101  60  56    96  57  50   101  62  55   105  66  59   101  64  56    95  61  52   101  68  59   103  70  63    93  60  55    86  55  52    97  66  64   101  71  71    91  60  58    79  46  39    76  43  34    84  51  42    79  46  37    82  49  40    79  46  37    91  56  50    89  54  48
 55  28  21    56  29  20    58  28  20    60  28  17    63  29  19    68  32  20    74  36  23    78  38  26    83  41  27    89  47  33    95  55  43    95  59  47    92  58  48    94  64  56    88  59  53    71  43  39    53  28  23    57  34  28    68  45  37    78  56  45    75  51  39    65  42  28    69  43  28    78  52  37    83  55  44    81  53  42    87  60  49    91  64  53    78  54  42    70  46  34    69  45  33    67  43  31    66  42  30    64  40  28    65  37  26    62  34  23    62  32  22    62  32  22    65  32  23    66  33  24    66  31  27    62  27  23    59  26  21    61  28  23    60  29  24    56  25  20    53  24  20    54  25  21    51  23  20    51  23  20    48  23  19    46  21  17    45  20  16    46  21  17    49  25  23    51  27  25    78  54  52    79  53  52    73  45  44    77  46  44    76  41  39    75  35  33    92  48  45    99  54  49   111  64  58   113  69  60   120  78  66   126  86  74   133  97  81   140 109  91   149 121 100   159 128 110   166 128 115   174 130 119   178 130 120   176 123 115   176 117 111   177 118 112   178 117 114   173 115 111   175 119 118   181 132 128   194 151 145   208 170 161   214 181 166   216 187 169   220 194 171   224 198 175   222 195 176   224 197 178   226 197 179   227 196 176   224 191 174   220 184 168   214 178 166   211 174 166   207 169 166   198 160 159   221 181 181   198 156 157   190 146 143   185 140 134   195 147 137   198 150 138   202 156 140   209 166 149   215 177 158   217 180 162   215 182 165   215 184 166   214 181 162   211 176 157   202 161 143   214 168 152   215 163 150   199 142 133   208 147 144   203 139 139   192 126 130   233 167 169   199 136 129   181 122 108   192 135 116   197 145 121   194 145 113   199 153 117   202 157 118   203 155 115   190 140 103   194 141 109   180 124  99   175 118 101   188 129 121   184 126 124   166 107 109   159  98 103   148  86  87   145  81  82   129  67  68   114  55  57   125  70  73   127  78  81   107  62  65   106  64  66   116  72  73   117  71  73   112  62  65    97  47  48    82  36  36    74  36  33    70  39  34    70  41  35    72  38  36    76  38  37    86  47  40    93  53  43   100  57  41   113  68  49   121  73  53   115  67  47   117  68  51   115  66  51   111  62  48   111  63  51   116  70  57   120  76  63   116  72  61   104  64  52   101  63  50   102  69  54   103  67  53    98  62  48    97  61  49    99  63  51    98  60  49    91  53  42    91  53  42    91  53  42    97  59  50    97  59  50    91  53  44    92  54  45    96  58  49    90  53  44    84  49  43    86  53  46    93  58  54    91  56  52    89  51  50    94  59  57    98  62  62    88  57  55    85  55  53    79  51  48    79  51  47    70  41  37    55  24  19    66  31  27    82  45  39    77  38  33    82  45  37    90  53  45   106  65  59   124  83  77   137  94  88   128  87  81   115  74  70   107  70  64   101  64  58    97  64  57   103  70  65    95  64  59    97  62  58   104  69  65   104  66  63   108  68  66   102  58  57   106  61  58   105  60  55   100  57  51   107  66  60   100  63  55    75  42  35    75  46  40    67  39  35    71  46  41    84  56  52    95  64  59   101  64  58   101  61  53   110  63  55   117  70  64   104  59  56   105  63  64   108  67  65   105  65  63   101  62  57   100  63  55   102  65  57   100  66  57    88  55  46    92  59  52    96  65  60    90  59  54    83  53  51    95  65  63   101  73  72    90  60  58    81  51  43    77  44  35    83  50  41    79  46  37    81  48  39    79  46  37    90  55  49    87  52  46
 56  29  22    57  30  21    59  29  21    61  29  18    62  28  18    67  31  19    75  37  24    81  41  29    89  47  33    93  51  37    97  57  45    96  58  47    89  55  45    89  59  51    85  56  50    71  44  37    55  30  25    61  36  31    72  47  40    77  53  43    73  46  35    64  38  25    70  42  28    82  54  40    81  53  42    79  51  40    84  57  46    86  59  48    75  51  39    71  47  35    73  49  37    72  48  36    65  41  29    64  40  28    64  36  25    62  34  23    62  32  22    62  32  22    64  31  22    65  32  23    64  31  26    60  27  22    58  25  20    60  27  22    59  28  23    58  27  22    55  26  22    56  27  23    55  27  24    55  27  24    51  26  22    48  23  19    45  21  17    45  21  17    49  25  23    53  29  27    82  54  51    84  54  52    77  46  44    83  48  46    86  46  46    84  43  41   100  55  52   110  62  58   121  76  70   121  77  68   122  82  70   132  94  81   146 113  96   161 133 112   174 147 126   182 153 135   188 152 138   192 150 138   190 143 133   183 133 122   181 124 115   178 121 114   178 119 115   173 118 113   176 122 120   191 143 139   205 164 158   213 176 167   217 185 172   221 192 176   225 198 177   228 203 181   222 196 179   226 200 185   232 203 187   233 202 184   226 194 179   219 186 171   214 180 168   213 176 168   196 157 152   215 171 170   255 210 210   255 210 211   248 197 194   218 165 159   196 144 133   187 139 125   208 167 149   213 176 157   219 184 165   220 187 170   216 187 169   215 186 168   213 182 162   210 177 158   202 164 145   208 162 146   203 151 137   197 140 129   215 154 149   209 148 145   204 140 141   251 187 187   199 139 131   189 131 119   202 146 129   209 159 134   201 155 122   201 157 120   206 162 123   211 166 125   197 149 111   203 153 120   194 140 114   183 126 107   184 126 115   180 121 117   170 110 110   171 109 112   158  94  95   142  78  79   126  64  65   122  64  63   138  84  84   137  87  86   117  71  71   121  77  76   131  85  85   133  84  87   128  76  80   111  59  63    92  43  46    78  38  38    73  39  37    71  42  38    68  37  34    72  39  34    80  45  39    86  49  40    92  53  38   105  63  47   116  70  54   114  67  51   118  70  56   116  68  56   111  63  53   108  61  51   109  65  54   113  71  59   114  71  62   109  69  59   102  64  53    99  63  51    98  60  49    99  63  51   101  65  53   100  64  52    94  57  48    88  51  42    92  55  46    93  56  47    97  59  50    92  54  45    87  49  40    94  56  47    99  61  52    92  55  46    83  48  42    82  47  41    92  54  51    91  53  50    85  47  46    88  53  51    94  58  58    92  61  59    81  51  49    70  42  39    69  41  37    67  38  34    58  27  22    65  30  26    80  43  37    80  43  37    85  48  40    91  54  46    98  57  51   115  74  68   137  94  88   130  89  83   110  69  65   100  63  57    94  57  51    98  65  58   102  69  64    86  55  50    89  54  50   105  70  66   109  71  68   113  73  71   102  57  54   106  61  58   108  63  58   101  58  51   105  65  57    99  62  54    79  46  39    82  53  47    73  45  41    70  45  41    78  50  47    89  60  56    97  62  58    98  59  52   105  60  54   113  68  62   107  63  60   106  65  63   108  67  65   109  69  67   106  67  62    98  61  55    98  61  53   103  69  60    86  53  46    85  52  45    92  61  56    88  59  53    78  48  46    90  60  58   100  72  71    87  57  55    88  55  48    81  47  38    87  53  44    81  47  38    81  47  38    80  46  37    92  57  51    88  53  47
 56  29  22    58  31  22    60  30  22    61  29  18    61  27  17    67  31  19    76  38  25    84  45  30    89  47  31    93  50  34    99  57  43    95  57  44    84  50  40    81  51  41    76  47  39    64  37  30    56  31  26    63  38  31    72  48  38    75  51  39    70  44  31    64  38  23    72  44  30    85  57  43    79  51  39    78  50  39    83  56  45    83  56  45    73  49  37    70  46  34    73  49  37    71  47  35    64  40  28    63  39  27    64  36  25    62  34  23    62  32  22    61  31  21    63  30  21    64  31  22    62  29  24    60  27  22    58  25  20    59  26  21    58  27  22    59  28  23    57  28  24    57  28  24    56  28  25    56  28  25    53  28  24    49  24  20    45  21  17    47  23  19    53  29  27    59  33  32    76  46  44    84  50  48    78  43  41    85  47  44    92  51  49    93  49  46   107  62  57   120  73  67   127  83  74   128  86  74   133  95  82   147 114  97   165 137 116   179 154 132   184 162 139   187 162 140   201 168 151   201 162 147   196 152 139   189 141 129   184 132 121   180 126 116   178 123 116   176 123 119   179 130 126   202 157 152   216 177 170   216 182 173   217 187 176   222 194 180   225 200 180   226 203 185   222 199 185   228 205 191   236 208 194   236 207 193   228 199 185   221 189 176   214 182 171   215 178 170   215 171 168   213 163 162   217 161 162   219 159 159   224 163 162   210 151 145   203 146 137   205 156 142   211 172 155   214 181 162   220 189 171   221 192 174   218 191 174   215 188 169   211 182 164   211 178 159   211 173 154   207 161 145   198 146 132   194 138 125   207 148 140   204 143 138   201 137 137   235 174 171   199 140 134   195 142 128   209 158 141   215 169 145   205 162 130   196 156 120   202 160 120   208 165 123   203 158 119   210 160 125   202 148 120   189 131 111   184 124 113   180 117 112   174 110 110   176 112 113   165 101 102   136  75  74   122  61  58   129  70  66   146  93  87   145  96  89   130  85  79   140  95  90   141  93  91   143  93  94   140  85  91   123  70  76   106  55  60    91  49  51    88  52  54    88  58  56    75  46  42    79  50  44    84  51  44    81  47  37    82  46  32    90  51  36   101  59  45   104  60  47   112  65  55   111  64  56   109  62  56   106  61  55   106  63  56   106  66  56   107  67  57   107  67  57   102  62  52    98  58  48    99  59  49   103  65  54   104  66  55    97  61  49    92  55  46    91  54  45    90  53  44    94  57  48    97  59  50    92  54  45    89  51  42   101  63  54   107  69  60    98  60  51    93  56  50    84  49  43    94  56  53    94  56  53    90  52  51    93  58  56    93  59  58    93  62  60    82  52  50    66  38  35    64  36  32    66  38  34    62  31  26    64  31  26    75  40  34    84  47  41    83  46  38    94  57  49    99  58  52   110  69  63   131  88  82   125  84  78   109  68  64   106  69  63    98  61  55    97  64  57    96  63  58    79  48  43    88  53  49   105  70  66   109  71  68   114  74  72   104  59  56   107  59  55   109  62  56   101  58  51   104  64  56   101  64  55    84  51  44    86  57  51    78  50  46    67  42  38    70  42  39    83  53  51    93  60  55    95  56  51   100  57  50   109  64  58   106  65  61   102  62  60   101  61  59   106  68  65   105  68  62    91  56  50    91  57  48   104  71  62    91  58  51    81  51  43    87  58  52    86  57  51    72  42  40    84  54  52    97  69  68    85  55  53    89  56  49    83  49  40    95  58  50    86  52  43    80  46  37    79  45  36    95  60  54    94  59  53
 55  28  21    57  30  21    60  30  22    61  29  18    61  27  17    67  31  19    77  39  26    85  46  31    86  43  27    91  48  32   100  58  44    99  59  47    88  51  42    81  48  39    75  45  37    63  36  27    58  33  26    64  39  32    73  46  37    75  48  37    71  43  31    68  40  26    77  48  34    88  59  45    77  49  37    77  49  38    82  55  44    81  54  43    70  46  34    68  44  32    71  47  35    67  43  31    62  38  26    62  38  26    63  35  24    62  34  23    61  31  21    61  31  21    62  29  20    62  29  20    61  28  23    60  27  22    58  25  20    57  24  19    57  26  21    60  29  24    59  30  26    57  28  24    55  27  24    56  28  25    53  28  24    49  24  20    46  22  18    49  25  21    57  33  31    67  39  36    78  44  42    91  53  50    87  47  45    94  53  51   102  58  55   101  56  51   116  68  64   130  83  77   132  88  79   135  95  83   147 111  97   167 136 118   187 160 139   197 175 152   197 177 152   193 171 148   208 177 159   206 169 153   201 159 145   195 149 134   187 139 125   180 130 119   175 125 116   172 123 118   183 135 131   207 166 162   220 183 177   216 183 176   218 190 179   222 196 183   224 198 181   225 202 186   222 200 187   229 207 196   237 210 199   238 210 199   230 202 190   221 191 180   214 184 174   216 179 171   217 172 167   213 159 157   203 139 140   213 143 145   221 151 151   215 148 142   206 146 136   210 161 147   213 174 159   213 181 166   218 189 173   221 194 177   220 192 178   215 188 171   211 182 164   213 180 161   215 177 158   206 161 142   198 147 130   191 135 122   194 134 124   196 133 126   194 130 128   205 144 141   196 141 134   200 151 137   214 167 151   219 177 153   208 169 138   196 160 124   201 163 124   204 165 124   207 163 124   211 163 127   204 148 121   191 133 113   187 123 111   181 116 110   176 108 107   172 106 107   161  97  97   134  73  70   128  67  62   140  83  72   158 106  93   156 109  93   144  98  83   152 108  97   150 101  96   150  98 100   148  91  98   135  79  88   119  66  74   107  62  67   108  69  74   110  78  79    93  65  61    96  71  64    95  66  58    84  54  43    77  45  32    80  44  30    86  48  35    92  52  42    99  56  49   101  58  52   104  60  57   103  62  58   102  61  55    99  61  52    99  61  52   100  62  53   103  60  53   101  58  51   104  61  54   107  67  59   103  65  56    94  57  48    93  56  47    97  63  53    90  56  46    94  60  50    99  62  53    95  58  49    95  57  48   106  68  59   112  72  64   101  61  53    96  59  53    87  52  46   101  63  60   100  62  59    94  56  55    96  61  59    91  57  56    92  61  59    87  57  55    70  42  39    64  39  34    69  41  37    66  35  30    64  31  26    73  38  32    84  49  43    88  51  43   102  65  57   106  65  59   112  71  65   129  86  80   125  84  78   116  75  71   118  81  75   107  70  64    97  64  57    88  55  50    78  47  42    94  59  55   106  71  67   104  66  63   112  73  68   108  63  58   106  59  53   106  59  53   101  57  48   107  64  57   106  68  59    88  55  48    86  57  51    75  47  43    61  36  32    63  37  36    83  55  52    94  63  60    93  55  52    92  51  45    98  57  51   102  63  58    96  58  55    94  57  51   101  64  58   102  65  59    85  50  44    85  50  44   103  70  63    95  62  55    80  50  42    84  55  49    84  55  49    70  42  39    81  53  50    98  70  69    91  61  59    90  55  49    87  50  42   103  64  57    94  57  49    82  45  37    80  43  35    99  64  58   100  65  59
 54  27  20    55  28  19    58  28  20    60  28  17    62  28  18    68  32  20    76  38  25    83  44  29    84  41  25    93  47  31   105  61  48   106  66  54    95  59  47    86  54  43    80  50  42    71  42  34    66  39  32    67  43  33    72  45  34    74  48  35    73  45  33    73  45  31    80  51  35    86  57  43    75  47  35    76  48  37    80  53  42    78  51  40    66  42  30    66  42  30    69  45  33    64  40  28    61  37  25    61  37  25    62  34  23    61  33  22    61  31  21    60  30  20    61  28  19    61  28  19    62  29  24    61  28  23    59  26  21    54  23  18    56  25  20    59  30  24    59  30  26    56  28  24    54  26  23    53  28  24    52  27  23    48  24  20    46  22  18    51  27  23    61  37  35    73  45  42    77  42  40    96  56  54    94  53  51    99  58  54   106  63  57   101  56  50   113  68  62   129  85  76   130  88  76   138  98  86   155 119 103   176 147 129   197 172 150   206 186 162   203 186 160   201 181 156   212 185 166   210 177 160   206 169 151   203 161 145   194 151 135   182 136 123   171 124 114   164 119 113   185 142 136   208 169 164   215 182 177   213 182 177   219 192 183   223 199 187   222 199 183   226 204 190   222 202 193   227 207 198   235 210 203   236 209 200   230 203 194   222 194 183   215 187 176   215 181 172   214 169 164   218 160 158   197 127 129   203 127 129   198 124 121   195 126 119   201 141 130   214 165 151   214 176 163   213 181 168   218 189 175   223 195 181   221 193 179   215 187 173   213 181 166   215 180 161   216 175 157   205 160 141   198 147 130   190 134 119   186 128 116   192 132 122   192 131 126   188 129 125   195 145 138   209 163 150   217 174 158   218 180 157   210 175 145   203 171 133   207 173 135   207 170 128   208 166 126   209 161 125   201 147 119   192 131 110   186 123 108   183 116 107   177 107 105   170 102 101   154  90  88   139  80  74   147  89  78   162 106  91   174 123 102   170 124 100   156 111  90   160 114  98   152 102  93   151  97  95   149  90  96   139  82  91   124  71  81   115  68  76   115  76  81   118  86  87   119  94  87   120  98  87   112  88  76    98  72  59    92  63  49    88  56  43    86  50  38    87  49  40    91  50  46    92  51  47    97  56  54   100  60  58    99  60  55    94  57  49    94  57  48    97  59  50   103  60  53   103  58  52   104  61  55   104  64  56    99  60  53    93  56  47    94  60  51   101  67  57    97  63  53    97  63  53   102  65  56   100  63  54    99  61  52   107  69  60   112  69  62   100  59  53    91  54  48    88  53  47   109  71  68   103  65  62    93  55  54    95  60  58    89  55  54    90  60  58    91  63  60    75  50  46    70  45  40    71  46  41    68  39  33    62  31  26    71  38  31    85  50  44    91  54  46   101  64  56   105  64  58   109  68  62   124  81  75   123  82  76   116  75  71   115  78  72   113  76  70    97  64  57    85  52  47    82  51  46   103  68  64   107  72  68    99  61  58   110  71  66   112  64  60   105  56  51   105  58  50   101  57  48   106  63  56   106  67  60    91  56  50    85  56  50    70  42  39    56  31  27    62  36  35    88  60  59   101  70  68    91  57  55    86  49  43    91  52  47    99  62  56    96  58  55    92  55  49    96  61  55    99  64  58    83  48  42    79  46  39   100  67  60    93  63  55    80  50  42    83  54  48    86  57  53    76  48  44    86  58  55   102  74  73   103  72  70    94  57  51    89  50  43   104  65  58    97  58  51    83  44  37    80  43  35    99  64  58    97  62  56
 53  26  19    53  26  17    56  26  18    60  28  17    64  30  20    70  34  22    76  38  25    80  41  26    90  44  29    97  51  35   110  66  53   111  71  59    99  61  50    88  54  44    81  51  43    74  45  37    74  47  38    73  46  37    73  46  35    73  47  34    76  48  36    78  50  36    80  51  35    80  51  37    74  46  34    74  46  35    77  50  39    72  45  34    61  37  25    64  40  28    69  45  33    65  41  29    60  36  24    60  36  24    62  34  23    61  33  22    61  31  21    60  30  20    61  28  19    60  27  18    62  29  24    62  29  24    57  26  21    54  23  18    55  24  19    59  30  24    59  30  26    55  27  23    54  26  23    53  28  24    53  28  24    48  24  20    46  22  18    48  27  22    60  39  36    73  48  44    76  41  37   100  61  56   102  61  57   107  66  60   113  70  64   104  61  54   115  72  65   135  92  83   129  89  77   143 105  92   164 131 114   188 160 139   206 181 159   212 192 168   209 192 166   205 188 162   215 190 170   214 183 165   211 178 159   211 174 156   204 162 146   187 143 130   172 128 117   163 120 111   192 153 146   210 175 169   212 181 176   210 183 176   220 195 188   222 200 189   219 197 184   225 203 190   222 202 195   226 205 200   232 207 203   232 207 202   228 203 196   223 196 187   215 188 179   215 182 173   211 166 161   217 159 157   189 117 118   196 118 118   183 108 105   189 120 113   204 148 135   219 173 158   217 181 167   216 184 173   220 190 179   226 196 185   223 193 182   215 186 172   213 180 165   216 179 163   214 173 155   207 160 142   199 148 129   190 137 121   191 135 122   198 140 129   199 140 134   191 136 131   200 153 145   214 174 162   216 179 163   212 177 155   206 175 146   204 176 139   208 178 140   203 170 129   205 166 127   206 160 126   202 149 118   190 132 110   182 119 102   181 115 103   178 109 104   172 104 101   154  93  88   153  96  87   170 114  99   179 127 105   185 136 106   182 137 104   169 125  96   168 124  99   153 104  89   153  98  93   152  91  96   147  87  95   136  80  89   126  76  85   124  83  87   125  94  92   145 123 112   141 122 107   129 108  91   119  96  80   122  95  78   117  85  72   102  66  54    92  54  45    91  50  46    90  49  47    92  50  51    94  54  52    94  55  50    92  55  47    94  57  48   100  62  53   105  62  56   103  58  53   100  56  53    97  56  50    95  56  51    95  58  50    96  61  55    99  66  57    98  65  56    94  61  52    98  64  55   102  65  57   101  62  55   106  67  60   111  68  62   103  62  56    91  54  48    90  55  49   112  74  71   103  65  62    94  56  55   101  66  64    93  59  58    91  61  59    92  64  61    81  56  52    75  50  45    72  47  42    68  41  34    61  32  26    71  38  31    86  51  45    91  54  46   100  63  55   107  66  60   110  69  63   119  76  70   118  77  71   113  72  68   106  69  63   111  74  68    98  65  58    90  57  52    88  57  52   108  73  69   108  73  69    96  58  55   110  71  66   109  61  57   105  56  51   109  62  54   104  60  51   104  61  54   103  64  57    91  56  50    87  56  51    75  47  44    57  31  30    60  36  36    86  60  59   100  70  70    89  58  56    86  51  47    96  59  53    98  63  57    99  64  58    95  60  54   100  65  59   103  68  62    83  50  43    75  42  35    94  61  54    94  63  58    84  53  48    86  57  53    91  62  58    86  57  53    92  63  59   103  75  72   109  78  75   100  63  57    89  48  42   100  59  53    95  56  49    85  46  39    82  45  37    96  61  55    84  49  43
 52  25  18    52  25  16    55  25  17    60  28  17    65  31  21    71  35  23    75  37  24    78  39  24    96  50  35   102  56  40   113  69  56   112  72  60    97  59  48    84  50  40    77  47  39    70  41  33    80  53  44    76  49  40    73  46  37    74  47  36    78  50  38    80  52  38    79  50  34    75  46  32    73  45  33    73  45  34    73  46  35    67  40  29    57  33  21    63  39  27    70  46  34    68  44  32    60  36  24    59  35  23    62  34  23    61  33  22    61  31  21    59  29  19    60  27  18    59  26  17    63  30  25    63  30  25    58  27  22    53  22  17    54  25  19    59  30  24    58  30  26    54  26  22    53  28  24    54  29  25    52  28  24    48  24  20    43  22  17    48  27  22    59  38  35    73  48  44    78  45  40   106  69  61   111  72  65   118  79  72   123  83  75   114  74  66   126  86  76   147 107  97   136  98  85   153 117 103   180 147 130   205 177 156   220 195 173   221 201 177   215 198 172   210 192 168   213 191 170   212 185 166   215 184 166   216 183 164   210 173 155   192 153 136   174 134 122   164 126 115   200 166 157   212 182 174   211 184 177   209 184 177   221 198 190   221 198 190   215 193 182   219 199 188   223 202 197   225 204 201   229 205 203   230 205 201   228 203 198   221 198 190   214 190 180   213 183 173   209 166 159   212 154 150   178 107 105   187 112 109   180 106 103   195 131 122   211 162 147   220 181 164   218 184 172   217 187 177   222 192 182   227 199 188   224 194 184   215 185 174   212 178 166   215 179 163   215 174 156   210 165 146   198 149 132   192 141 124   196 144 130   201 149 136   200 150 139   198 149 142   201 161 153   219 183 171   214 181 164   203 172 151   197 170 141   200 174 141   205 177 140   196 164 125   204 166 129   205 161 126   201 150 121   190 132 110   179 116  99   178 112 100   179 110 103   173 108 102   161 102  94   165 112  98   185 133 112   187 138 108   186 140 104   188 144 105   178 136  98   178 133 102   161 113  93   161 107  97   162 102 102   161 100 107   153  98 104   143  94 100   139  99 100   139 108 103   162 140 126   154 136 116   139 118  99   135 113  92   148 121 102   143 111  96   115  81  69    96  59  50    94  55  50    90  49  47    87  47  47    90  50  48    90  53  47    88  54  45    94  60  50   103  66  57   107  63  60   102  57  54    94  50  49    90  49  45    91  53  50    95  60  54    97  64  57    97  64  57    97  64  57    90  57  48    93  59  50    98  64  55   102  63  56   106  67  60   111  70  64   108  67  61    97  60  54    93  58  52   111  73  70   101  63  60    99  61  60   112  77  75   101  67  66    92  62  60    91  63  60    82  58  54    76  53  47    72  49  43    65  40  33    60  33  26    69  39  31    86  53  46    93  59  50   105  68  60   117  76  70   119  78  72   121  78  72   118  77  71   114  73  69   106  69  63   106  69  63   100  67  60    95  62  57    92  61  56   109  74  70   108  73  69    97  59  56   111  72  67   104  59  54   104  57  51   113  66  58   107  63  54   101  58  51   100  59  53    90  55  49    89  58  55    84  56  53    61  35  34    58  34  34    80  54  55    93  65  64    86  56  54    90  56  54   105  70  66   100  65  59   105  70  64   102  67  61   105  70  64   106  73  66    86  53  46    74  41  34    89  56  49    97  66  61    90  59  54    92  61  58    96  67  63    93  64  60    94  65  61   102  72  70   108  77  74   107  68  63    87  46  40    95  54  48    93  52  46    85  46  39    84  47  39    94  57  51    72  39  32
 56  29  22    57  30  21    60  30  22    62  30  19    64  30  20    69  33  21    75  37  24    80  41  26    94  51  35   105  59  43   106  62  49   103  63  51    98  62  50    81  49  38    63  33  25    59  30  22    71  44  37    67  43  33    65  41  31    70  43  32    82  54  42    89  61  47    82  53  37    69  40  26    78  50  38    75  47  36    69  42  31    66  39  28    68  44  32    72  48  36    70  46  34    65  41  29    61  37  25    52  28  16    59  31  20    65  37  26    60  30  20    58  28  18    64  31  22    64  31  22    60  29  24    58  27  22    55  24  19    53  22  17    51  22  16    53  24  18    55  27  23    57  29  25    53  28  24    51  26  22    53  29  25    49  25  21    38  17  12    46  25  20    60  41  37    67  43  39    74  45  37   101  68  59   111  77  68   105  71  61   112  75  66   127  89  80   139 101  90   146 108  97   143 107  93   168 135 120   196 165 147   210 181 163   218 193 171   223 201 178   221 201 177   214 194 170   213 192 173   220 194 177   222 193 175   214 183 165   214 179 160   197 160 142   169 133 119   172 138 126   211 179 168   208 179 171   210 185 178   215 192 186   217 194 186   213 193 184   215 195 184   220 200 191   220 199 196   222 201 198   228 204 202   232 207 203   230 206 202   221 201 194   213 190 182   210 182 171   214 174 166   215 162 156   166  98  95   160  89  85   162  95  89   194 137 128   214 172 156   218 185 170   214 184 174   223 194 186   231 202 194   229 202 193   225 196 188   219 191 180   214 184 173   213 180 165   210 173 155   201 160 142   188 145 126   181 138 119   183 140 123   190 148 132   198 159 144   201 163 152   203 169 159   212 180 169   217 188 172   213 186 165   208 182 157   204 179 148   202 173 139   200 168 130   199 161 125   200 155 122   192 141 114   181 124 104   177 115 100   174 110  98   173 109 100   179 116 107   170 116 104   182 133 116   198 151 125   205 159 125   199 156 114   191 150 106   188 146 104   190 148 110   176 129 103   162 109  93   149  90  86   154  94  96   161 106 109   154 105 108   149 111 110   158 128 120   172 151 134   169 151 127   158 138 114   156 131 109   151 124 103   143 112  92   134 101  86   118  82  70   109  70  63    93  54  49    88  48  46    93  53  51    92  55  49    88  54  45    92  58  48    96  62  53    97  56  54    95  54  52    93  51  52    94  54  52    95  57  56    92  57  53    88  55  50    85  52  45    86  53  46    80  47  40    86  51  45    92  57  51    96  57  50   101  62  55   104  63  57    97  56  50   101  64  58    99  62  56   105  67  64   103  65  62   105  67  66   105  70  68    94  60  59    92  62  60    88  63  59    81  57  53    68  45  39    62  39  33    67  42  35    67  40  33    69  40  32    79  49  41    97  63  54   109  72  64   120  79  73   122  81  75   122  79  73   118  77  71   112  71  67   103  66  60   101  64  58    98  65  58    95  62  57    91  60  55   109  74  70   109  74  70    95  57  54   106  67  62   101  58  52   102  57  51   111  66  60   101  56  50   109  66  59    98  59  52    83  48  42    79  48  45    74  46  45    64  38  39    70  45  48    66  40  41    84  56  55    88  58  56    93  59  57   102  69  64    92  57  51    98  64  55    97  62  56   104  69  63    96  63  58    78  45  40    81  48  43    86  53  48    97  63  61    88  57  54    85  54  51    89  58  55    92  61  58    92  61  58    92  61  58    97  64  59    95  56  51    92  49  43    96  55  49   101  60  54    80  41  34    77  40  32    94  57  51    77  44  37
 53  26  19    55  28  19    58  28  20    61  29  18    64  30  20    71  35  23    78  40  27    83  44  29    97  54  38   105  62  46   108  66  52   103  63  51    94  57  48    79  46  37    67  38  30    64  37  30    65  40  33    66  41  34    68  43  36    72  48  38    81  54  43    84  56  44    79  51  37    71  43  29    78  50  38    78  50  39    72  45  34    67  40  29    67  43  31    72  48  36    71  47  35    65  41  29    59  35  23    54  30  18    60  32  21    62  34  23    58  28  18    57  27  17    64  31  22    62  29  20    60  29  24    58  27  22    55  24  19    52  23  17    51  22  16    51  24  17    54  26  22    53  28  23    51  26  22    48  24  20    51  27  23    46  25  20    38  17  12    46  25  20    62  43  39    72  51  46    77  50  41    96  68  57   104  74  63   107  77  66   125  93  82   140 106  96   138 104  92   131  97  85   146 113  98   173 140 125   199 170 154   213 186 167   220 195 175   225 200 178   220 198 177   212 191 170   214 193 176   218 195 179   221 194 177   214 185 167   212 179 162   193 160 143   170 137 122   177 145 132   210 182 170   209 182 173   211 186 179   216 193 187   215 195 186   214 194 185   216 196 185   221 201 192   220 199 194   222 198 196   223 199 197   225 201 197   224 203 198   222 202 195   215 195 186   215 188 177   219 181 172   208 159 152   141  80  75   128  63  57   141  82  74   188 140 130   208 175 160   210 184 169   220 193 184   229 204 199   236 211 206   230 205 200   221 196 191   213 188 181   208 181 170   203 174 160   212 179 162   204 169 150   191 154 135   180 145 125   182 149 130   194 163 145   200 171 155   201 173 159   205 177 166   211 183 172   213 187 172   208 183 163   203 179 155   202 177 147   202 173 141   201 168 135   204 165 132   198 153 124   187 135 111   178 123 103   172 114 100   174 114 103   176 116 106   171 114 103   184 137 121   194 149 128   207 163 134   212 169 134   205 167 122   197 159 112   193 156 111   194 155 116   184 139 110   170 119 100   159 100  92   162 104 102   169 115 113   162 117 114   161 124 118   170 142 131   185 163 142   183 163 138   170 148 124   167 143 119   163 137 114   155 124 103   146 113  96   130  94  80   111  72  65   100  61  56    98  60  57    99  61  58    90  55  51    85  52  45    88  55  46    91  58  51    90  52  51    91  53  52    93  54  55    95  60  58    97  62  60    95  61  59    91  57  55    88  55  50    86  53  48    83  50  43    89  54  48    92  57  51    91  54  46    95  56  49    99  60  53    97  58  51    95  58  52    92  55  49    97  59  56    95  57  54    97  59  58    96  61  59    87  53  52    85  55  53    87  62  58    79  55  51    63  43  36    58  38  31    64  41  33    63  38  31    64  37  28    73  43  35   102  68  59   112  75  67   120  79  73   120  79  73   121  78  72   118  77  71   115  74  70   108  71  65   102  65  59    94  61  54    91  58  53    91  60  55   109  74  70   106  71  67    89  51  48    97  58  53   104  61  55   101  58  51   110  65  59   102  59  52   111  71  63   101  62  55    86  51  47    83  52  49    71  43  42    69  43  44    79  53  56    70  44  45    82  53  55    85  55  53    91  60  57   106  73  68    84  49  43    95  61  52   101  66  60   109  74  68    97  64  59    80  47  42    88  55  50    98  65  60   103  69  67    96  62  60    91  57  55    92  61  58    97  63  61    93  62  59    94  60  58    94  59  55    96  57  52    89  48  42    94  53  47   100  61  54    83  44  37    80  43  35    93  58  52    79  46  39
 51  24  17    53  26  17    56  26  18    60  28  17    64  30  20    72  36  24    80  42  29    86  46  34    94  52  38   105  61  48   112  72  60   107  69  58    88  54  44    74  44  34    70  43  36    67  42  37    62  37  32    63  40  32    68  45  37    76  52  42    79  55  43    78  52  39    75  49  36    75  47  35    77  49  38    82  54  43    78  51  40    69  42  31    66  42  30    72  48  36    73  49  37    66  42  30    57  33  21    57  33  21    62  34  23    60  32  21    55  25  15    57  27  17    64  31  22    62  29  20    60  29  24    57  28  22    54  25  19    52  23  17    51  22  16    50  23  16    52  24  20    51  26  21    49  24  20    46  22  18    49  25  21    46  25  20    39  18  13    43  24  18    65  46  42    83  62  57    93  71  60    99  75  63   102  76  63   113  87  74   144 116 104   160 130 119   146 117 103   129  97  84   154 122 109   178 149 133   206 177 161   218 191 174   221 195 178   222 197 177   218 195 177   212 191 172   216 194 180   218 196 182   220 194 179   215 188 171   212 181 163   191 160 142   174 142 127   186 157 143   208 180 168   206 182 172   209 186 178   211 191 182   212 192 183   212 192 183   216 194 183   220 197 189   226 202 198   224 200 196   223 199 195   224 200 196   224 203 198   221 201 194   216 193 185   213 186 175   222 185 176   204 157 149   116  61  54    95  38  31   124  74  65   191 148 139   211 183 171   209 190 176   216 198 188   229 210 204   235 216 210   226 207 201   216 197 191   213 193 186   209 187 176   202 179 165   204 177 160   197 168 150   186 157 139   174 147 128   181 155 138   194 171 155   195 176 161   196 177 163   215 193 182   215 191 181   211 188 174   203 180 162   199 174 152   198 172 147   199 169 141   200 165 137   204 163 135   199 153 129   188 137 116   176 123 105   168 112  99   171 114 103   180 126 116   175 125 114   198 157 139   203 165 142   211 174 145   213 177 141   209 174 132   202 168 123   197 163 118   198 160 121   190 146 117   177 129 107   166 110  97   166 111 104   174 123 119   171 128 122   172 138 129   185 157 143   196 174 153   194 174 149   181 159 135   179 155 129   176 150 125   169 139 115   160 127 108   141 108  91   112  75  66   105  68  60   108  73  69   104  70  68    89  58  55    85  56  50    87  58  52    88  59  53    81  50  48    83  52  50    87  55  56    92  61  59    98  67  65   102  68  66    99  65  63    93  60  55    89  56  51    89  56  51    94  59  53    93  58  52    89  52  44    90  53  45    97  60  52    99  62  54    98  61  55    93  56  50    97  59  56    97  59  56    97  59  58    96  61  59    88  57  55    86  58  55    84  59  55    74  50  46    59  39  32    56  36  29    63  40  32    60  35  28    59  32  23    67  38  30   102  68  59   111  74  66   117  76  70   116  75  69   117  74  68   116  75  69   114  73  69   109  72  66   103  66  60    90  57  50    89  56  51    92  61  56   107  72  68    99  64  60    81  43  40    90  50  48   105  64  60    98  57  51   107  64  58   102  61  55   115  74  68   103  66  58    88  53  49    87  56  54    80  50  50    77  51  52    84  58  61    73  47  48    86  57  59    86  56  54    87  56  53   100  67  62    86  51  45    98  64  55   105  71  62   110  75  69    93  58  54    78  43  39    95  60  58   110  75  73   111  75  75   103  67  67    96  61  59    99  65  63   104  69  67    99  65  63    97  62  58    93  58  54    96  57  52    87  46  40    91  50  44   102  63  56    90  51  44    83  46  38    93  58  52    80  47  40
 52  25  18    53  26  17    56  26  18    60  28  17    64  30  20    72  36  24    80  42  29    87  47  35    90  48  34   102  60  48   115  77  66   109  72  63    83  50  41    71  41  33    70  42  38    66  43  37    63  40  34    59  39  32    66  43  37    74  51  43    76  54  43    73  49  37    73  46  35    76  50  37    76  48  37    84  56  45    81  54  43    70  43  32    65  41  29    71  47  35    73  49  37    67  43  31    58  34  22    62  38  26    65  37  26    58  30  19    54  24  14    59  29  19    64  31  22    60  30  20    60  29  24    58  29  23    55  26  20    52  23  17    50  23  16    50  23  16    49  24  19    50  25  20    48  24  20    46  22  18    46  25  20    46  25  20    38  19  13    41  22  16    66  47  43    94  75  69   120 100  89   116  94  81   108  86  72   123 100  86   158 135 121   177 151 138   162 134 122   142 114 100   163 135 121   185 157 143   208 180 166   217 191 174   219 193 178   217 194 176   216 193 177   213 192 175   215 196 182   220 198 185   218 195 181   216 190 175   212 183 167   189 160 142   178 149 133   195 167 153   204 178 165   204 180 168   206 184 173   206 186 177   207 187 178   208 188 179   213 191 180   216 193 185   219 196 190   217 194 188   216 193 187   221 198 192   223 203 196   222 199 191   213 191 180   208 180 169   221 184 175   193 149 140    96  46  37    70  20  13   116  71  65   196 159 151   215 191 181   212 195 185   215 200 193   227 214 206   230 217 211   219 204 199   211 196 191   213 196 189   212 192 183   207 185 174   205 179 166   197 171 154   187 161 144   176 153 135   186 165 148   198 181 165   197 181 166   203 187 174   225 205 196   221 199 188   212 190 177   203 180 164   199 174 154   198 170 148   197 165 140   197 160 134   198 156 132   200 154 131   183 132 113   166 115  98   156 104  91   161 111 100   184 136 126   193 149 138   203 168 149   204 172 147   208 177 148   211 178 145   207 175 136   202 170 129   197 165 124   196 162 125   190 149 119   178 132 109   165 114  97   165 113 102   173 124 117   173 133 125   178 146 135   192 166 151   197 176 155   197 177 152   185 163 139   185 161 135   183 157 132   175 147 123   169 138 117   152 119 102   112  78  66   100  67  58   108  75  70   104  75  71    93  65  62    95  70  66    96  71  66    95  70  66    86  60  59    82  56  55    81  53  52    84  56  55    96  66  66   105  74  72   104  70  69    96  62  60    95  61  59    95  60  56    94  59  53    92  57  51    89  55  46    91  57  48    97  63  54   100  66  57   103  66  60    96  59  53    98  60  57   101  63  60    99  61  60    97  62  60    93  62  60    90  62  59    81  56  52    69  48  43    56  37  30    55  36  29    62  42  33    60  37  29    58  34  24    68  39  31    97  63  54   106  69  61   112  71  65   111  70  64   112  69  63   111  70  64   110  69  65   105  68  62   102  65  59    89  56  49    91  58  53    93  62  57   101  66  62    89  54  50    78  40  37    93  55  52   104  64  62    94  55  50   101  62  57    99  60  53   114  75  70   103  66  60    89  54  52    89  58  56    87  57  57    76  47  49    75  49  52    74  48  49   101  71  71    98  67  65    90  56  54    96  63  56   101  67  58   104  70  61   105  71  62   105  71  62    86  51  47    73  38  34    93  58  56   108  73  71   111  72  73   103  67  67    97  59  58   103  68  66   111  73  72   104  69  67   103  65  62    96  59  53    92  53  48    84  45  38    88  49  42   103  66  58    95  58  50    86  52  43    91  58  51    77  47  39
 54  27  20    55  28  19    57  27  19    60  28  17    63  29  19    70  34  22    79  41  28    84  46  33    89  49  37   101  61  49   113  75  64   100  66  56    72  42  34    64  35  29    68  43  38    68  44  40    67  46  41    59  40  34    60  39  34    67  47  40    73  50  42    71  49  38    71  47  35    75  48  37    76  48  37    83  55  44    81  54  43    71  44  33    64  40  28    69  45  33    72  48  36    68  44  32    62  38  26    66  42  30    66  38  27    57  29  18    56  26  16    60  30  20    64  31  22    62  32  22    60  29  24    58  29  23    55  26  20    53  24  18    51  24  17    51  24  17    49  24  19    49  24  19    50  26  22    47  23  19    46  25  20    47  26  21    38  19  13    37  18  12    67  48  44   107  88  82   137 119 107   129 110  96   121 102  88   136 114 101   169 147 134   183 160 146   168 145 131   154 128 115   173 147 134   187 164 150   205 182 168   211 190 173   212 190 176   211 192 175   213 194 179   214 195 180   215 195 184   223 200 192   219 195 183   216 190 177   212 183 167   191 162 146   185 156 140   201 173 159   204 178 165   205 181 169   207 185 174   206 186 175   206 186 177   209 189 180   214 192 181   216 194 183   221 196 189   216 191 184   212 189 181   215 192 184   220 197 189   218 195 187   211 184 175   203 173 163   223 186 177   181 138 129    77  30  22    57  10   4   113  72  66   200 167 162   217 192 187   213 196 189   222 209 203   227 216 210   224 213 209   213 199 196   206 191 188   209 191 187   210 190 183   206 183 175   199 172 161   194 166 154   190 162 150   182 156 143   192 170 157   201 183 171   195 178 168   204 187 177   227 208 201   219 199 190   210 188 177   205 182 168   205 178 161   203 172 152   200 165 143   199 158 136   198 153 132   198 149 132   167 118 103   158 109  95   166 119 109   172 128 119   187 147 139   200 164 152   200 171 153   201 175 152   205 178 151   205 178 149   202 176 143   198 172 137   196 167 133   195 165 131   188 151 124   179 134 111   163 114  97   161 113  99   171 127 116   175 139 127   181 153 141   194 173 156   196 175 156   198 177 156   189 167 143   190 166 140   188 162 137   182 154 130   176 148 126   160 132 111   114  85  71    91  63  52    99  70  66   101  76  72   100  76  74   111  90  89   112  92  91   108  88  87   105  85  84    94  74  73    79  58  57    76  52  50    88  60  59   100  70  68    99  68  66    91  57  55    97  62  60    96  58  55    90  53  47    86  51  45    89  55  46    92  59  50    94  61  52    96  63  54    97  62  56    90  53  47    93  53  51   100  60  58    95  57  56    90  55  53    90  59  57    84  56  53    78  54  50    67  46  41    55  36  29    58  39  32    65  45  36    63  40  32    62  38  28    76  47  39    94  60  51   104  67  59   112  71  65   113  72  66   114  71  65   112  71  65   109  68  64   103  66  60   101  64  58    92  59  52    97  64  59    95  64  59    91  56  52    80  45  41    80  42  39   103  65  62   100  62  59    91  53  50    96  58  55    92  55  49   107  69  66   101  63  60    89  54  52    89  58  56    85  55  55    68  39  41    65  39  40    75  49  50   113  83  83   108  77  74    94  61  56   102  67  61   112  75  67   106  69  60   102  65  57   104  67  59    87  49  46    76  38  35    92  54  53    97  58  59   100  60  61    96  57  58    89  49  50   100  61  62   109  69  69   103  65  64   103  63  61    95  56  51    86  47  42    82  43  36    88  49  42   103  66  58    99  62  54    89  55  46    89  56  49    73  43  35
 57  30  23    56  29  20    58  28  20    59  27  16    62  28  18    69  33  21    77  39  26    83  45  32    95  55  43   105  67  56   107  70  61    88  54  45    64  33  28    59  31  27    67  42  38    70  49  44    67  48  44    62  43  39    60  41  37    62  43  37    67  47  40    70  47  39    71  47  37    71  47  35    75  48  37    79  51  40    77  50  39    71  44  33    65  41  29    67  43  31    69  45  33    69  45  33    66  42  30    67  43  31    63  35  24    56  28  17    58  28  18    60  30  20    62  29  20    62  32  22    60  29  24    58  29  23    56  27  21    55  26  20    52  25  18    52  25  18    50  25  20    51  26  21    51  27  23    48  24  20    47  26  21    49  28  23    40  21  15    36  17  11    70  51  47   120 101  95   141 123 111   136 118 104   133 114 100   148 129 115   175 153 140   180 158 145   165 143 129   154 132 118   177 154 140   187 165 151   199 177 163   204 185 170   206 187 172   208 191 175   212 195 179   214 196 182   214 194 185   225 205 196   220 196 186   216 190 177   211 183 169   195 166 150   190 163 146   201 175 158   207 181 168   208 186 172   210 188 177   207 187 176   208 188 179   211 191 180   217 195 184   218 196 185   226 202 190   219 195 185   212 190 179   216 193 185   223 200 192   226 201 194   221 192 184   215 182 173   224 186 177   168 125 116    67  23  14    59  16   9   121  82  77   206 172 170   220 194 193   218 200 198   219 206 200   217 206 200   213 202 198   208 194 191   205 190 187   209 190 186   212 188 184   213 186 179   192 162 154   196 166 156   202 169 160   192 162 152   203 176 167   212 189 181   195 176 169   202 183 177   222 203 196   211 193 183   203 183 172   205 182 168   209 182 165   209 176 159   204 167 148   202 159 140   200 153 137   194 145 130   163 114 100   177 129 117   210 167 158   206 168 159   197 163 154   191 161 150   201 175 158   201 179 156   205 180 158   205 181 157   202 178 150   200 175 145   197 172 142   199 169 141   192 156 130   180 139 117   164 117 101   162 116 101   174 132 120   181 147 135   187 161 148   196 177 162   195 176 159   201 183 163   196 175 154   195 173 149   193 169 145   186 160 135   183 157 134   171 144 123   120  92  78    85  58  49    91  66  61   100  79  76   107  87  88   122 106 107   124 108 109   120 106 106   125 111 111   111  97  96    92  74  74    77  57  56    79  55  55    90  62  61    90  58  59    84  48  48    96  58  57    93  55  54    84  46  43    79  44  38    86  51  45    89  56  47    86  56  46    91  58  49    96  61  55    87  50  44    90  50  48   101  61  59    94  56  55    87  52  50    90  59  57    81  53  50    78  54  50    66  47  41    58  39  32    60  43  35    66  48  38    62  42  33    65  43  32    83  56  47    94  61  52   106  69  61   116  75  69   118  77  71   119  76  70   117  76  70   113  72  68   106  69  63   101  64  58    96  63  56   104  71  66    95  64  59    83  48  44    74  39  35    82  44  41   109  71  68    95  60  58    89  54  52    95  57  56    85  47  44    99  61  58    96  61  59    89  53  53    88  57  55    85  55  57    73  44  46    71  45  46    78  50  49   111  81  79   103  72  69    89  56  51   101  67  58   109  72  63    98  61  52    95  58  50   103  66  58    92  54  51    82  44  41    93  53  54    89  49  50    88  48  49    89  49  50    82  42  43    97  57  58   104  64  64    97  57  55   100  59  57    89  50  45    81  42  35    82  45  37    87  50  42    96  62  53    94  60  51    87  54  45    86  56  48    71  41  33
 56  29  22    56  29  20    58  28  20    59  27  16    62  28  18    69  33  21    78  40  27    84  46  33    95  57  46   108  70  59   106  69  60    83  50  41    64  35  29    59  34  29    63  39  35    68  47  44    63  43  42    65  47  43    65  47  43    63  44  38    63  43  36    65  45  36    68  46  35    69  45  35    75  48  37    74  46  35    71  44  33    70  43  32    66  42  30    64  40  28    66  42  30    69  45  33    69  45  33    65  41  29    57  29  18    53  25  14    59  29  19    58  28  18    57  24  15    61  31  21    60  29  24    58  29  23    56  29  22    55  28  21    54  27  20    54  27  20    52  27  22    53  28  23    51  27  23    48  24  20    46  25  20    50  29  24    42  23  17    36  17  11    73  55  51   133 114 108   147 129 119   144 124 113   141 121 110   155 135 124   175 156 142   174 155 141   160 141 127   154 135 121   176 154 141   182 163 149   192 173 159   199 181 167   204 188 173   207 191 176   210 194 179   212 196 183   211 192 185   228 208 201   221 196 189   214 187 176   211 183 171   197 169 155   195 168 151   199 173 156   206 180 167   207 185 171   209 187 176   204 184 173   207 185 174   212 190 179   216 192 182   216 192 180   218 195 181   212 189 175   209 187 174   216 194 183   227 202 195   229 202 195   219 189 181   211 174 166   191 151 143   139  95  86    63  18  12    73  30  24   128  88  86   201 167 166   217 188 190   225 203 205   215 200 197   208 194 191   204 190 189   205 189 189   210 190 191   210 189 188   213 185 184   214 183 180   202 167 163   212 175 169   209 170 165   182 145 139   192 159 154   216 187 183   209 183 182   219 195 193   221 202 196   207 189 179   198 178 167   202 178 166   209 180 166   208 175 158   202 163 146   201 155 139   197 148 134   187 138 124   163 113 102   192 145 135   227 187 179   215 181 172   200 170 162   190 163 152   198 177 160   199 181 161   204 183 164   205 183 162   201 179 158   199 174 152   197 173 149   198 170 146   195 160 138   180 142 123   164 118 102   161 118 102   176 136 124   185 153 140   189 166 152   196 178 164   197 180 164   206 187 170   201 183 163   200 179 158   193 171 147   186 162 138   185 160 138   173 151 130   124 101  87    82  60  49    91  70  65   106  88  86   111  95  96   125 113 117   126 114 118   126 115 119   128 119 120   124 114 112   109  95  94    87  69  67    76  55  54    82  54  53    85  53  54    85  49  49    96  58  57    97  57  57    88  50  47    81  46  40    85  50  44    85  52  45    82  52  42    88  58  48    98  63  57    89  52  46    93  53  51   107  67  65    98  60  59    89  54  52    93  62  60    83  55  52    80  56  52    69  50  44    60  41  34    62  45  37    66  48  38    60  40  31    66  44  33    87  60  51    96  63  54   108  71  63   117  76  70   119  78  72   121  78  72   118  77  71   115  74  70   108  71  65   104  67  61   100  67  60   106  73  68    93  62  57    78  43  39    73  38  34    82  44  41   104  66  63    93  58  56    91  57  55    94  59  57    77  42  40    92  54  53    94  59  57    91  55  55    88  57  55    84  54  56    83  54  56    81  52  54    73  45  44   100  70  68    97  66  61    88  55  48   101  67  58   108  71  62    95  57  48    90  51  44   100  61  54    91  51  49    86  46  44    98  56  58    92  50  52    90  48  50    94  52  54    86  44  46   102  60  62   106  64  65    95  54  52   101  57  56    88  47  43    79  40  33    85  48  40    86  49  41    89  55  46    86  52  43    85  52  43    86  56  48    70  40  32
 53  28  21    55  28  21    55  28  19    56  28  17    61  29  18    70  34  22    79  41  30    86  46  34    92  54  43   109  71  60   108  71  62    87  54  45    72  43  37    63  38  33    58  37  32    61  42  38    57  39  37    67  49  47    71  53  49    66  47  41    60  40  33    63  40  32    68  44  34    68  44  34    76  48  37    70  42  31    67  40  29    70  43  32    67  43  31    63  39  27    64  40  28    70  46  34    70  46  34    63  39  27    51  24  13    51  23  12    58  30  19    55  25  15    52  22  12    59  29  19    58  29  21    58  29  21    56  29  22    56  29  22    55  28  21    53  28  21    54  29  24    53  30  24    49  25  21    46  22  18    45  24  19    50  29  24    44  23  18    37  18  12    77  58  54   141 122 116   158 135 127   152 130 119   145 125 114   157 137 126   174 154 143   173 153 142   162 142 131   158 139 125   175 153 140   181 159 146   191 169 155   199 180 165   205 187 173   209 191 177   209 193 178   210 194 181   210 192 182   230 210 201   222 198 188   213 186 175   211 183 171   201 172 158   200 168 155   198 169 155   203 173 162   207 179 167   207 180 169   204 177 166   205 177 166   211 183 172   215 185 175   215 185 174   222 192 182   216 188 177   213 184 176   217 188 180   220 189 184   209 176 171   185 150 144   166 127 120   142  99  93   104  59  53    55  12   6    79  38  34   123  85  84   184 150 149   204 174 176   224 200 200   221 201 200   210 192 190   205 185 184   209 189 188   214 190 190   210 182 181   206 175 173   208 173 171   209 169 167   211 170 166   185 144 140   133  92  90   143 105 102   192 157 155   211 177 176   228 200 199   224 203 198   207 188 181   198 175 167   199 175 163   206 177 163   203 170 153   197 158 141   192 149 132   190 142 128   176 128 114   152 105  95   178 135 126   201 164 156   188 158 150   194 167 160   196 173 165   195 175 164   199 180 166   202 182 171   203 181 168   198 176 163   193 171 157   192 169 151   195 168 149   193 160 141   179 142 123   160 118 102   157 118 103   174 138 124   184 156 144   186 167 153   193 177 164   196 180 167   206 190 175   202 186 170   198 181 161   189 171 149   181 161 137   181 161 137   172 151 130   127 108  91    82  64  52    95  78  71   110  96  93   112 100 102   122 113 116   121 114 121   125 120 124   123 117 117   127 122 118   119 109 107    95  81  78    78  58  57    77  53  51    85  55  55    88  56  57    97  61  61   101  66  64    95  60  58    87  52  48    87  54  47    82  52  44    82  54  43    92  62  52    97  63  54    88  51  45    91  53  50   107  69  66    97  62  60    87  53  51    92  62  60    79  54  50    82  58  54    72  51  46    62  43  36    64  45  38    66  46  37    60  37  29    66  42  32    90  61  53    94  61  52   106  69  61   114  75  68   116  75  69   116  75  69   116  75  71   112  73  68   108  69  64   107  70  64   103  68  62   107  74  67    93  60  53    76  43  36    74  39  35    79  44  40    95  60  58    92  58  57    93  59  58    95  61  60    74  40  38    86  50  50    93  57  57    91  57  56    89  58  56    75  45  45    82  54  53    79  51  50    65  35  33    95  64  61   104  71  66    99  64  58   109  75  66   113  76  68    95  58  50    87  50  44    94  57  51    84  46  43    82  44  43   101  61  61    99  59  60    97  57  58   102  62  62    94  54  55   109  69  69   112  71  69    98  57  55   101  60  56    89  50  45    78  41  33    85  51  42    84  50  41    82  49  40    79  46  37    83  50  41    87  57  49    71  41  33
 52  29  21    52  29  21    53  31  20    55  31  19    61  33  21    70  36  24    80  40  30    87  44  35    89  49  37   103  65  54   118  81  72    93  60  51    84  57  50    73  50  44    62  43  37    59  41  37    60  42  40    62  44  42    68  50  46    66  47  41    59  36  30    61  36  29    72  45  36    76  48  37    71  42  34    69  40  32    67  40  31    67  40  31    65  41  31    64  40  30    60  38  27    57  35  24    58  36  25    53  29  19    49  25  15    53  26  17    55  28  19    55  26  18    55  26  18    58  30  19    55  27  16    56  28  17    57  30  21    56  29  20    53  28  21    52  27  20    52  29  23    51  30  25    54  33  30    42  21  18    45  24  21    52  31  28    41  20  15    47  23  19    98  74  70   155 132 126   173 146 137   148 124 114   153 130 122   166 146 139   175 155 148   175 155 148   164 144 135   165 143 132   181 157 145   190 164 151   200 172 158   205 177 163   205 179 166   205 181 169   209 187 174   211 191 180   206 188 176   220 200 189   217 193 181   215 187 176   217 185 174   197 160 151   190 152 143   218 180 171   216 178 169   223 185 176   225 187 178   219 181 172   216 176 168   218 178 170   223 180 173   223 180 173   228 187 185   217 177 177   210 170 170   195 155 155   165 123 124   140  98  99   124  80  81   107  63  62    90  46  45    77  33  32    75  34  30    83  45  42   104  69  65   127  93  91   154 125 121   196 168 165   200 175 171   210 186 184   216 190 189   214 186 185   211 181 179   214 183 181   212 177 175   206 168 167   223 182 180   221 180 178   160 116 115    82  41  39    82  41  39   141 101  99   199 159 157   227 193 191   213 189 187   203 184 180   202 179 171   199 172 161   205 176 160   206 173 154   194 158 136   196 158 137   180 139 121   161 119 103   162 124 111   183 146 137   188 158 150   192 164 160   201 176 172   207 183 181   202 178 176   211 187 185   205 184 183   195 176 172   197 178 172   198 179 172   192 172 161   190 167 151   191 162 144   185 152 133   155 120 100   153 120 101   177 150 133   189 167 153   190 174 161   186 174 162   197 187 177   201 191 179   204 192 178   199 186 169   191 176 157   182 165 145   175 159 136   171 155 132   128 113  94    94  81  65    92  80  68   107  98  91   119 114 111   122 118 119   115 114 119   126 126 128   118 117 115   119 116 111   123 118 114   114 105 100    88  73  68    73  54  50    78  54  52    84  56  55    87  57  57    87  55  56    89  57  58    91  60  57    88  57  52    81  53  42    80  52  40    85  57  45    87  54  45    90  56  47    89  56  49    96  63  56    89  58  53    84  55  49    87  62  57    77  54  48    76  52  48    70  46  42    70  47  41    75  52  46    75  50  43    70  43  36    72  43  35    81  51  41    91  57  47   103  66  57   103  66  58   104  65  58   115  76  71   120  81  76   117  78  73   119  80  75   114  77  69   104  70  60   100  68  57    90  58  47    83  50  41    73  43  35    70  39  34    91  60  57    89  57  58    91  59  60   100  68  69    79  48  46    76  44  45    94  63  61    89  59  57    94  64  62    79  49  47    89  59  57    90  61  57    74  43  40   103  70  65   116  81  75   110  75  69   110  75  69   103  70  65    85  54  51    76  42  40    94  60  58    83  49  47    86  52  50    99  64  62   101  66  64    90  55  53    96  61  57    97  59  58   111  73  70   118  80  77   103  66  60    94  57  51    86  51  45    77  44  35    87  54  45    79  46  37    78  48  38    82  52  42    77  47  37    79  49  39    76  46  36
 51  28  20    50  30  21    50  32  20    52  33  19    59  32  21    68  36  25    80  40  30    87  44  35    92  50  38    99  61  50   117  80  71   105  72  63    99  72  65    79  56  50    58  39  35    55  37  33    54  39  36    54  39  36    62  43  39    64  43  38    59  36  30    64  37  30    71  42  34    73  43  33    72  43  35    71  42  34    69  42  33    68  41  32    65  41  31    62  38  28    58  36  25    55  33  22    56  34  23    50  28  17    48  24  14    51  27  17    54  27  18    52  25  16    53  24  16    55  26  18    53  25  14    54  26  15    54  27  18    54  27  18    50  25  18    49  26  20    50  26  22    49  28  23    53  32  29    45  24  21    44  23  20    49  28  23    42  18  14    51  27  23   109  84  80   160 135 130   164 137 128   147 120 111   155 132 124   170 150 143   174 155 149   171 152 146   163 140 134   163 138 131   189 162 151   194 165 151   200 168 155   203 171 156   204 175 161   206 178 166   207 183 171   209 187 176   215 193 180   224 202 189   215 188 177   212 182 172   214 177 168   179 139 131   164 121 114   197 154 147   201 158 151   207 164 157   211 168 161   210 167 160   207 162 156   205 158 152   202 153 148   196 148 144   190 144 146   176 131 134   162 116 119   139  93  96   111  65  68    98  52  55    93  47  49    85  41  42    86  42  43    76  34  35    78  38  36    79  44  40    89  56  51    96  65  60   105  76  70   134 105  99   167 137 135   187 157 155   205 175 173   211 180 178   214 180 178   217 182 180   218 178 178   213 171 172   194 153 151   175 131 130   122  78  77    79  35  34    82  38  35   113  72  68   167 123 120   214 176 173   206 178 177   203 177 176   204 177 170   198 170 158   203 171 156   201 168 149   185 149 127   182 146 124   171 134 115   160 123 107   163 129 119   180 147 140   188 159 153   195 170 166   202 178 176   203 179 179   214 189 192   219 197 200   210 190 192   196 178 178   194 179 176   195 180 175   190 172 162   188 166 153   190 163 146   181 153 132   154 123 103   154 125 107   176 153 137   184 167 151   187 175 163   189 181 170   199 192 182   202 195 185   202 194 181   193 186 170   187 175 159   178 167 149   171 158 139   164 151 132   136 125 107    96  87  70   107  99  88   117 112 106   119 118 116   125 126 128   119 122 127   121 125 128   127 127 127   123 122 118   122 119 114   111 104  98    87  74  68    73  56  49    77  56  53    83  59  57    83  57  58    83  55  54    85  55  55    86  56  54    82  53  47    75  48  39    73  47  34    78  50  38    82  49  40    85  52  43    83  53  45    89  60  52    85  58  51    79  54  47    84  61  55    75  52  46    78  54  50    74  50  46    75  50  45    81  53  49    77  48  42    69  38  33    70  37  30    77  44  35    89  55  45   103  69  57   111  74  66   114  77  69   122  85  79   122  84  81   118  79  74   117  78  71   112  75  67   103  69  59   100  66  54    90  58  45    83  53  43    78  48  38    75  46  40    95  66  62    88  56  57    85  53  56    93  63  63    82  52  52    80  50  50    91  61  61    83  55  52    88  60  57    72  43  39    89  60  56    96  65  60    78  47  42   107  72  66   122  87  81   115  78  72   103  68  64    88  57  54    74  44  42    72  41  39    97  66  63    86  55  52    84  53  50    93  59  57    93  60  55    87  54  49    97  64  59    98  63  59   109  74  68   114  79  73    99  64  58    88  53  47    80  45  39    76  43  34    79  49  39    70  40  30    71  41  31    75  45  35    71  41  31    75  45  35    79  49  39
 51  28  20    50  30  21    49  31  19    50  31  17    58  31  20    67  35  24    79  39  29    86  43  34    93  50  41    97  59  48   114  77  68   110  77  68   103  76  69    75  52  46    52  33  29    57  39  37    56  41  38    51  36  33    57  38  34    62  41  36    62  39  33    67  40  33    73  44  36    70  41  33    72  43  35    73  44  36    72  45  36    71  44  35    65  41  31    61  37  27    56  34  23    55  33  22    53  31  20    49  27  16    48  24  14    51  27  17    54  27  18    51  24  15    51  22  14    53  24  16    50  21  13    52  23  15    52  25  16    51  24  17    47  22  17    46  23  17    47  23  19    47  26  21    50  29  26    49  28  25    45  24  19    48  27  22    41  17  13    58  35  29   122  97  92   163 138 133   156 132 122   145 121 111   156 133 125   169 149 142   169 150 144   165 146 140   163 140 134   165 141 131   187 159 148   192 163 149   199 167 154   203 171 156   205 173 160   205 175 164   206 178 167   207 180 169   214 187 176   227 199 188   223 190 181   221 184 176   208 167 161   149 106 100   116  71  66   146 101  96   145 102  96   149 106 100   154 113 107   157 116 110   155 112 106   144 101  95   134  89  84   127  82  79   121  76  79   114  72  76   108  63  66    92  47  50    79  34  37    81  36  39    86  42  43    83  39  40    83  39  40    80  40  40    84  46  43    81  46  42    84  51  46    83  52  47    80  51  45    95  66  60   123  93  91   142 111 109   161 130 127   173 139 137   179 144 142   185 147 146   182 142 140   176 135 133   141  97  96   115  69  69    84  39  36    79  34  31    88  43  40    96  52  49   136  91  88   189 148 146   195 159 159   197 166 164   203 170 163   196 162 152   199 163 149   197 160 142   177 140 122   172 135 117   163 126 110   163 127 115   170 137 128   182 151 146   191 163 159   201 176 172   207 183 181   203 182 181   223 201 203   226 206 207   213 195 195   195 181 180   192 181 177   193 182 176   190 176 165   189 171 157   187 164 148   178 151 132   155 126 108   162 135 118   183 161 147   187 169 155   188 175 166   197 190 180   205 201 192   201 198 189   195 191 180   187 183 171   185 177 164   179 172 156   170 161 144   160 151 134   141 134 118    97  93  81   118 115 108   128 129 124   125 129 130   131 136 140   126 133 141   122 129 135   135 136 140   128 127 125   125 121 118   115 107 104    93  82  76    77  62  57    77  58  52    81  57  53    78  52  51    79  51  50    79  51  50    80  52  49    77  50  43    72  45  36    71  44  33    73  46  35    82  52  42    85  52  45    83  52  47    89  60  54    85  57  53    79  54  49    83  59  55    74  50  46    76  52  48    74  50  46    77  52  47    81  53  49    76  47  41    68  38  30    70  37  30    77  43  34    97  60  51   108  72  60   114  77  69   118  81  73   124  85  80   123  84  79   117  78  73   115  76  69   113  76  68   105  71  61   102  68  56    91  59  46    86  56  46    82  52  42    79  50  44    98  69  65    87  56  54    78  46  47    85  55  55    88  58  58    88  60  57    87  59  56    77  49  46    82  54  51    69  40  36    83  54  50    89  58  53    75  44  39   106  71  67   124  89  85   116  79  73    93  58  54    84  50  48    71  40  37    72  41  38   103  72  69    96  62  60    88  55  50    93  60  55    94  61  56    82  47  43    97  62  56    98  63  57   105  70  64   110  73  67    98  61  53    88  51  43    76  42  33    77  44  35    74  44  34    66  36  26    68  38  28    71  41  31    64  34  24    71  41  31    84  54  44
 52  29  21    50  30  21    50  30  19    49  29  18    56  29  18    66  34  23    78  38  28    85  42  33    94  54  44   101  63  54   112  75  67   103  70  63    89  61  57    64  40  36    47  28  24    65  47  45    67  49  47    56  38  36    56  36  35    62  41  38    65  41  37    70  45  40    76  47  41    73  44  36    70  41  33    72  43  35    73  46  37    72  45  36    65  41  31    61  37  27    57  35  24    56  34  23    53  31  20    50  28  17    50  26  16    53  29  19    55  28  19    51  24  15    51  22  14    53  24  16    50  21  13    51  22  16    51  24  17    50  22  18    46  21  16    45  21  17    45  24  19    47  26  21    48  27  24    53  32  29    47  26  21    48  27  22    42  19  13    64  41  35   131 106 101   160 135 128   155 132 124   147 124 116   155 135 128   166 146 139   163 144 138   161 141 134   167 144 136   173 149 139   184 156 145   192 160 147   200 167 152   204 171 156   205 171 159   205 173 160   206 176 165   209 179 169   216 183 174   226 192 183   226 187 180   219 178 172   192 147 142   128  80  76    91  43  39   108  63  60   107  63  60   110  69  65   117  77  75   119  79  77   112  72  70    98  58  56    90  49  47    87  45  46    90  48  50    91  49  53    88  46  48    84  39  42    83  38  41    88  43  46    87  43  44    77  35  36    82  40  41    84  44  44    87  52  48    80  47  42    82  51  46    86  55  50    82  53  47    94  65  59    88  57  54    97  63  62   105  70  68   112  77  75   123  85  84   128  88  88   123  82  80   115  71  70    97  51  51    87  41  41    81  33  31    85  40  37    97  49  47    97  52  49   117  69  67   149 104 101   166 124 125   181 140 138   197 156 152   196 156 148   198 158 146   194 155 140   171 132 117   163 123 111   159 123 111   166 132 123   179 146 141   186 157 153   191 163 160   197 171 170   204 180 178   205 184 181   221 200 199   224 204 205   211 195 195   196 182 179   194 183 179   196 185 179   195 181 172   194 176 164   189 166 152   173 147 132   156 128 114   168 142 129   191 169 156   189 171 161   184 171 163   197 190 182   217 212 206   199 196 189   184 181 172   183 179 168   188 181 171   184 178 166   172 164 151   160 154 142   137 133 122   100  97  90   109 108 104   127 128 130   135 140 144   125 134 141   127 135 146   132 140 151   137 137 145   131 129 132   127 123 124   123 115 113   106  95  91    86  71  66    77  58  52    79  55  51    73  47  46    75  47  46    76  48  45    77  49  46    77  49  45    74  49  42    75  51  41    78  51  42    89  59  51    89  59  51    87  56  51    93  64  58    87  59  55    81  56  51    84  60  56    73  49  45    69  45  41    70  47  41    75  50  45    78  51  44    76  46  38    72  39  32    78  43  37    86  52  43   106  70  58   106  70  58   105  68  59   108  71  63   116  77  72   118  79  74   115  76  71   112  73  66   116  79  71   109  75  65   105  71  59    94  62  51    88  58  48    84  55  47    79  52  45    96  68  64    87  57  55    76  44  45    79  49  49    94  64  64    97  69  66    85  57  54    74  46  43    78  50  47    72  43  39    72  43  39    75  44  39    73  42  37   103  70  65   115  80  76   112  75  69    91  56  52    82  49  44    69  38  35    72  41  38   105  74  69    98  65  60    90  57  52    95  62  57    98  65  58    79  44  38    97  62  56    97  62  56    99  65  56   104  67  59    96  59  51    90  53  45    78  44  35    81  48  39    75  45  35    70  40  30    75  45  35    75  45  35    64  34  24    68  38  28    86  56  46
 53  30  24    51  31  22    50  30  19    49  29  18    54  30  18    63  33  22    77  39  28    85  42  33    98  58  50   109  70  63   110  73  67    93  60  55    80  52  48    64  40  36    50  29  26    67  49  47    73  55  55    59  41  39    56  36  35    62  41  38    65  41  37    68  43  38    75  46  42    74  45  39    69  40  32    71  42  34    72  45  36    71  44  35    66  42  32    62  38  28    59  37  26    59  37  26    55  33  22    53  31  20    54  30  20    56  32  22    57  30  21    52  25  16    52  23  15    55  26  18    51  22  16    52  23  19    51  23  19    50  22  19    46  21  17    45  21  19    46  25  22    48  27  24    46  27  23    52  33  29    49  28  23    49  28  23    40  20  13    66  46  37   133 110 102   153 130 122   149 129 120   147 127 118   155 136 129   167 148 141   163 144 137   160 140 133   169 146 138   176 149 140   187 157 146   192 160 147   199 163 149   203 167 151   206 170 156   208 172 160   206 172 160   207 170 161   211 172 165   207 164 158   197 152 147   185 137 133   158 108 107   119  69  68   101  51  50   107  59  59   100  56  55   105  64  62   109  71  70   104  69  67    92  57  55    82  47  45    83  45  44    86  47  48    88  47  51    86  45  49    80  39  43    78  36  40    84  42  44    88  46  48    83  41  43    73  33  34    82  42  42    84  46  45    86  51  49    76  42  40    76  45  40    81  50  45    78  49  43    89  58  53    89  55  53    92  57  55    95  57  56   101  61  61   109  67  68   115  71  72   110  64  64   104  56  56    89  41  41    94  46  46    96  46  45    93  45  43    98  48  47    99  51  49   103  54  50   109  59  58   131  81  80   152 102 101   178 129 125   186 137 132   189 142 132   181 137 126   157 115 103   150 110 100   161 124 116   171 138 133   181 150 147   185 155 155   181 153 152   177 151 150   182 158 156   191 167 165   210 186 186   217 196 195   209 191 189   196 181 178   197 182 179   199 184 179   196 179 171   195 175 166   190 166 156   170 143 132   155 127 116   171 144 135   196 173 167   193 174 170   187 172 169   203 193 191   230 222 220   199 194 191   178 173 169   180 175 169   191 184 178   185 178 170   169 162 154   158 151 143   136 131 127   109 108 106   100 100 102   128 131 138   159 163 174   125 133 146   124 131 149   141 148 164   141 141 153   133 130 137   126 121 125   123 114 115   111 100  98    90  75  70    78  59  53    80  57  51    75  50  46    76  51  47    76  51  47    76  51  47    78  53  48    79  56  48    79  56  48    80  55  48    87  58  52    88  57  52    86  55  52    92  63  59    88  60  57    82  57  53    85  61  57    72  51  46    67  44  38    68  45  39    72  47  42    74  47  40    74  44  36    76  43  34    85  51  42    97  60  51   103  65  54    95  57  46    92  54  45    99  60  53   110  69  65   117  76  72   114  75  70   108  69  62   114  77  69   108  74  64   106  72  62    95  63  52    91  61  51    88  59  51    82  55  48    96  68  64    90  60  58    78  48  48    77  47  45    97  67  65   101  73  70    85  57  54    77  49  46    78  50  47    70  42  38    64  35  31    75  44  39    88  57  52   106  73  68   102  69  64   105  70  66    98  63  59    77  44  39    70  37  32    77  44  39   111  78  73   101  68  63    92  59  52    97  62  56    97  62  56    91  54  48   106  69  61   101  64  56   100  63  55   102  65  57    97  60  51    95  57  48    87  50  41    87  54  45    80  50  40    80  50  40    86  56  46    85  55  45    70  40  30    68  38  28    86  56  46
 55  32  26    52  32  25    50  30  21    49  29  18    54  30  18    63  33  23    77  39  30    84  44  36    98  59  52   110  73  67   104  69  65    91  57  55    85  57  54    78  54  52    56  35  34    67  47  46    73  53  54    58  40  40    56  36  35    62  41  40    63  39  37    64  39  35    71  43  40    73  44  40    70  41  35    71  42  34    71  44  35    69  42  33    65  41  31    63  39  29    61  39  28    61  39  28    58  36  25    55  33  22    56  32  22    57  33  23    57  30  21    53  26  17    54  25  17    58  29  23    52  23  19    52  24  21    51  23  20    48  23  19    45  21  19    46  22  20    46  25  22    49  28  25    46  27  23    48  29  25    49  28  23    47  27  20    38  18  11    68  48  39   132 110  99   147 127 116   141 123 113   144 125 118   156 137 130   171 152 145   169 150 143   163 143 136   170 147 139   170 143 134   182 152 141   187 153 141   193 157 143   200 163 147   201 163 150   196 158 145   184 146 135   176 136 126   172 127 122   157 109 105   142  93  89   130  79  76   118  67  66   110  59  58   107  57  58   104  55  58    95  51  52   100  60  61   101  62  63    89  53  55    77  43  44    74  40  41    79  43  45    82  46  48    81  42  45    81  40  44    77  36  40    79  38  42    89  49  50    90  50  51    83  43  44    80  41  42    78  40  39    80  45  43    83  49  47    76  42  40    76  45  40    79  48  43    74  45  39    85  54  49    86  48  47    91  51  51    96  54  55    98  56  57    99  53  55    97  51  53    94  46  46    90  40  41    92  40  42    98  47  46    98  47  46    94  43  42    95  44  43    98  48  47   100  49  46    98  47  44   114  56  55   128  70  69   146  91  88   150  97  91   153 103  96   151 102  95   138  94  85   143 102  96   164 126 123   175 140 138   178 146 147   176 146 148   168 139 141   159 130 132   154 128 127   160 134 133   191 162 164   207 178 180   207 183 183   200 179 176   199 180 176   198 179 173   192 172 165   191 168 162   187 160 153   166 137 131   151 122 116   164 135 131   188 162 161   192 171 170   195 176 178   222 207 210   228 216 218   201 191 192   181 171 170   183 173 172   189 179 177   181 171 169   164 154 152   151 143 141   140 131 132   122 117 121   110 107 114   155 153 166   199 201 216   146 149 168   129 134 154   143 146 165   145 144 158   134 131 142   120 115 122   115 106 109   105  94  92    86  71  66    76  57  51    81  61  54    79  55  51    80  55  51    79  54  50    76  52  48    78  54  50    79  59  52    79  59  52    79  56  48    81  53  49    82  53  49    80  51  47    87  59  55    84  59  55    80  56  52    82  61  56    71  50  45    69  46  40    71  46  41    73  46  39    73  44  36    76  43  34    80  46  36    91  54  45   101  63  52    91  53  40    84  46  33    88  50  39   101  63  54   111  70  64   116  75  71   114  73  69   105  66  59   108  70  61   106  69  60   104  70  60    94  64  53    94  64  56    93  64  58    86  58  54    97  69  66    93  63  61    85  55  55    76  46  44    93  63  61    98  70  67    85  57  54    83  55  52    79  51  48    64  36  32    65  37  33    90  61  55   110  79  74   113  80  75    96  63  58   106  71  67   104  69  65    77  44  39    78  45  40    90  57  52   123  90  83   112  79  72   103  70  63   104  69  63    98  64  55   103  66  58   111  74  66   101  64  56    99  62  53   102  65  56    96  59  50    97  59  50    93  56  47    91  58  49    83  53  43    85  55  45    89  59  49    88  58  48    75  45  35    68  38  28    84  54  44
 56  33  27    53  33  26    51  31  22    50  30  19    54  30  18    64  34  24    77  40  31    85  45  37    92  53  46   106  69  63    98  63  59    87  56  53    89  59  57    85  59  58    61  37  37    70  50  49    68  48  49    58  38  39    60  39  38    68  47  46    66  42  40    65  40  36    71  43  40    75  47  43    75  46  40    73  44  38    70  43  36    68  41  34    65  40  33    64  39  32    61  38  30    60  37  29    59  36  28    57  34  26    57  32  25    57  32  25    56  29  22    52  25  18    54  25  19    60  31  25    51  23  20    51  23  22    50  22  21    47  21  20    44  20  20    45  21  21    46  25  24    47  27  26    46  27  23    42  23  19    45  26  20    42  23  16    34  14   7    69  49  40   130 108  97   147 127 118   137 120 112   141 124 117   151 134 127   170 151 145   170 151 144   165 145 138   170 147 139   165 138 129   170 140 129   178 144 132   184 148 134   180 142 129   168 128 116   152 112 100   141 101  89   137  94  85   129  81  77   119  68  67   108  57  56   102  48  48    98  43  46    97  45  47    97  47  50    95  46  49    97  55  57   102  63  66    97  61  63    82  47  51    75  40  44    80  45  49    83  46  53    79  43  47    82  43  48    85  46  49    86  47  50    91  52  55    94  55  58    84  45  48    78  39  40    82  46  46    77  41  41    79  43  43    83  49  47    79  45  43    80  49  46    82  51  48    77  48  44    94  60  58    91  51  51    97  53  54   101  55  55   101  55  55   100  50  51    95  45  46    91  39  41    89  37  39    93  39  39    93  39  39    93  39  39    95  41  39    98  44  42    99  48  45   103  49  47   105  49  48   111  50  49   115  51  51   122  61  58   120  62  58   119  66  60   117  68  61   116  71  66   135  94  90   165 125 125   175 139 141   174 139 143   166 134 139   165 133 138   157 127 129   143 113 113   135 103 104   167 131 133   193 154 157   205 171 172   204 173 171   205 175 173   201 173 170   194 166 162   192 163 159   185 154 151   161 130 128   140 109 107   134 102 103   144 115 119   148 123 127   162 141 146   204 185 189   208 189 193   201 182 186   191 175 178   187 171 174   185 169 170   179 163 164   164 149 152   149 137 141   143 130 137   117 107 116   109 101 114   157 150 166   205 200 220   156 153 174   140 138 160   142 140 162   144 141 158   131 127 141   114 108 118   108  99 104    99  87  87    78  63  58    66  49  42    74  54  47    77  54  48    78  55  49    77  53  49    74  50  46    77  53  49    80  59  54    80  59  54    77  57  50    83  58  54    83  55  52    80  52  49    85  60  56    84  58  57    79  55  53    79  58  53    67  46  41    68  45  39    70  45  40    73  46  39    75  45  37    79  45  36    87  50  41    96  58  47   103  63  51    91  51  39    89  49  37    99  59  49   112  72  64   113  70  64   110  69  63   111  70  64   106  67  60   103  65  56   103  66  57   104  70  60    94  64  53    96  66  58    95  66  60    86  58  54    94  66  63    94  64  62    92  62  60    75  47  44    85  57  54    90  62  59    83  55  52    87  62  57    78  53  48    61  33  29    72  44  40   100  71  67   114  83  80   112  78  76   101  67  65   114  79  77   100  65  61    79  46  41    84  51  44    96  63  56   123  90  83   112  77  71   108  74  65   107  73  64    98  64  55    99  62  54   101  64  55    89  52  43    92  55  46    99  61  52    94  56  45    95  57  46    95  58  49    91  57  48    83  50  41    83  50  41    82  49  40    84  51  42    77  44  35    70  37  28    84  51  42
 57  34  28    54  34  27    52  32  23    50  30  21    54  30  20    63  35  24    77  40  32    84  45  38    83  44  39    99  61  58    93  58  56    85  54  51    85  55  53    81  55  54    60  36  36    77  56  55    66  46  47    59  39  40    66  45  44    75  54  53    73  49  47    69  43  42    75  47  44    80  52  49    79  50  46    75  46  40    69  42  35    66  39  32    64  39  32    63  38  31    60  37  29    59  36  28    60  37  29    57  34  26    56  31  24    56  31  24    54  27  20    50  23  16    54  25  19    60  31  27    50  22  19    50  22  21    47  21  20    45  19  18    43  19  19    41  20  19    43  23  22    46  26  25    46  26  25    37  18  14    42  23  17    38  19  12    31  11   4    70  50  41   130 108  97   150 130 121   138 121 113   138 123 116   146 129 122   164 145 139   167 147 140   165 142 134   172 147 140   165 138 129   166 136 126   173 141 130   173 137 125   151 113 102   121  81  71   105  63  51   108  66  54   119  75  66   116  68  64   114  64  63   108  57  56   100  49  48    93  41  43    89  37  41    91  41  44    96  50  53   100  58  62   104  65  68    95  59  63    79  44  48    78  43  49    88  51  58    86  49  57    75  35  43    83  44  49    88  49  52    92  53  56    95  56  59    92  53  56    75  39  41    73  37  37    90  54  54    83  47  47    81  45  45    82  48  46    78  44  42    78  47  44    79  48  45    78  47  44    98  63  61    96  52  53    96  47  50    96  46  47    97  47  48   101  49  51   102  47  50   101  45  48    98  42  43    95  39  40    92  36  37    96  38  37   100  44  43   102  46  45   101  47  45   102  48  46   105  47  45   108  44  42   109  44  42   116  52  50   114  55  51   110  55  50   102  51  47    99  54  51   123  79  78   163 123 124   176 137 142   171 134 141   164 127 134   171 134 141   170 134 138   147 111 113   128  89  92   151 106 111   182 136 139   204 159 162   208 168 169   209 173 173   205 171 170   198 164 162   196 162 161   186 152 151   160 126 127   127  92  96    96  64  69    85  56  61    84  57  64   101  78  86   150 129 136   187 162 168   198 173 179   201 176 182   190 167 173   184 161 167   180 159 164   169 150 156   153 136 144   143 127 137    97  83  96    87  75  89   125 114 131   171 162 183   143 135 158   142 137 160   143 138 160   140 135 155   129 123 137   114 106 117   107  98 103    98  86  86    73  58  53    58  39  33    64  44  37    72  49  43    73  50  44    72  48  44    71  47  43    74  53  50    81  60  57    81  62  56    79  58  53    93  68  64    90  65  61    85  59  58    89  65  63    84  60  58    78  54  52    77  56  53    63  42  37    65  42  36    68  43  36    72  43  35    76  46  36    83  49  39    93  55  44   101  61  49   105  66  51   102  60  46   100  61  46   114  72  60   121  78  69   111  68  61   105  62  56   109  66  60   109  68  62   104  66  57   105  68  59   105  71  61    95  65  55    96  66  58    94  65  59    83  55  52    89  61  58    94  64  62    95  65  63    75  47  44    79  51  48    83  55  52    82  54  51    90  65  60    78  53  48    64  36  32    77  49  45    99  70  66   102  73  69   102  71  68   107  73  71   121  86  84    92  57  55    75  42  37    80  47  40    88  55  48   109  76  69    97  63  54    98  64  55   101  67  58    91  57  48    86  49  40    85  48  39    74  37  28    83  46  37    94  56  45    89  51  40    92  54  43    94  58  46    90  56  47    79  46  37    77  44  35    72  39  30    76  43  34    75  42  33    69  36  27    84  51  42
 57  33  29    50  30  23    48  28  19    51  31  22    56  34  23    64  36  25    76  42  33    87  50  42    75  38  32    83  45  42    94  59  57    85  54  51    74  44  42    62  36  35    59  35  35    77  56  55    58  38  37    60  40  39    63  42  41    71  50  49    78  54  52    69  45  43    68  42  41    81  53  50    82  53  49    77  48  42    71  44  37    68  41  34    65  40  33    63  38  31    60  37  29    58  35  27    60  37  29    64  41  33    67  42  35    63  38  31    58  31  24    52  25  18    53  24  18    54  25  21    51  23  20    51  23  22    49  23  24    47  21  22    45  21  21    42  21  20    41  21  22    42  22  21    45  27  25    34  16  12    36  17  11    32  13   6    40  21  14    93  75  65   121 101  90   146 128 118   139 122 115   135 120 115   144 127 120   158 139 133   166 146 139   171 148 140   177 152 145   184 157 148   185 155 147   174 141 132   154 120 111   125  88  79   104  66  57   110  70  60   122  79  70   117  74  67   123  78  75   129  81  81   113  63  64    90  40  41    87  37  40    92  42  45    96  47  51    98  53  58   102  61  65   102  63  68    91  54  61    83  46  53    83  46  54    83  43  52    84  42  54    91  49  59    95  55  63    94  55  60    91  52  57    88  49  54    84  48  50    82  46  48    81  45  47    80  46  47    78  44  43    79  45  44    81  47  46    82  48  47    83  49  47    84  50  48    84  50  48    87  49  48    92  46  46    93  43  44    93  41  43    95  40  43    96  40  43    96  40  43    96  37  39    94  35  37    93  34  36    97  39  38   103  43  43   103  45  44   102  44  43    99  43  42    99  44  41   102  44  42   113  49  47   113  49  47   110  49  44   107  49  45   105  52  46   103  54  49   103  55  53   101  57  58   147 105 109   171 130 136   177 136 144   172 131 139   173 132 140   159 116 123   134  92  96   127  81  84   140  87  93   148  96 100   169 119 122   193 147 149   201 159 160   192 152 152   183 144 145   180 144 144   166 132 133   142 107 111   115  82  89    96  65  73    76  49  56    62  36  45    61  40  47    74  51  59   121  94  99   160 131 136   185 156 161   176 149 154   165 140 146   162 139 145   152 133 139   133 116 124   106  90 100    60  46  59    52  40  54    88  77  93   123 111 131   143 134 155   148 139 160   135 126 147   121 114 132    93  87 101    83  73  84    80  69  75    72  58  58    73  58  53    78  59  53    67  47  40    80  57  51    79  54  49    76  52  48    74  50  48    73  52  49    77  56  53    80  61  57    84  63  60    90  66  64    88  64  62    83  59  59    87  63  63    90  66  66    72  51  48    60  39  36    64  43  38    65  42  36    70  45  38    78  49  41    85  52  43    91  55  43    96  58  45   102  60  48   105  63  49   114  70  57   116  74  60   123  79  68   125  81  72   117  72  66   107  64  58   107  64  58   112  71  65   104  66  57   105  68  59   104  70  61    93  63  53    97  67  59   100  71  65    88  60  57    89  64  60   109  81  78    93  65  61    75  47  43    85  57  53    91  66  61    86  61  56    86  61  56    80  55  50    67  42  37    87  59  55    89  59  57    87  57  55   103  72  70    97  66  64   102  68  67    93  59  57    90  57  52    86  53  46    82  49  42    95  62  55    84  51  42    97  64  55   105  71  62    85  51  42    81  47  37    77  43  33    84  47  38   101  64  55    94  58  46    81  45  33    87  51  39    85  49  37    88  54  45    82  49  40    83  50  41    82  49  40    74  41  32    75  42  33    79  46  37    77  44  35
 57  33  29    50  29  24    46  27  20    50  32  22    57  35  24    63  36  27    72  39  30    81  44  36    80  42  39    85  50  46    96  62  60    85  54  51    71  41  39    62  37  33    63  37  36    80  56  54    55  34  33    57  37  36    62  41  40    70  49  48    76  52  50    67  43  41    63  37  36    72  47  43    80  51  47    77  48  42    72  45  38    69  42  35    65  40  33    64  39  32    61  38  30    60  37  29    61  38  30    63  40  32    64  39  32    60  35  28    56  29  22    53  26  19    56  27  21    59  30  26    52  24  21    49  23  22    47  21  22    43  19  19    40  19  18    41  20  19    41  21  22    43  23  24    43  25  23    34  16  14    39  20  16    36  17  11    46  27  20   100  82  72   126 106  97   148 130 120   145 128 121   141 123 119   140 123 116   149 130 123   161 138 132   168 143 136   172 145 138   172 145 138   169 140 134   149 118 113   131  98  91   116  83  76   112  75  67   118  81  73   126  86  78   121  80  74   125  81  78   125  81  80   109  63  63    89  43  45    90  41  44    97  48  52    99  52  58   100  58  62   106  65  71   101  62  67    87  50  57    81  44  51    88  48  57    92  50  60    95  51  64   101  58  68    95  54  62    94  55  60    92  53  58    89  50  55    84  48  50    82  46  48    81  47  48    81  47  48    79  45  44    79  45  44    80  46  45    80  46  45    80  46  44    82  47  45    85  50  48    90  50  50    98  50  50    99  44  47    96  41  44    95  39  42    98  39  43    98  39  41    99  39  41    98  38  40    94  34  34    97  37  37   101  41  41   103  43  43   101  43  42   101  43  42   100  45  42   103  45  43   111  50  47   110  49  46   109  50  46   108  50  46   105  52  46   103  54  49   103  55  53   102  56  58   126  81  86   155 110 117   163 117 127   152 106 116   146  99 107   131  84  90   119  70  74   121  71  74   116  59  65   122  65  71   137  82  87   155 105 106   159 113 115   149 107 108   143 103 104   141 105 107   147 112 116   133 101 106   122  91  99   114  87  94   104  78  87    87  64  72    74  54  63    72  51  58    92  63  68   107  76  81   115  84  90   110  81  86   103  78  84    97  76  81    85  65  74    69  54  61    54  41  50    28  16  26    23  13  24    44  33  47    69  61  76    92  83 100   101  92 111    93  84 101    67  59  74    47  39  52    47  36  44    55  43  47    60  44  44    74  56  52    88  67  62    87  64  58    83  58  53    81  56  52    78  52  51    75  51  49    73  52  49    75  54  51    77  58  54    79  60  56    87  66  65    85  61  61    80  56  56    80  59  58    82  61  60    70  49  48    61  40  37    66  45  40    64  41  35    71  44  37    78  49  41    85  53  42    92  56  44    98  59  44   104  60  47   107  64  48   116  73  57   118  75  59   123  79  66   124  80  71   118  73  67   111  66  61   109  66  60   111  70  64   101  61  53   103  66  57   106  72  63    97  67  59   102  71  66   102  74  70    89  61  60    87  61  60   109  81  77    96  68  64    80  52  48    85  60  55    89  64  59    81  56  51    81  56  51    78  53  48    68  43  38    84  59  54    90  62  59    91  61  59   104  73  71    97  66  64   103  69  68    88  54  52    93  60  55    92  59  52    89  56  49   104  71  64   100  67  60   107  74  65   106  73  64    90  56  47    82  48  39    79  45  35    82  48  38    96  59  50    92  55  46    85  49  37    91  55  43    86  52  42    89  55  46    83  50  41    84  51  42    83  50  41    78  45  36    78  45  36    80  47  38    75  42  33
 57  33  29    49  28  23    45  26  19    50  32  22    58  36  25    63  36  27    70  37  28    74  40  31    75  40  36    85  50  46   100  66  64    89  58  55    73  44  40    67  42  38    67  42  38    77  53  49    60  39  36    65  44  41    69  48  45    77  56  53    84  60  58    74  50  48    69  43  42    75  50  46    79  50  46    79  50  46    76  48  44    72  44  40    66  41  36    65  40  35    63  40  34    62  39  33    62  39  33    62  39  33    61  36  31    57  32  27    56  28  24    56  28  24    60  31  27    64  35  31    54  26  23    50  24  23    46  20  19    42  18  16    39  18  17    41  20  19    42  22  23    43  25  25    41  23  21    36  18  16    42  24  20    40  23  16    54  35  29   110  91  84   132 112 105   148 129 122   153 136 129   148 130 126   143 124 118   145 125 118   156 133 127   160 135 128   158 131 124   153 126 119   137 109 105   115  87  83   105  76  72   112  83  79   124  91  86   128  95  90   129  92  86   123  86  80   126  86  84   121  81  81   104  62  63    88  46  48    92  47  50    99  54  57   100  58  62   100  59  63   101  62  67    95  59  63    84  47  54    84  44  52    95  54  62   100  57  66   102  54  66   103  57  68    97  54  63    96  55  63    94  55  60    90  51  56    83  47  51    81  45  49    81  47  48    82  48  49    80  46  47    80  46  47    79  43  43    77  41  41    77  41  41    82  43  44    88  49  50    95  53  54   103  53  54   103  47  50    99  43  44    99  40  42    99  40  42   101  41  43   102  40  43   101  39  40    96  34  35    98  36  37    99  39  38   100  40  39   100  42  40   101  43  41   101  46  43   103  48  45   109  49  48   109  50  46   108  50  46   106  51  46   105  52  46   103  54  49   103  55  53   103  55  55   105  59  62   129  82  88   136  86  95   122  72  81   114  63  72   105  52  60   102  47  53   109  54  59    97  40  46    99  43  46   108  53  56   116  66  65   114  68  68   106  65  63   103  65  64   105  71  72   127  95  98   128  99 103   132 105 112   132 109 117   128 107 114   116  97 103   102  83  89    93  72  77    90  61  65    78  48  50    65  36  40    61  34  39    60  37  43    53  34  38    38  23  30    26  15  21    24  14  22    20  13  21    18  13  20    21  15  25    31  25  37    44  38  50    46  40  52    39  33  45    29  19  30    25  13  23    39  26  33    58  44  44    68  50  48    79  60  54    89  66  60    84  59  54    77  52  48    76  51  47    76  50  49    75  51  51    75  54  53    77  56  55    79  60  56    81  61  60    84  62  64    79  57  59    73  51  53    73  53  54    74  54  55    66  46  45    61  42  38    68  47  42    63  40  34    71  44  35    79  49  39    87  53  41    94  56  43   101  59  45   106  63  47   111  65  49   119  73  57   120  74  59   123  77  64   125  78  70   122  75  69   115  70  64   112  69  63   112  71  65   103  62  56   104  67  59   106  72  63    98  68  60   104  73  68   105  77  73    93  65  64    91  65  64    96  68  64    89  62  55    80  55  48    85  60  53    86  61  54    78  55  47    81  58  52    82  59  53    71  46  42    84  59  55    99  71  68    97  67  65   100  69  67    95  64  62   102  68  69    84  50  49    89  58  55    91  60  55    90  59  54   105  75  67   108  78  70   103  73  65    90  60  52    80  47  38    76  43  34    75  42  33    75  42  33    82  48  38    81  47  37    81  47  37    86  52  42    81  47  37    89  55  46    83  49  40    83  49  40    85  51  42    82  48  39    83  49  40    82  48  39    75  41  32
 60  35  31    49  28  23    45  26  19    49  30  23    57  37  28    63  39  29    70  40  30    76  42  33    67  32  28    80  47  42   102  68  66    97  66  63    82  53  49    76  48  44    68  43  38    71  47  43    67  43  39    70  49  44    73  52  47    80  59  56    87  63  61    80  56  54    76  50  49    81  56  52    79  51  47    83  54  50    81  53  49    75  47  43    67  42  37    65  40  35    63  40  34    61  38  32    63  40  34    62  39  33    61  36  31    58  33  28    58  30  26    59  31  27    62  33  29    64  36  32    56  28  25    51  25  24    46  22  20    44  20  18    43  22  21    43  23  22    43  25  25    43  25  25    40  22  20    39  21  19    45  27  25    43  25  21    59  40  36   118  99  93   136 115 110   144 125 119   151 132 128   153 134 130   150 129 124   150 127 121   153 128 121   149 122 115   135 108 101   125 100  95   108  83  79   100  76  74   104  78  77   118  92  91   131 103 100   131 102  98   125  94  91   122  89  84   128  93  91   118  80  79   100  61  62    89  49  50    90  50  51    95  55  56    95  54  58    93  54  57    88  52  56    89  53  57    86  50  54    89  50  55   100  59  67   104  58  68    99  52  62   100  53  63   102  59  68   100  59  67    96  55  61    88  49  54    82  43  48    78  42  46    81  45  47    83  49  50    80  46  47    80  46  47    78  42  42    77  38  39    76  37  38    82  42  43    91  51  52   101  57  58   106  54  56   106  50  53   105  46  48   103  44  46   103  43  45   103  43  45   103  41  42   101  39  40    97  35  36    97  35  36    97  37  36    98  38  37    99  41  39   101  43  41   102  47  44   104  49  46   105  50  47   105  50  47   106  51  48   105  52  46   103  53  46   104  54  47   103  54  50   103  55  53    99  49  52   111  60  65   109  58  65   101  48  56   102  46  55    99  44  50    97  40  46   100  43  49   102  43  47   101  45  48   105  51  51   106  56  55   101  56  53    93  52  48    93  55  54    96  62  63   103  73  75   122  93  98   139 114 120   142 119 127   134 113 120   121 100 107   104  85  89    92  70  73    97  68  72    75  46  50    55  29  32    56  31  35    61  40  45    57  42  47    49  38  44    44  37  44    38  33  39    50  48  53    53  50  57    47  46  52    46  45  51    43  40  47    32  29  36    25  20  27    31  21  29    37  24  31    58  43  46    76  60  60    80  61  57    81  60  55    81  56  51    71  46  41    77  49  46    77  49  48    78  49  51    77  51  52    78  54  54    78  57  56    80  59  56    80  60  59    77  57  58    73  53  55    70  50  52    71  51  52    70  50  51    65  45  44    63  43  42    68  47  42    63  40  34    70  43  34    79  49  39    87  53  41    96  56  44   103  60  44   110  64  48   113  67  51   118  72  56   119  73  57   121  75  62   123  76  66   124  77  69   122  75  69   118  73  68   117  74  68   110  69  63   108  71  63   105  71  62    94  64  56   100  71  67   106  78  75    95  69  68    98  72  71    84  56  52    83  56  49    82  57  50    85  60  53    80  57  49    74  51  43    77  54  48    82  59  53    75  50  46    83  58  54   112  84  81    99  71  68    90  60  58    92  61  59    97  63  64    84  53  51    82  53  49    87  58  52    88  59  53   103  74  68   116  85  80   103  73  65    81  51  43    75  45  37    75  45  37    79  46  37    78  45  36    77  44  35    79  46  37    83  51  40    84  50  40    77  43  33    85  51  42    78  44  35    80  46  37    84  50  41    84  50  41    86  52  43    84  50  41    74  40  31
 63  37  36    53  29  25    45  26  19    49  30  23    57  37  28    65  41  31    73  43  33    80  47  38    69  36  31    82  49  44   103  70  65   100  69  64    90  61  55    80  53  46    66  41  34    68  45  39    64  41  35    67  44  38    65  45  38    69  48  43    78  54  50    76  52  48    73  49  45    80  55  51    82  54  50    88  59  55    86  58  54    78  50  46    69  44  39    67  42  37    63  40  34    58  35  29    64  41  35    63  40  34    62  37  32    62  37  32    64  36  32    63  35  31    63  34  30    61  33  29    58  30  26    53  28  24    50  26  22    49  25  23    48  27  26    48  28  27    46  28  28    44  26  26    39  23  23    40  24  24    48  30  30    43  25  23    60  42  40   123 105 101   137 118 114   138 119 115   144 125 121   157 136 133   162 138 134   161 136 131   158 131 124   139 112 105   116  88  84   107  82  78   108  87  86   120  99  98   128 108 109   131 109 111   130 109 108   128 104 102   126  98  97   125  95  93   125  94  92   111  77  76    96  60  62    90  51  54    88  49  52    86  50  52    85  49  51    82  48  49    81  47  48    88  54  55    89  55  56    93  57  59   102  61  67   105  60  67   104  57  65   108  61  71   110  64  74   102  61  69    95  54  62    85  45  53    79  40  45    76  40  44    80  44  48    84  48  52    82  46  48    80  44  46    79  40  43    77  38  41    79  39  40    86  44  46    95  53  55   105  59  61   109  54  57   110  51  53   109  49  51   109  49  51   109  47  50   107  45  48   105  41  42   102  38  39    97  35  36    97  35  36    96  36  35    97  37  36    98  40  38   102  44  42   102  47  42   104  49  46   103  49  47   104  50  48   104  51  47   103  53  46   103  53  46   103  53  46   104  54  47   103  54  49   101  50  49   104  52  54   100  48  52    99  44  50   104  49  55   107  50  56   105  46  52   104  45  49   105  49  52   107  51  54   110  56  56   108  59  55   104  56  52    97  53  50    96  56  56    98  62  62    96  64  67   111  82  87   122  95 102   120  94 103   110  85  91    99  74  80    85  60  64    73  47  50    81  52  56    68  39  43    56  29  34    57  34  40    66  47  53    71  58  65    78  68  76    81  76  83    71  68  75    82  83  88    85  86  90    83  84  88    83  84  88    73  72  77    55  55  57    51  47  48    49  39  40    56  42  42    68  52  52    77  59  55    78  57  52    81  58  52    81  56  51    78  50  47    86  56  56    85  56  58    84  55  57    81  55  58    78  54  54    74  53  52    72  51  48    70  51  47    71  51  53    68  49  51    69  50  52    72  53  55    69  51  51    65  47  45    65  45  44    67  46  41    63  40  34    71  44  35    81  49  38    90  54  40    99  57  43   105  62  46   112  65  47   116  69  51   116  69  51   118  71  55   120  72  60   122  74  64   124  77  69   126  79  73   123  78  73   120  77  71   112  71  65   109  70  63   103  68  62    92  62  54    98  69  65   105  77  74    94  68  67    96  70  69    82  55  48    84  57  48    87  62  55    84  59  52    75  52  44    67  44  36    66  43  37    72  49  43    78  54  50    81  56  52   122  94  91    97  69  66    79  49  49    90  60  60    91  59  60    91  60  58    82  53  49    89  61  57    93  65  61   104  77  70   125  96  90   111  82  76    87  58  52    87  58  50    82  53  45    88  58  50    88  58  50    84  54  44    86  56  46    90  60  50    86  53  44    79  46  37    81  47  38    74  40  31    76  42  33    82  48  39    84  50  41    87  53  44    84  50  41    74  40  31
 65  39  38    56  32  28    48  29  23    49  32  24    56  36  27    63  40  32    74  44  36    81  48  41    81  48  41    89  56  51   100  69  64    99  68  63    96  67  61    83  56  49    66  39  32    73  48  41    66  43  35    68  45  39    63  43  36    64  44  37    73  49  45    74  50  46    73  49  45    80  55  51    84  56  52    90  61  57    88  60  56    80  52  48    72  47  42    71  46  41    64  41  35    57  34  28    65  42  36    64  41  35    64  39  34    66  41  36    69  41  37    69  41  37    66  37  33    61  33  29    60  32  28    55  30  25    51  27  23    50  29  24    52  31  28    51  31  30    48  30  30    45  27  27    40  24  24    43  27  27    49  31  31    41  23  23    60  42  42   129 111 109   141 121 120   137 118 114   149 128 125   165 141 139   172 147 143   175 147 143   170 141 135   141 114 107   115  87  84   110  86  84   130 110 109   150 131 133   156 137 139   141 125 126   131 112 114   128 108 109   128 107 106   132 106 105   120  90  90   105  74  72    96  62  63    93  57  59    86  50  52    81  47  48    81  47  48    78  46  47    84  52  53    91  59  60    94  60  61    95  59  61   104  63  67   108  66  70   113  66  72   121  74  82   110  64  74   102  59  68    92  49  58    83  42  50    78  39  44    79  40  45    80  44  48    83  47  51    81  45  47    79  43  45    79  40  43    80  39  43    85  43  45    95  50  53   102  57  60   110  61  64   110  55  58   112  53  55   112  52  54   111  51  53   111  49  52   108  46  49   105  41  42   101  37  38    98  36  37    97  35  36    95  35  34    96  36  35    99  41  39   102  44  42   101  46  41   101  48  44   101  50  49   101  50  49   102  51  48   103  53  46   103  53  44   103  53  44   103  53  44   103  53  46   102  51  48   106  52  52   106  51  54   105  50  53   109  52  58   110  54  57   109  53  56   108  52  55   103  47  50   105  49  50   108  54  54   107  56  53   103  55  51    98  53  50    95  54  52    95  56  57    95  60  64    97  64  71    95  64  72    91  59  70    88  57  65    87  56  62    80  49  54    71  40  45    72  41  46    70  39  45    64  37  44    62  39  47    63  46  54    72  59  68    88  81  89   100  97 104    99  98 104   100 101 106    93  97 100    91  95  98    95  96  98    85  87  86    70  70  70    69  65  64    63  52  50    70  55  52    76  58  54    78  59  53    80  57  51    83  58  53    88  60  56    87  57  55    85  55  57    86  56  58    87  56  61    85  56  60    82  56  57    78  54  52    75  51  47    71  50  47    68  48  50    66  47  51    72  53  57    75  56  58    70  51  53    67  49  49    68  48  47    67  46  41    64  41  35    72  45  36    82  50  39    91  55  41   100  58  44   107  61  45   113  66  48   117  69  49   117  68  51   118  71  55   120  72  58   121  73  63   122  75  67   126  79  73   124  79  74   120  77  71   109  66  60   105  66  59   100  65  59    90  59  54    96  67  63   100  72  71    85  59  60    85  59  58    79  52  45    82  55  46    88  63  56    84  59  52    74  51  43    68  45  37    63  40  34    68  45  39    78  54  50    77  53  49   118  93  89    90  62  59    76  46  46    93  63  63    94  62  63    95  65  65    89  61  58    97  69  65    99  71  67    99  71  67   118  90  86   105  78  71    85  56  50    88  59  53    83  54  48    88  59  51    92  62  54    86  56  48    89  59  51    90  60  50    80  50  40    78  48  38    79  46  37    73  39  30    75  41  32    81  47  38    82  48  39    85  51  42    83  49  40    73  39  30
 65  39  38    58  34  30    51  32  26    51  34  26    55  35  26    59  36  28    69  39  31    77  44  37    86  53  46    92  59  52    97  67  59   102  72  64   109  80  72    91  64  55    69  42  33    82  58  48    77  55  44    78  55  47    72  49  41    71  48  40    78  55  49    80  57  51    78  54  50    83  58  54    83  55  52    90  60  58    88  60  57    80  52  49    75  50  46    76  51  47    68  44  40    58  34  30    65  41  37    63  39  35    64  39  35    67  42  38    73  45  42    74  46  43    71  41  39    65  37  33    62  34  30    56  31  24    50  27  21    48  27  22    51  30  27    51  31  30    48  30  30    46  28  28    41  25  26    45  29  30    47  31  32    37  21  21    61  43  43   135 117 115   148 128 127   140 120 119   151 130 129   160 136 134   161 136 132   168 140 136   168 139 133   139 112 105   115  87  84   117  93  91   141 121 122   158 142 143   160 145 150   145 130 135   139 122 128   136 120 123   133 115 115   134 113 112   112  82  82    99  67  68    98  64  65    99  65  66    90  56  57    84  50  51    87  53  54    87  55  56    94  63  61    96  66  64    94  63  61    96  62  61   107  68  69   109  69  70   111  66  69   117  70  76   105  60  67    96  53  62    88  45  54    82  41  49    81  41  49    83  43  51    82  46  50    82  46  50    83  44  47    80  41  44    79  38  42    83  42  46    92  50  54   101  56  61   107  61  64   112  62  65   113  57  60   114  55  57   113  53  55   111  51  53   111  49  50   108  46  47   105  41  42   102  38  39    98  37  36    97  36  35    95  35  34    97  37  36    99  41  37   102  44  40   100  45  40    98  45  41    99  49  48   100  50  51   101  52  48   102  53  46   103  53  44   103  53  42   105  53  42   104  51  43   105  52  48   107  51  50   108  52  53   108  52  53   107  51  54   106  50  51   107  51  52   108  52  53   102  46  49   104  48  49   107  51  52   107  53  51   104  53  50   101  53  51    96  52  51    94  52  54    87  48  53    85  48  56    84  46  57    84  46  59    85  47  58    85  48  56    80  40  48    72  35  42    75  40  47    72  39  48    68  38  48    59  36  46    53  36  46    60  47  57    83  76  84   106 103 112   108 107 115   102 103 108    89  93  96    82  86  89    83  84  86    78  78  78    69  67  68    66  62  59    66  55  49    75  60  53    81  64  56    81  62  55    83  60  52    84  59  54    84  55  51    82  51  49    82  50  53    83  52  57    86  55  60    87  58  62    85  59  60    82  58  56    79  55  51    75  54  51    70  50  52    68  49  53    72  56  59    75  59  60    68  52  53    69  51  51    72  52  51    69  48  43    65  42  36    73  46  37    83  51  40    91  55  41   100  58  42   107  61  45   114  65  48   117  69  49   118  69  52   122  73  58   123  75  61   121  73  63   121  72  65   123  76  70   121  76  71   117  74  68   105  62  56   100  61  54    93  58  52    82  51  46    87  58  54    91  63  62    75  49  50    73  49  47    77  52  45    80  56  46    89  65  55    85  61  51    77  54  46    73  50  42    64  41  35    67  44  38    73  49  45    73  49  45   103  77  76    82  54  53    81  51  51   101  71  71   103  71  74    97  67  67    89  61  58    94  69  65    96  71  67    84  59  54   100  75  70    93  68  63    79  51  47    84  57  50    77  50  43    82  55  48    88  59  53    82  53  45    85  56  48    84  55  47    73  44  36    78  48  40    83  50  41    77  43  34    78  44  35    82  48  39    81  47  38    83  49  40    81  47  38    72  38  29
 64  38  37    59  35  31    54  34  27    54  35  28    55  35  26    56  33  25    62  35  26    69  39  31    80  47  40    89  54  48    98  63  57   110  77  68   126  93  84   103  73  63    75  45  35    92  63  55    85  58  49    84  60  50    78  53  46    74  51  43    81  56  49    82  57  52    79  54  49    82  57  52    83  54  50    88  59  55    88  59  55    80  52  48    77  52  48    78  54  50    72  48  44    60  36  32    65  41  37    63  39  35    63  38  34    67  42  38    74  46  43    77  49  46    75  45  43    70  41  37    61  36  31    55  32  26    48  25  19    45  24  19    48  27  24    50  31  27    49  29  28    47  29  29    44  26  26    46  30  30    47  31  32    36  20  20    60  44  44   139 121 121   152 134 132   144 124 123   142 121 120   142 118 116   136 111 107   145 117 113   150 123 116   125  97  93   105  77  74   112  86  85   135 113 115   151 132 134   153 136 142   146 131 138   147 132 139   145 130 135   135 119 122   131 112 114   103  78  81    94  65  67    97  67  69   102  72  72    93  61  62    86  54  55    91  60  58    96  65  63   100  69  67   100  69  67    97  63  62    99  63  63   109  70  71   109  67  71   102  57  62   100  53  59   100  55  62    93  48  55    84  41  48    83  40  47    85  44  50    87  48  53    86  47  52    83  44  47    82  43  46    79  40  41    79  39  40    85  45  46    96  54  56   106  61  64   110  64  67   112  63  66   115  61  61   115  56  58   111  52  54   110  50  52   108  48  48   107  45  46   104  42  43   101  39  40    99  38  37    96  36  35    96  36  35    96  38  36    98  43  40   100  45  40    98  45  41    94  43  39   100  49  48   100  50  49   102  51  48   103  53  46   104  54  45   105  52  44   104  51  43   104  51  45   106  53  49   103  49  47   103  49  49   103  49  49   102  48  48   101  47  47   100  48  50    99  47  49   106  51  54   108  52  55   108  53  56   109  55  55   107  56  55   105  57  57   101  55  57    95  53  55    89  48  54    85  45  53    80  40  49    74  37  45    70  33  41    67  30  37    67  31  35    68  32  36    60  28  33    56  25  31    51  24  31    46  23  31    40  20  29    45  32  41    77  66  74   108 101 108   105 100 107    98  96 101    88  86  89    79  77  78    78  74  73    77  72  69    72  64  62    66  55  51    64  47  40    74  54  47    80  57  51    79  54  47    81  54  47    82  53  49    78  47  44    73  42  40    85  53  54    87  55  58    88  58  60    89  60  62    86  60  61    81  57  55    77  53  49    72  51  48    71  52  54    69  50  54    74  58  61    75  59  62    68  52  53    70  52  52    74  54  53    71  50  45    67  42  35    74  47  38    84  52  41    92  56  42    98  59  42   105  62  45   113  66  50   117  68  51   120  71  54   125  76  61   125  77  63   121  73  61   118  71  63   120  73  67   118  73  68   114  71  65   103  64  57    96  59  53    86  53  48    71  40  37    75  47  44    80  54  53    69  44  47    70  46  46    85  62  56    87  63  53    95  70  63    88  63  56    80  55  48    74  49  42    63  35  31    63  35  31    72  44  41    74  46  43    91  63  60    78  50  47    88  58  58   107  77  77   110  80  80    95  65  65    81  53  50    89  61  57    92  64  61    77  49  45    95  67  63    96  68  64    88  60  56    94  66  62    79  52  45    82  55  48    89  60  54    84  55  49    87  58  50    85  56  48    74  45  37    85  55  47    88  55  46    81  48  39    81  48  39    82  49  40    80  47  38    80  47  38    79  46  37    70  37  28
 68  43  39    65  40  35    51  28  22    44  21  13    52  29  21    58  35  27    63  40  32    76  49  40    85  50  44    98  59  52   109  70  63   114  74  66   123  83  75   112  74  65    91  53  44    99  65  56    94  61  54    78  49  43    75  47  43    72  47  40    78  51  44    83  56  47    79  52  43    85  57  46    83  53  45    87  57  49    86  57  51    83  56  49    82  57  52    81  58  52    73  52  47    65  44  39    61  40  37    69  45  43    69  43  42    76  50  49    74  46  43    63  33  31    68  37  34    71  42  38    64  39  34    55  31  27    51  27  23    47  26  21    43  22  19    47  28  24    53  34  30    51  33  31    45  27  25    53  35  33    50  34  34    49  33  33    59  43  43   122 106 106   154 138 138   142 127 124   145 127 123   140 121 115   130 110 103   130 107 101   137 109 105   127  99  95   112  82  80   107  77  77   125  96  98   137 112 115   147 124 130   151 131 140   153 136 146   151 135 145   132 119 129   112  99 108   100  81  85    90  70  72    90  68  70    91  67  67    87  61  60    94  66  63   102  74  70   101  72  68   106  72  70   112  77  75   117  78  79   113  73  74   104  62  66    96  51  58    94  47  57    94  47  55    92  47  52    95  53  57    97  55  59    94  52  56    92  50  54    92  52  53    90  50  51    85  45  46    86  46  47    82  42  42    84  44  44    93  53  53   100  60  60   103  61  62   105  63  64   111  65  65   110  59  58   110  54  53   107  51  50   106  48  47   104  46  45   104  44  44   103  43  43   102  42  42    92  32  32    91  33  32    89  33  32    91  37  35    92  41  38    93  42  38    91  42  38    89  40  35    98  45  41   102  47  44   105  50  47   106  51  48   106  51  46   104  51  45   105  52  48   106  53  49   103  52  49   105  54  53   101  51  50    98  48  49    99  51  51   103  55  55   101  52  55    96  47  50   103  52  57   100  49  54    98  47  52    97  46  51    95  46  50    90  44  47    84  39  42    78  36  40    76  35  39    72  33  38    64  29  33    59  27  30    56  26  28    54  25  27    52  24  23    48  22  21    47  21  22    43  17  18    46  21  24    40  18  21    34  15  19    33  17  20    58  43  46   109  97  99   110  98 102   106  94  96    97  85  85    88  74  73    78  63  60    74  59  54    77  59  55    82  61  56    77  47  45    85  51  49    89  55  53    88  54  52    86  51  49    83  49  47    85  50  48    86  52  50    84  53  51    91  60  58    91  61  61    83  55  54    72  48  48    70  49  48    71  51  50    70  52  50    69  51  51    67  51  52    75  59  60    70  54  55    70  51  53    76  58  58    72  52  51    72  51  46    74  49  42    73  45  34    83  51  38    94  58  44    96  57  42   102  60  46   113  67  54   117  69  55   118  69  54   119  70  55   122  74  60   125  79  66   124  80  69   120  77  68   111  71  63   101  62  55    98  63  57   100  67  62    83  54  50    69  41  40    66  40  41    78  53  56    64  42  44    76  55  54    87  63  59    81  56  49    81  56  51    87  59  55    84  55  51    73  42  39    70  36  34    74  39  37    79  44  42    95  61  59   102  68  66    86  55  52    85  55  53    94  66  63    95  70  66   114  86  82    80  51  47    76  45  40    75  46  42    75  46  40    90  61  55    99  72  65    91  64  57    97  70  63    85  58  51    81  54  47    85  56  50    85  56  50    78  47  42    76  45  40    81  50  45    82  52  44    80  52  41    69  41  29    72  44  33    75  47  36    68  40  29    70  42  31    71  43  32    60  32  21
 72  47  42    69  44  39    56  31  24    48  23  16    52  29  21    56  33  25    59  39  30    71  47  37    82  48  39    97  59  50   109  69  61   116  73  64   126  82  73   115  72  63    96  53  46   101  62  55    91  56  50    78  47  42    78  49  45    76  48  44    79  52  45    82  55  46    78  50  39    84  56  44    81  51  41    84  54  44    85  55  47    82  55  46    80  55  50    77  57  50    71  50  45    62  43  37    65  44  41    66  45  42    64  38  37    73  47  46    81  51  49    77  47  45    80  49  46    74  45  41    68  43  39    57  33  29    50  29  24    47  26  21    43  22  19    49  28  25    56  37  33    56  37  33    52  34  32    57  39  37    55  37  35    53  38  35    62  46  46   120 106 105   154 140 139   152 137 134   152 137 132   148 131 124   136 117 111   128 108 101   124  99  95   111  83  80   103  73  71   109  79  79   122  92  94   134 105 109   144 119 125   151 130 139   155 138 148   149 136 146   127 115 127   103  91 101    94  79  84    92  78  78    89  73  74    86  68  66    89  70  66   104  80  76   111  86  81   108  81  74   109  78  73   112  77  73   111  72  73   103  63  64    93  50  57    90  45  52    94  46  58    97  51  61    95  53  57    96  56  57    97  55  57    93  51  53    92  50  52    93  51  53    90  48  50    85  43  44    88  48  48    87  47  47    90  50  50    98  58  56   104  63  61   106  65  63   108  67  65   113  69  68   115  65  64   113  59  57   109  53  52   106  50  49   105  47  46   102  44  43    98  40  39    95  37  36    92  34  33    90  34  33    90  36  34    90  39  36    91  42  38    91  43  39    89  44  39    90  42  38    96  43  39   100  45  40   102  47  44   104  49  46   102  49  45   102  49  45   101  50  47   102  51  48   104  54  53   104  56  54   102  54  54    96  50  50    95  49  51    93  49  50    87  43  44    80  35  38    87  42  45    83  38  43    81  34  40    77  32  37    76  31  36    72  30  34    69  27  31    65  24  28    58  19  22    55  21  22    53  21  22    53  25  24    54  28  27    54  30  28    52  31  28    51  30  27    49  25  23    43  19  17    44  23  22    43  22  21    42  22  23    42  23  25    63  44  46   105  89  90   113  94  96   106  88  88    95  77  75    85  66  62    78  57  54    78  54  50    79  56  50    84  56  52    84  49  47    91  51  51    93  53  53    91  51  49    85  47  44    82  44  41    80  45  41    81  48  43    85  52  47    88  59  55    87  59  55    77  52  48    70  46  44    68  48  47    71  53  51    73  55  55    72  54  54    71  55  55    80  61  63    73  54  56    71  52  54    77  57  58    72  51  50    75  51  47    78  51  42    75  47  35    87  53  41    98  62  48   101  62  47   106  64  50   116  69  59   118  70  58   121  73  59   121  74  58   122  76  61   122  78  65   121  77  66   114  74  64   111  73  64   108  71  63    99  66  61    98  67  64    83  53  51    69  43  42    69  43  44    77  52  55    64  42  45    79  57  59    93  69  65    83  60  54    82  54  50    86  57  53    86  55  52    83  48  46    85  47  46    92  52  52    88  48  48   103  65  64   109  74  72    88  57  54    82  53  49    88  63  58    91  66  61   105  80  75    82  51  46    76  43  38    72  41  36    75  44  39    87  58  52    89  60  54    78  51  44    84  57  50    80  53  46    75  48  41    77  48  42    78  49  43    78  47  42    83  52  47    90  57  52    83  53  45    81  53  42    73  47  34    75  48  37    73  46  35    65  38  27    71  44  33    74  47  36    60  33  22
 75  50  45    73  48  43    62  37  30    53  28  21    52  29  21    54  31  23    56  36  27    67  43  33    79  46  37    95  57  48   108  68  60   116  73  64   125  81  72   116  73  64   100  57  50   103  64  57    89  54  48    78  47  42    81  52  48    79  51  47    79  52  45    80  53  44    76  49  38    84  56  45    80  50  40    83  53  43    84  54  46    81  54  45    79  54  49    74  54  47    69  48  43    62  43  37    69  48  45    65  44  41    59  33  32    69  43  42    86  56  54    93  63  61    96  65  62    80  51  47    72  47  43    60  36  34    53  29  27    49  25  23    45  24  21    53  32  29    61  41  40    62  42  41    64  44  43    62  44  42    58  40  40    58  42  42    61  45  45   109  93  93   143 127 127   152 136 136   154 139 136   150 132 128   139 120 116   129 108 103   118  94  92    99  73  72    93  67  66   107  78  80   109  80  82   117  90  95   127 104 110   138 118 127   146 129 139   141 128 138   119 107 119    97  85  95    97  85  89   102  90  90    95  81  81    83  69  66    93  78  73   113  94  88   117  97  90   114  89  82   110  83  76   108  77  72   102  68  67    91  55  55    83  44  49    82  41  47    89  46  56    95  52  61    97  56  62    96  57  60    95  54  58    93  52  56    94  53  57    96  56  57    93  53  54    88  48  49    92  50  52    93  51  52    98  56  57   104  62  63   110  66  67   111  67  68   113  69  68   118  72  72   118  67  66   114  60  60   108  54  54   105  51  51   105  49  50   101  45  46    94  38  39    88  32  33    85  29  30    85  31  31    84  33  32    84  34  33    83  35  33    83  38  35    84  39  36    86  41  36    92  43  38    95  44  40    96  47  43    97  48  44    96  47  43    95  46  42    95  47  45    96  48  46    96  50  50    92  48  47    86  42  43    77  35  36    74  32  33    73  31  32    70  30  31    66  26  27    68  28  29    65  26  27    62  22  23    59  20  21    59  20  21    59  20  21    59  20  21    56  20  20    54  20  19    51  21  19    51  23  20    52  27  23    53  29  25    51  32  26    49  30  24    47  28  22    53  32  29    45  21  19    42  21  20    46  25  24    52  32  33    57  37  38    74  54  56   105  86  88   109  89  90    98  78  79    86  65  64    79  55  53    77  53  51    78  53  49    81  53  49    81  52  46    85  50  46    88  50  47    90  52  49    89  52  46    85  48  42    81  44  38    79  44  38    80  47  40    84  51  44    85  56  50    84  57  50    74  51  45    67  46  41    67  48  44    72  54  50    76  58  56    74  56  56    76  58  58    82  62  64    73  53  55    72  52  54    77  55  57    73  49  49    76  51  47    82  53  45    78  48  37    91  55  43   103  65  52   108  66  54   111  67  56   118  71  63   119  71  61   125  77  65   124  76  62   123  77  64   121  77  64   117  73  62   108  68  58   108  70  61   115  78  70    99  66  61    96  65  62    82  52  50    73  47  46    73  47  48    78  54  54    66  44  46    85  64  63    95  71  67    84  61  55    84  56  52    85  56  52    87  56  53    88  53  51    88  50  49    94  56  55    95  57  56   103  65  64   110  75  73    89  58  55    84  55  51    92  67  62    89  64  59    94  69  64    71  40  35    70  37  32    72  41  36    80  49  44    89  60  54    85  56  50    71  44  37    75  48  41    74  47  40    70  43  36    71  42  36    72  43  37    79  48  43    92  61  56    98  65  60    84  54  46    79  51  40    74  47  36    77  50  39    72  45  34    62  35  24    71  44  33    76  49  40    62  35  26
 75  50  45    74  49  44    68  43  36    58  35  27    53  30  22    53  30  22    56  36  27    66  42  32    80  47  38    95  59  47   106  66  56   113  73  61   123  79  68   118  74  63   108  65  56   108  70  61    90  55  49    81  50  45    84  55  51    80  52  48    79  52  45    79  52  45    77  50  41    87  59  48    82  52  42    84  54  44    85  56  48    84  57  48    81  56  51    75  55  48    70  49  44    65  46  40    69  48  45    65  44  41    58  34  32    69  43  42    85  57  54    99  69  67   105  74  71    86  56  54    72  46  45    60  36  34    53  29  27    51  27  25    49  28  25    58  37  34    67  46  45    66  46  45    71  51  50    67  47  46    62  42  43    63  45  45    59  41  41    88  72  72   120 102 102   136 120 120   143 127 127   135 119 119   126 108 106   118  98  97   105  84  83    79  58  57    69  45  45    78  53  56    84  59  62    93  68  72   105  84  89   120 100 109   128 112 122   125 112 122   111  99 111    98  86  96   107  98 101   112 103 104    97  87  86    84  73  71   100  86  83   114  99  94   116  97  90   116  96  87   111  86  79   107  79  75    97  67  65    85  54  52    79  43  47    78  42  46    84  44  52    90  50  58    98  59  64    96  57  60    95  56  59    96  57  60   101  60  64   101  60  64    97  56  60    92  52  53    93  51  53    99  54  57   105  60  63   111  65  67   113  67  69   113  67  69   115  69  71   120  72  72   114  62  64   108  57  56   105  50  53   103  49  49   104  49  52   101  47  47    93  38  41    85  31  31    78  26  28    79  29  28    80  30  31    77  32  29    77  31  31    76  32  29    77  36  34    82  38  35    87  42  37    88  43  38    89  44  39    87  44  38    85  40  37    83  39  36    83  39  36    82  41  37    78  37  35    75  35  33    71  31  31    67  27  27    64  26  25    64  26  25    62  26  26    62  26  26    56  22  21    54  23  21    55  21  20    55  21  20    56  22  21    57  23  22    56  25  23    56  25  23    60  30  28    58  30  27    55  30  26    55  31  27    54  33  28    52  33  27    49  32  25    48  29  23    62  38  36    51  27  25    47  23  23    54  33  32    66  44  46    75  53  55    89  67  69   108  86  88   100  78  80    89  68  67    79  55  55    76  50  49    80  52  49    83  55  51    82  53  47    81  50  45    84  49  45    84  49  43    88  51  45    88  54  45    88  51  43    82  48  38    83  49  40    85  52  43    81  51  41    84  55  47    83  56  47    76  53  45    69  49  42    69  50  44    73  56  49    79  61  57    73  53  52    76  56  57    80  58  61    71  49  52    72  50  53    78  53  56    72  46  47    79  51  48    82  52  44    81  49  38    92  56  44   106  66  54   111  67  56   115  68  58   120  71  64   118  70  60   124  76  64   125  79  64   125  79  66   121  77  64   115  73  61   102  62  52   101  63  54   110  76  67    96  61  57    91  60  57    79  49  47    77  49  48    78  52  53    83  59  59    73  48  51    93  72  71    90  66  62    83  58  53    87  59  55    88  59  55    89  58  55    87  53  51    78  43  41    81  43  42   100  62  61    94  59  57   103  69  67    91  60  57    91  62  58   104  76  72    90  65  60    84  59  54    67  36  31    79  46  41    86  55  50    92  61  56    94  65  59    85  56  50    71  44  37    70  43  36    70  43  36    71  44  37    75  46  40    76  47  41    82  51  46    97  66  61   102  69  64    86  56  48    74  45  37    68  41  30    72  45  34    70  43  32    61  34  23    67  40  29    74  47  38    65  38  29
 73  48  43    73  48  43    71  48  40    64  41  33    54  31  23    50  30  21    56  36  27    66  42  32    82  50  39    97  61  49   105  65  53   111  72  57   120  76  63   118  74  61   114  72  60   113  73  63    96  59  51    86  53  48    86  57  53    81  53  49    76  51  46    77  52  45    79  52  45    91  62  54    86  56  46    87  57  47    89  60  52    89  62  53    85  60  55    77  57  50    73  52  47    70  51  45    66  47  43    64  43  40    62  38  36    71  45  44    81  53  50    95  65  63   107  76  73    91  61  59    71  45  44    58  34  34    53  29  29    53  29  29    54  30  30    61  40  39    69  47  49    67  45  47    72  50  52    68  48  49    64  44  46    69  49  51    60  40  42    75  56  58    99  79  81   121 102 104   114 100 100   110  96  96   100  86  86    92  76  77    79  61  61    55  35  36    43  21  23    50  28  31    56  34  37    67  46  51    87  68  74   107  90  98   118 102 112   116 103 112   109  97 107   103  93 101   113 107 111   112 106 106    96  88  86    88  80  77   105  96  91   110  99  93   111  96  89   122 105  97   117  97  90   108  85  79    91  66  62    79  51  48    75  43  46    77  45  48    84  49  55    88  53  59   100  65  69    98  62  66    97  61  65   100  64  68   104  65  70   102  61  65    96  55  59    92  50  54    96  51  56   102  57  60   109  63  66   114  65  69   114  65  69   114  65  69   115  66  70   116  66  69   110  60  63   104  54  55    99  47  51    97  45  47    97  45  49    94  42  44    85  33  37    77  27  28    73  24  27    73  27  27    75  29  31    73  32  30    72  30  31    71  31  29    73  35  34    75  37  34    75  36  31    76  37  32    75  36  31    71  34  28    69  29  27    65  27  24    65  27  24    64  29  25    62  27  25    63  29  27    67  33  31    71  37  35    70  36  35    67  33  32    62  31  29    59  29  27    55  27  24    54  29  25    57  29  26    58  30  27    58  30  27    58  30  27    58  28  26    57  29  26    60  32  29    57  32  28    56  31  27    57  33  29    58  37  32    59  40  34    59  42  35    60  41  35    71  47  45    63  37  36    62  36  37    74  50  50    85  61  61    90  66  66    96  72  72    99  75  75    91  65  66    83  57  58    78  49  51    77  49  48    83  53  51    87  56  53    85  54  49    84  51  46    84  51  44    83  50  41    87  53  44    91  59  48    91  57  47    85  53  40    84  52  41    88  56  45    82  52  41    84  56  45    86  59  48    81  59  48    74  54  45    71  52  45    74  57  49    80  61  55    71  50  49    74  53  52    76  51  54    67  42  45    72  47  50    79  53  54    73  45  44    80  51  47    82  49  42    80  46  36    93  55  44   106  66  54   110  66  55   114  67  57   118  69  62   117  69  59   121  73  61   126  80  65   125  79  66   120  76  63   114  72  60    99  59  49    94  56  47   101  67  58    92  57  53    86  55  52    76  46  44    77  49  48    81  55  56    89  65  65    80  55  58   101  77  77    88  62  61    82  57  53    91  63  60    91  61  59    90  59  57    88  54  53    75  39  39    75  39  39   100  64  64    86  50  50   102  68  67    99  68  66    97  67  65   107  79  76    88  63  59    80  52  48    81  50  45   103  70  65   106  75  70    98  67  62    92  63  57    85  56  50    75  48  41    68  41  34    69  42  35    76  49  42    85  56  50    84  55  49    84  53  48    94  63  58    99  66  61    86  56  48    67  38  30    58  30  19    66  38  27    72  44  33    63  34  26    63  34  26    71  42  34    69  40  32
 70  45  40    72  47  42    75  52  44    68  45  37    51  31  22    48  28  19    56  36  27    65  41  31    81  49  38    96  60  46   102  65  49   110  71  54   117  74  58   117  74  58   117  75  61   112  72  62    98  61  53    87  54  47    86  57  51    80  52  48    76  51  46    78  53  48    79  51  47    90  63  56    86  57  49    87  59  48    89  62  53    91  64  55    86  61  56    79  56  50    73  52  47    73  54  48    63  44  40    62  43  39    64  43  40    74  50  48    75  50  46    87  57  55   104  73  70    95  65  63    72  46  45    59  35  35    53  29  29    52  28  28    53  29  29    62  38  38    68  43  46    63  41  43    69  44  47    67  45  47    66  44  47    74  54  56    65  43  46    72  52  54    89  67  70   112  93  97   108  93  96   107  95  99    99  84  89    83  68  71    64  48  51    40  24  27    31  12  16    37  18  22    35  16  20    47  28  34    72  55  61   100  85  92   115 102 109   116 103 112   111 100 108   110 100 108   111 105 109   105 101 102    93  87  87    96  91  88   114 104 102   112 101  97   112  99  93   128 113 106   125 106 100   107  87  80    85  61  57    71  46  42    72  44  43    81  51  53    89  58  63    94  62  67   105  70  74   101  66  70   100  64  68   102  66  70   102  63  68    98  57  63    92  49  56    89  47  51    98  53  58   104  59  64   110  63  69   113  64  68   114  63  68   114  63  68   112  61  66   108  57  62   106  57  60   100  51  54    93  44  47    89  40  43    86  37  40    82  33  36    74  25  28    65  19  21    62  18  19    62  20  21    63  23  23    64  26  25    62  27  25    61  27  25    62  28  26    62  28  26    62  29  24    63  30  25    61  28  23    58  25  20    54  21  16    52  19  14    50  19  14    51  20  15    58  27  24    58  29  25    64  33  30    67  38  34    67  36  34    62  32  30    59  29  27    59  31  28    60  35  31    61  37  33    63  39  35    63  38  34    61  36  32    60  32  29    59  31  28    60  30  28    65  37  34    64  36  33    61  36  32    63  38  34    67  43  39    69  48  43    71  50  45    74  50  46    84  56  55    83  53  53    84  55  57    97  68  70   100  71  73    96  67  69    94  65  67    84  56  55    86  56  58    82  52  52    78  48  48    80  49  47    83  52  49    86  55  52    87  54  49    85  52  45    88  55  48    85  52  43    89  57  46    95  63  52    95  63  52    87  55  42    84  52  39    85  56  42    84  56  44    85  59  46    87  60  49    84  62  49    76  56  47    71  53  43    73  56  48    80  61  55    72  51  48    75  51  51    71  47  47    62  37  40    74  48  51    81  55  56    72  44  43    79  50  46    80  47  40    80  46  36    93  55  44   105  65  53   107  63  52   110  63  53   117  68  61   118  70  60   117  71  58   125  82  66   121  77  64   114  72  60   112  72  62   101  63  52    92  55  47    96  62  53    93  58  54    89  56  51    76  45  43    76  46  44    85  57  56    95  69  70    83  57  60    98  72  73    88  62  61    85  57  54    96  66  64    91  61  59    90  59  57    93  59  58    82  46  46    87  51  51   100  64  64    79  45  44   107  73  72   109  78  76    99  69  67   103  73  71    86  58  55    84  56  52    91  60  57   113  80  75   108  77  72    94  63  58    90  61  55    90  61  55    86  59  52    76  49  42    73  46  39    80  53  46    90  61  55    88  59  53    81  50  45    84  53  48    89  56  51    83  50  43    63  33  25    54  26  15    66  38  27    77  49  38    67  38  30    62  33  25    69  40  32    70  41  33
 69  46  40    72  49  43    78  55  47    71  48  40    51  31  22    45  25  16    53  35  25    61  39  28    74  45  31    92  56  42   100  63  47   110  71  54   115  72  56   114  71  55   116  74  60   106  66  54    97  59  50    86  51  45    86  55  50    80  52  48    76  51  47    77  52  47    75  50  45    86  59  52    82  55  46    83  56  45    86  59  50    89  62  53    84  59  54    75  52  46    70  49  44    71  52  46    62  43  39    59  40  36    63  44  40    77  56  53    75  50  46    82  52  50   103  72  69    99  68  66    80  52  51    63  37  38    54  28  29    50  24  25    50  24  25    57  31  32    64  38  41    59  34  37    65  38  43    66  41  45    67  42  46    74  52  55    67  42  46    70  48  51    84  59  65   106  85  90   118 103 110   119 108 114   111  98 105    91  78  85    74  59  66    53  38  43    37  20  26    33  16  22    29  12  18    32  17  24    53  38  45    84  71  78   109  96 103   115 104 110   115 104 110   116 107 112   104  98 102   100  96  97    97  91  91   107 102  99   122 112 110   116 105 101   114 101  95   129 114 107   123 106  99   102  83  77    79  55  51    69  44  40    75  49  48    88  60  59    95  66  68    97  67  69   104  69  75   100  63  70    99  59  67    99  59  67    98  57  65    92  51  57    91  48  55    93  50  57   101  56  63   106  61  66   110  63  69   111  64  70   113  64  70   113  64  70   108  59  63   101  52  56    97  51  54    91  46  49    85  40  43    79  34  37    73  31  33    68  26  28    63  21  23    57  17  18    56  17  18    55  19  19    58  22  22    60  26  25    60  29  27    59  29  27    57  27  25    54  26  22    56  28  24    56  28  24    56  28  24    54  26  22    51  23  19    50  22  18    51  23  19    53  25  21    59  31  28    58  30  27    60  30  28    61  33  30    60  30  28    56  28  25    57  29  26    62  34  31    65  40  36    67  42  38    68  43  39    69  41  38    67  39  36    67  37  35    68  37  35    70  39  37    79  48  46    78  47  45    79  48  46    80  50  48    84  54  52    86  58  55    87  59  56    87  59  56    99  67  68   101  67  68   101  67  68   107  73  74   100  68  69    93  61  62    92  60  61    79  48  46    84  52  53    83  52  50    81  50  48    81  47  45    81  47  45    82  49  44    84  51  46    85  52  45    83  53  45    81  51  41    86  56  46    96  66  55    97  67  56    88  58  47    83  54  40    85  56  42    87  59  47    86  60  47    87  60  49    82  60  47    74  54  45    67  49  39    70  53  45    78  59  52    76  55  50    78  54  52    70  46  46    60  36  36    75  49  50    83  57  56    72  44  41    77  48  42    78  45  36    80  46  36    95  57  46   105  65  53   105  61  50   108  61  51   115  68  60   119  72  62   116  72  59   125  83  69   117  75  63   103  63  51   109  69  59   107  69  58    98  61  53    98  64  55   100  65  61    96  63  58    79  48  46    75  45  43    85  55  55    98  70  69    82  53  55    90  61  63    87  59  58    85  55  53    99  69  67    92  62  60    90  59  57    94  63  61    86  52  51    94  60  59    98  64  63    71  37  36   103  69  68   112  81  79   100  70  68   101  71  69    89  59  57    94  65  61    87  56  53   104  71  66    94  63  58    90  59  54    96  67  61    98  69  63    90  63  56    73  46  39    79  52  45    80  53  46    85  56  50    83  54  48    74  43  38    73  42  37    78  45  40    75  42  35    62  32  24    60  30  20    74  45  37    84  55  47    72  43  35    66  37  29    71  42  36    68  39  33
 69  46  40    73  50  44    80  57  49    71  51  42    50  30  21    43  23  14    51  33  23    58  36  25    69  40  26    89  53  37    98  61  45   111  69  53   114  71  54   112  69  52   114  71  55   100  60  48    94  56  47    83  49  40    84  53  48    79  51  47    78  50  47    77  52  48    72  47  42    79  54  47    79  52  43    79  52  41    83  56  47    86  59  50    80  55  50    71  48  42    68  44  40    68  49  43    62  44  40    56  38  34    61  43  39    79  58  55    77  52  48    82  52  50   103  72  69   100  69  67    85  57  56    67  41  42    54  28  29    47  21  22    45  19  20    53  27  28    59  33  36    56  30  33    62  35  40    65  38  43    65  38  43    74  47  52    65  38  43    68  41  46    78  51  58    99  76  84   101  86  93   107  94 103   104  91 100    95  82  91    92  79  88    79  66  73    58  45  52    44  31  38    29  16  23    23  10  17    34  21  28    66  55  61    97  86  92   111 100 106   116 105 111   119 110 115   100  94  98   100  94  98   103  97  99   117 108 109   127 117 116   119 108 106   115 101  98   125 110 105   116  98  94    96  77  71    74  53  48    70  46  42    82  56  55    94  68  67    98  69  71    96  66  68    98  63  69    96  56  64    93  53  61    93  53  61    93  52  60    90  49  57    94  51  58    99  56  63   101  58  65   107  62  69   110  65  70   110  65  70   112  65  71   112  65  71   105  59  62    95  50  53    86  44  46    81  41  42    76  36  37    71  31  32    66  27  28    61  25  25    58  22  22    55  21  20    60  29  27    61  30  28    63  33  31    67  37  35    69  41  38    67  42  38    63  38  34    60  35  31    57  32  28    58  33  28    58  33  28    57  32  27    55  30  25    56  31  26    58  33  28    60  35  30    60  32  29    60  32  29    64  36  33    70  40  38    68  38  36    63  33  31    62  32  30    67  37  35    69  39  37    71  41  39    74  43  41    73  42  40    75  41  40    78  42  42    84  45  46    87  48  49    89  50  51    90  51  52    93  54  55    99  60  61   103  67  67   106  70  70   106  72  71   106  70  70   113  74  77   112  73  76   106  67  70   106  67  70    94  58  60    90  54  54    97  61  61    87  51  51    87  51  51    86  52  50    84  50  48    79  45  43    76  43  38    76  43  38    80  47  42    82  51  46    77  47  39    76  46  36    83  53  43    96  66  56    99  69  59    91  61  50    86  56  45    89  59  48    89  61  49    87  59  48    85  58  47    81  57  47    73  50  42    65  45  38    69  50  43    78  59  53    81  60  55    81  57  53    70  46  44    60  36  36    76  52  52    84  58  57    69  44  40    75  48  41    76  46  36    80  48  35    95  59  47   105  67  54   103  61  49   104  62  50   114  70  61   119  75  66   117  75  63   125  86  71   111  71  59    95  57  44   105  67  56   111  74  65   105  68  60   104  70  61   106  71  67   102  69  64    84  50  48    75  44  42    84  52  53    98  68  68    79  49  51    81  51  51    83  53  53    83  53  51   101  71  69    94  64  62    90  59  57    93  62  60    81  50  48    89  58  56    99  65  64    60  29  27    92  61  59   110  79  77   102  72  70   105  75  73    95  65  63   103  72  70    87  53  51    96  63  58    85  54  49    90  59  54   104  75  69   100  71  65    81  54  47    55  28  21    83  56  49    77  50  43    78  49  43    76  47  41    68  37  32    66  35  30    71  38  33    69  36  31    63  33  25    67  37  27    83  54  46    89  60  52    75  46  38    71  42  34    74  45  39    66  37  31
 72  49  43    73  50  44    72  52  43    67  47  38    55  35  26    45  27  17    50  32  22    63  41  30    70  42  28    85  52  35    99  62  46   107  65  49   106  63  46   104  61  44   105  62  46   108  66  52   108  70  59    87  53  44    78  47  42    79  51  47    75  47  44    72  47  43    76  52  48    77  54  48    80  56  46    83  59  47    85  58  49    81  54  45    79  54  49    78  55  49    73  49  45    63  44  38    67  49  45    62  47  42    63  48  43    72  53  49    80  56  52    85  57  54    95  64  61   104  73  71    86  56  56    66  38  37    55  26  28    52  23  25    49  20  22    50  21  23    53  24  26    51  22  24    59  30  34    63  34  38    68  39  43    72  43  47    74  45  50    75  46  51    78  49  54    77  52  58    72  55  63    78  65  74    83  70  80    82  69  79    86  74  84    92  81  89    79  68  76    56  45  53    46  35  43    27  16  24    30  19  25    54  45  50    77  68  73    93  84  89   101  92  95    99  90  93    89  80  85    94  85  90   112 103 106   126 116 117   122 112 111   122 111 109   128 114 111   126 111 106   117  99  95    90  71  67    66  45  42    75  51  49    87  61  60    95  69  68   107  79  78    98  68  70    89  52  59    91  50  58    90  49  57    90  49  57    91  50  58    95  54  62    99  58  64   102  61  67   103  62  68   106  63  70   106  64  68   104  62  66   100  58  62    94  52  56    88  46  48    82  42  43    76  37  40    71  35  37    72  36  38    74  38  40    69  35  36    61  29  30    61  29  30    66  36  36    68  40  39    71  43  42    65  39  38    62  36  35    66  40  39    64  40  38    62  38  36    66  42  38    61  37  33    61  37  33    62  37  33    65  40  36    70  45  41    72  47  43    73  45  42    71  43  40    71  42  38    76  47  43    82  53  49    83  52  49    78  47  44    73  42  39    71  40  37    74  40  38    79  44  42    83  45  44    86  46  46    85  45  45    85  43  44    88  44  45    93  47  49    96  50  52    96  50  52    99  53  55   106  60  62   116  70  72   122  78  79   125  81  82   121  79  80   117  75  76   116  71  74   117  72  75   111  69  71   101  59  61    96  54  56    98  56  57    99  59  59    99  59  59    94  56  55    84  49  45    82  47  43    80  47  42    78  45  40    80  49  44    84  53  48    79  50  44    76  47  41    79  50  42    86  56  48    90  60  50    90  60  50    90  60  50    93  63  53    97  67  57    92  62  52    83  54  46    75  48  39    72  47  40    71  48  42    70  49  44    76  55  50    83  62  57    83  62  57    77  56  51    73  52  47    74  53  50    74  53  50    72  48  46    69  45  41    70  45  38    82  55  44    81  53  39    93  61  48   104  71  56   102  64  51    93  53  41   105  62  53   123  83  73   105  65  53   103  65  52    98  60  49   102  64  53   113  75  66   111  74  65   103  66  58   100  66  57   103  68  64    86  53  48    78  44  42    82  51  48    87  56  54    83  52  50    82  50  51    88  56  57    87  55  56    83  51  52    95  63  64    98  66  67    87  57  57    78  48  48    79  49  49   101  71  71    94  62  63    88  58  58    93  63  63    95  65  65   109  77  78    87  55  56    97  65  66    94  60  59    89  55  53    84  51  46    89  58  53    86  55  50    99  70  64    85  56  50    63  36  29    59  32  25    75  48  41    75  48  41    69  40  34    69  40  34    75  44  39    67  36  31    61  28  23    66  33  28    60  30  22    78  48  40    82  52  44    73  43  35    70  39  34    69  38  33    62  33  27    58  29  23
 75  52  46    76  53  47    75  55  46    70  50  41    57  39  29    48  30  20    50  32  22    59  39  28    70  42  30    83  50  35    98  61  45   108  66  50   110  67  50   111  66  47   111  68  51   113  71  57   109  71  60    87  53  43    78  48  40    80  53  46    76  51  46    74  50  46    78  54  50    79  56  50    79  55  45    80  56  44    80  53  44    76  49  40    74  49  44    76  51  46    73  49  45    65  46  40    65  47  43    61  46  41    61  46  41    65  47  43    73  49  45    81  53  50    92  61  58    99  68  65    86  56  54    69  41  40    60  32  31    58  29  31    53  24  26    52  23  25    55  26  28    52  23  25    61  30  35    66  35  40    71  40  45    74  43  48    75  43  48    75  44  50    78  45  52    78  48  56    73  52  61    74  58  68    76  60  71    74  61  71    84  72  82    96  84  94    86  76  84    67  57  65    42  32  40    23  16  23    23  14  19    37  28  33    47  38  43    56  47  50    65  56  59    67  58  61    78  69  74    90  79  85   108  97 103   117 106 110   118 106 108   126 112 112   127 111 111   118 100  98   109  89  88    89  68  65    78  54  52    92  68  66   103  77  76   103  77  76   105  77  76    93  63  63    81  45  49    83  42  50    83  42  50    84  43  51    86  45  53    91  50  56    95  54  60    97  58  63   103  62  68   100  61  64    98  59  62    95  56  59    90  51  54    83  44  47    78  39  40    76  37  38    68  34  35    67  33  34    66  32  33    65  33  34    64  34  34    62  34  33    64  36  35    68  40  39    65  39  38    69  43  42    66  42  40    65  41  39    70  46  44    68  44  42    65  41  39    68  44  42    66  41  37    68  43  39    73  45  42    78  50  47    82  54  51    84  56  53    83  53  51    82  51  48    83  52  49    85  51  49    84  50  48    82  47  45    78  43  41    79  41  40    82  44  43    86  46  46    92  48  49    95  49  51    99  50  53    99  49  52    99  47  51    99  47  51   103  48  53   105  50  55   119  64  69   121  66  71   124  69  74   126  74  78   130  78  82   129  79  82   128  78  81   125  76  79   110  64  67   111  65  68   106  61  64    99  55  56    95  51  52    97  53  54    98  54  55    95  54  52    93  53  51    85  48  42    85  47  44    84  49  45    80  47  42    82  51  46    85  54  49    80  51  45    81  52  46    84  55  49    86  56  48    85  55  47    85  55  47    86  56  46    86  56  46    86  56  46    89  59  51    84  54  46    79  50  44    77  50  43    74  49  45    73  49  45    78  54  52    82  61  56    83  63  56    77  57  50    73  53  46    73  52  47    70  49  46    66  45  40    66  43  37    68  45  37    81  57  45    83  57  42    91  62  48   102  70  55   101  65  51    94  56  43   100  62  53   114  76  67    96  58  47    97  61  47    96  58  47    98  62  50   111  74  65   113  76  67   103  69  60   100  66  57   101  66  62    89  54  50    81  47  45    83  49  47    85  51  50    81  50  48    83  49  50    86  52  53    91  57  58    87  53  54    97  63  64    97  65  66    87  57  57    78  48  48    80  50  50    99  71  70    92  62  62    88  58  58    97  67  67    97  67  67   103  71  72    83  51  52   102  68  69   101  67  66    96  62  60    90  57  52    92  61  56    80  49  44    85  56  50    73  44  38    64  37  30    71  44  37    86  59  52    79  52  45    70  41  35    69  40  34    73  42  37    71  40  35    70  37  32    73  40  35    57  27  19    77  47  39    80  50  42    70  40  32    66  35  30    67  36  31    62  33  27    59  30  24
 75  55  48    75  55  48    78  58  49    72  52  43    61  43  33    53  35  25    49  32  22    56  36  25    69  41  29    80  48  35    94  58  42   106  67  50   114  71  54   118  73  54   120  74  58   119  76  60   109  69  57    90  54  42    78  48  38    80  53  46    79  54  47    77  54  48    79  56  50    78  58  49    78  56  45    77  55  42    74  50  40    70  46  36    72  44  40    72  47  42    71  47  43    65  46  40    60  45  40    60  47  41    59  46  40    57  42  37    62  41  36    73  48  44    87  56  53    92  61  58    83  53  51    71  41  39    67  37  35    65  35  35    59  29  29    57  27  27    58  28  28    54  24  24    63  31  34    68  36  39    74  42  45    76  44  47    76  41  45    74  42  47    78  43  49    78  47  53    72  49  57    77  57  66    80  63  73    85  69  79    99  86  95   107  96 104    91  81  90    68  61  69    40  33  40    31  26  32    34  28  32    41  35  39    41  35  37    41  35  37    47  38  41    51  42  45    73  62  68    92  79  86   108  95 102   112 100 104   118 103 108   128 113 116   122 106 107   101  83  83    97  77  76    89  68  67    90  66  64   108  84  82   117  92  88   111  86  82   103  75  72    88  58  58    72  36  40    75  36  41    77  38  43    79  40  45    83  44  49    87  48  53    91  52  57    91  55  57    97  58  61    89  53  55    84  48  50    83  47  47    79  43  43    72  36  36    70  34  34    72  38  37    72  38  39    69  37  38    66  34  35    62  32  32    63  33  33    65  37  36    66  38  37    63  37  36    67  41  40    72  46  45    70  44  43    70  44  43    75  49  48    73  47  46    69  43  42    74  46  45    74  44  42    74  44  42    76  46  44    79  48  46    82  51  48    85  51  49    86  51  49    85  50  48    92  54  53    90  50  48    85  45  43    82  41  39    80  39  37    84  40  39    89  45  44    95  47  47    99  47  49   105  49  52   110  51  55   113  54  58   116  55  60   119  58  63   122  61  66   124  63  68   134  73  78   137  76  81   140  79  84   140  81  85   136  80  83   131  76  79   127  72  75   123  71  75   103  54  58   101  55  58    99  53  55    95  49  51    95  49  51    95  51  50    94  50  49    89  48  44    92  51  47    85  46  39    86  49  43    88  53  47    84  51  44    83  53  45    85  55  47    81  51  43    82  51  46    86  55  50    86  53  48    81  48  41    82  49  42    87  54  47    86  53  44    80  47  38    87  54  47    84  54  46    84  53  48    82  53  47    79  51  48    76  51  47    80  54  53    84  60  56    83  63  54    78  58  49    74  54  47    72  52  45    67  46  41    62  41  36    64  41  35    68  46  35    82  58  46    85  59  44    91  62  48    98  66  51    97  64  49    95  59  45    98  60  51   103  65  56    87  51  39    92  58  46    93  56  47    93  59  49   107  73  63   113  79  69   104  70  61    95  61  52    99  64  60    94  59  55    88  53  51    85  50  48    86  51  49    86  52  50    87  51  51    86  50  50    93  57  59    90  56  57    99  65  66    99  67  68    90  60  60    80  50  50    78  50  49    90  64  63    88  60  59    89  61  60   106  76  76   109  79  79   105  73  74    85  51  52   106  70  72   107  71  71    92  58  56    87  54  49    89  58  53    73  42  37    73  44  38    69  40  34    77  50  43    96  69  62    98  71  64    81  54  47    72  43  37    71  42  36    73  42  37    76  45  40    81  48  43    80  47  42    57  24  19    75  42  37    79  46  41    69  36  31    64  33  28    64  33  28    61  32  28    63  34  30
 73  53  46    72  52  45    78  58  49    72  52  43    63  45  35    58  40  30    49  32  22    54  34  23    67  40  29    78  46  33    91  55  41   104  65  48   115  72  55   121  76  57   122  76  60   119  76  59   108  69  54    91  55  43    80  47  38    80  53  44    81  57  47    78  55  47    76  56  47    77  57  48    79  57  46    77  55  42    74  50  40    70  46  36    72  44  40    70  45  40    68  44  40    63  44  38    57  42  37    61  48  42    60  47  41    55  40  35    59  38  33    70  45  41    82  51  48    86  52  50    78  47  44    70  40  38    69  39  37    69  39  37    63  33  31    61  31  29    63  31  32    58  26  27    61  29  30    67  35  38    76  41  45    78  43  47    77  42  46    76  41  45    80  44  48    80  48  53    75  48  57    81  60  69    87  67  76    95  78  88   113 100 109   120 109 117   102  92 101    80  73  81    68  63  69    62  60  65    65  60  64    68  63  67    65  61  62    59  53  55    59  50  51    61  52  55    75  64  70    95  82  91   110  97 104   113 100 107   121 106 113   128 113 118   113  97 100    89  70  72    86  66  67    90  69  68    97  76  73   110  86  84   117  92  88   112  87  83    96  71  67    81  51  49    67  33  34    70  34  38    75  39  43    80  44  48    83  47  51    85  49  51    86  50  52    85  51  52    86  50  52    78  44  43    74  40  39    76  42  41    74  40  39    69  35  34    69  35  34    75  41  40    74  40  39    74  42  43    72  40  41    67  37  37    70  40  40    74  46  45    73  45  44    68  40  39    74  46  45    78  50  49    75  47  46    75  45  45    79  49  49    79  47  48    76  44  45    79  47  48    79  45  44    78  44  43    77  43  42    78  42  42    82  44  43    87  47  47    91  51  51    94  53  51    97  53  52    96  50  50    95  47  47    93  45  43    95  45  46    98  48  47   102  51  50   106  52  52   111  50  55   117  52  58   121  56  62   125  60  66   130  63  70   134  67  74   136  69  76   138  71  78   137  72  78   142  77  83   145  83  88   145  84  89   138  79  83   127  71  74   118  62  65   111  59  61    97  51  54    95  50  53    94  50  51    94  50  51    96  50  50    97  52  49    93  49  46    90  47  41    92  49  43    85  44  38    89  50  43    94  57  49    88  53  47    87  52  46    87  54  47    85  52  45    78  48  40    82  52  44    82  49  44    76  43  36    81  48  41    93  59  50    93  59  50    85  51  42    86  52  43    87  54  47    88  55  48    85  54  49    81  52  48    80  52  49    84  56  53    88  63  59    84  61  53    78  58  47    76  53  45    72  52  45    69  45  41    65  42  36    67  44  36    74  50  40    83  59  47    86  60  45    89  60  44    92  60  45    95  62  47    98  62  50    99  61  52    97  60  51    84  50  38    94  60  48    93  59  49    92  58  48   104  70  60   110  76  66    99  65  56    87  52  46    97  62  56    98  63  59    94  59  57    88  53  51    88  53  51    93  58  56    93  57  57    90  54  54    95  59  61    96  60  62   101  67  68   100  68  69    92  62  62    80  52  51    74  48  47    80  54  53    79  53  52    81  55  54   105  77  76   116  86  86   105  73  74    85  51  52   100  64  66    95  59  59    90  56  54    84  51  46    89  58  53    74  43  38    72  43  37    72  43  37    87  60  53   108  81  74   100  73  66    79  52  45    73  44  38    75  46  40    73  42  37    79  48  43    86  53  48    80  47  42    60  27  22    71  38  33    74  41  36    71  38  33    68  35  30    60  29  24    60  31  27    70  41  37
 70  50  43    68  48  41    74  56  46    68  50  40    64  46  36    63  45  35    50  33  23    53  33  22    67  40  29    76  44  33    89  53  41   101  62  47   113  70  53   119  74  55   119  72  54   117  71  55   109  67  53    93  57  43    81  49  38    82  54  43    82  58  48    77  55  44    72  52  41    76  56  45    79  60  46    78  56  43    77  53  43    76  52  42    76  48  44    71  46  41    66  42  38    61  42  36    55  42  36    60  49  43    61  50  44    58  43  38    60  39  34    69  44  40    79  48  45    82  48  46    72  41  38    67  38  34    68  39  35    69  40  36    65  34  31    66  35  32    68  34  33    62  28  27    60  26  25    66  32  33    75  39  41    79  43  45    80  44  46    80  44  46    84  45  48    84  49  53    81  51  59    84  58  67    81  58  66    86  66  75   107  92  99   119 106 113   110 100 108   100  95 101   100  98 103    92  91  96    83  81  84    78  76  79    76  72  73    69  65  66    64  58  58    66  57  60    73  62  68    90  79  87   104  91 100   110  97 104   119 104 111   119 104 109   103  87  90    84  65  67    72  54  54    89  69  68   103  82  79   106  85  82   109  85  81   105  81  77    85  62  56    66  41  37    60  30  30    66  34  35    72  40  41    77  45  46    82  48  49    81  47  48    78  44  45    74  43  41    80  46  45    76  42  41    74  40  39    77  43  41    76  42  40    72  38  36    72  38  36    76  42  40    70  36  35    75  41  40    78  44  43    79  45  44    85  51  50    90  59  57    89  58  56    82  52  50    82  51  49    85  54  52    82  48  47    78  44  43    83  47  47    84  45  46    83  44  45    88  49  50    87  47  48    88  48  49    89  49  49    92  50  51    97  53  54   101  55  57   107  59  59   111  61  62   106  54  56   107  53  53   107  51  52   108  52  51   113  54  56   118  60  59   123  63  63   126  64  65   132  66  70   135  64  72   136  65  73   137  66  74   139  68  76   140  69  77   139  69  77   139  69  77   144  77  84   145  80  86   144  82  87   139  78  83   129  70  74   117  61  64   109  53  56   101  51  52    97  52  55    92  52  53    93  51  52    96  54  55    99  55  54    98  54  51    95  50  45    93  48  42    94  49  43    87  44  37    92  49  42    97  57  49    92  53  46    89  50  43    90  53  47    87  52  46    79  46  39    83  50  41    82  47  41    78  44  35    86  52  43   100  63  54   101  64  55    92  55  46    88  51  42    89  55  46    91  57  48    88  55  48    83  52  47    84  55  51    89  60  56    92  64  60    84  60  50    80  58  47    78  53  46    76  53  45    74  49  44    71  46  41    74  49  42    80  56  44    84  58  45    85  57  43    85  56  40    88  56  41    94  60  48   101  65  53   101  63  54    96  59  50    89  55  45    98  66  55    97  65  54    93  61  50   101  68  59   103  70  61    92  57  51    80  45  39    92  57  51    95  60  54    95  57  54    90  52  49    91  53  52    98  60  59    98  60  59    93  54  55   105  66  69   102  66  70    98  63  67    94  62  65    87  57  59    79  50  52    76  50  51    76  52  52    74  50  50    76  50  51    96  67  69   109  79  81    99  67  70    80  45  49    91  55  59    83  47  49    99  65  63    90  57  52    96  65  60    83  52  47    79  50  44    75  46  40    82  55  48    94  67  60    92  65  58    73  46  39    74  45  39    79  50  44    74  43  38    77  46  41    84  51  46    75  42  37    65  30  26    68  33  29    70  35  31    74  41  36    73  39  37    58  27  24    58  29  25    75  46  42
 71  51  44    66  46  39    73  55  45    66  48  38    65  47  37    68  50  40    52  35  25    52  32  23    65  38  29    75  42  33    87  51  39    99  60  45   110  67  50   115  70  51   116  69  51   113  67  51   110  68  52    99  62  46    86  54  41    84  56  44    84  60  48    75  53  42    68  48  37    75  55  44    79  60  46    77  58  44    78  56  45    80  56  46    81  53  49    73  48  43    66  42  38    61  42  36    57  44  38    60  49  43    63  52  46    61  48  42    62  43  37    68  43  39    77  46  43    82  48  46    72  41  36    67  38  32    67  38  32    67  38  34    65  34  31    69  38  35    71  37  35    63  29  27    58  24  23    63  29  28    72  36  36    78  42  44    84  45  48    85  46  49    87  48  51    86  50  54    88  55  62    90  60  68    78  53  59    72  51  58    86  69  75    94  81  88    90  80  88    89  84  90    87  85  90    82  81  86    72  72  74    66  66  68    68  66  67    64  60  61    57  51  51    56  50  52    65  56  61    80  69  77    91  78  87    97  84  93   105  92  99   105  90  97    92  77  82    84  68  71    67  48  50    88  70  70   105  85  84   103  82  79   101  80  75    93  73  66    70  47  41    54  31  25    56  31  27    61  33  32    67  39  38    72  44  43    75  45  45    73  43  41    69  39  37    68  37  35    79  48  46    79  48  45    81  47  45    80  46  44    79  45  43    77  43  41    76  43  38    76  41  37    76  41  39    83  44  45    88  49  50    90  54  54    94  58  58    95  61  60    93  59  58    89  55  54    90  54  54    92  56  56    88  49  50    85  45  46    89  47  49    92  47  50    92  47  50    97  52  55   100  55  58   102  57  60   107  61  63   107  61  63   109  59  62   106  56  57   107  52  55   107  51  52   112  53  55   113  53  53   114  52  53   117  53  54   121  57  58   128  62  63   135  69  70   142  73  76   145  72  79   143  70  79   142  69  78   143  70  79   145  72  81   147  74  83   146  75  83   145  75  83   155  88  95   148  83  89   137  75  80   125  64  69   112  56  59   106  51  54   104  49  52   101  53  53    96  56  57    92  56  56    94  56  55    98  58  56    99  58  54    97  54  48    94  51  44    95  50  44    96  51  45    89  44  38    93  48  42    98  55  48    93  50  44    87  46  40    91  50  46    92  53  48    86  52  43    87  55  44    86  52  42    85  51  41    92  55  46   100  64  52   100  64  52    93  57  45    88  52  40    92  55  46    94  57  48    89  55  46    87  54  47    89  58  53    93  62  57    93  64  58    87  60  51    83  56  45    81  54  47    79  54  47    80  52  48    76  51  44    80  53  46    85  58  47    85  57  45    84  55  41    85  53  38    90  57  42    99  63  51   104  66  55   101  63  54    96  58  49    95  61  51   103  71  60   103  71  60    98  66  55   100  67  58    98  65  56    88  53  47    80  45  39    88  53  47    89  54  48    90  52  49    88  50  47    91  53  52    97  59  58    96  58  57    91  52  53   110  71  74   107  68  73    93  57  61    84  52  55    80  50  52    76  50  51    81  55  56    78  54  54    82  58  58    81  57  57    92  63  65   104  74  76    96  64  67    84  48  52    95  56  61    92  53  56   103  68  66    90  57  52    98  67  62    89  58  53    85  56  50    79  50  44    80  53  46    83  56  49    82  55  48    69  42  35    74  45  39    79  50  44    71  40  35    71  40  35    79  46  41    73  40  35    67  32  28    66  31  27    68  33  29    76  41  37    75  41  39    59  28  25    58  27  24    74  45  41
 74  55  48    67  48  41    75  57  47    65  47  37    65  48  38    71  54  44    53  36  26    52  32  23    63  36  29    74  41  34    87  50  41    99  59  47   108  65  49   113  67  51   115  68  50   113  67  51   113  71  55   105  68  52    93  61  48    89  61  49    86  62  50    74  52  39    67  48  34    74  56  42    77  59  45    74  55  41    76  54  43    81  57  47    82  54  50    74  49  44    68  44  40    64  45  39    60  47  41    58  49  42    60  51  44    63  50  44    62  43  37    65  40  36    75  44  41    85  51  49    77  46  41    70  41  33    69  39  31    66  35  30    65  34  29    70  39  34    73  40  35    63  30  25    60  25  23    63  28  26    71  33  32    79  40  41    86  46  47    89  49  50    88  48  49    86  47  50    90  55  61    95  64  70    81  54  59    68  45  51    72  53  59    66  51  58    54  44  52    55  50  56    52  50  55    55  54  59    52  52  54    52  52  54    58  56  57    56  54  55    53  49  48    57  51  53    64  54  62    77  67  76    82  71  79    81  70  78    86  75  81    88  75  82    86  71  76    87  72  75    74  58  59    90  72  72   103  85  83    99  80  76    92  73  67    79  60  53    57  37  30    55  35  28    58  34  30    60  36  32    64  39  35    67  42  38    71  43  40    71  43  40    70  42  39    70  41  37    79  48  45    84  53  50    85  51  49    80  47  42    81  46  42    85  50  46    85  50  46    82  44  41    88  48  48    89  49  49    93  53  53    96  58  57    95  57  56    92  54  53    89  51  50    90  52  51    94  54  54    96  56  56    93  51  52    93  49  50   101  52  55   103  53  56   103  53  56   108  58  61   112  63  66   113  64  67   114  64  67   111  61  64   108  53  56   104  49  52   104  45  49   105  45  47   115  53  56   121  57  58   127  61  63   132  64  65   135  65  67   140  68  71   145  73  76   151  76  80   152  77  84   149  73  83   147  71  81   148  72  82   150  77  86   154  81  90   155  84  92   154  84  92   151  84  91   140  75  81   123  62  67   109  50  54   100  45  48    98  48  49   101  51  52   101  55  55    94  58  58    90  59  57    92  58  56    95  60  56    95  58  52    90  51  44    91  48  41    94  49  43    99  55  46    92  45  37    94  47  41    97  52  46    91  46  41    87  42  37    93  48  45    95  54  48    95  58  49    92  58  46    91  57  45    91  57  45    96  60  48    98  62  48    96  58  45    92  54  41    88  50  37    92  56  44    95  59  47    92  58  48    93  59  50    95  62  55    96  63  56    92  62  54    90  60  50    84  56  45    82  53  47    83  56  49    83  54  50    80  53  46    80  51  45    83  55  44    85  55  44    84  52  39    87  54  39    97  61  47   104  66  55   105  65  55    99  59  51    93  55  46    97  63  53   103  73  62   103  73  62   100  70  59   102  69  60    95  62  53    88  53  47    87  52  46    92  57  51    90  55  49    90  52  49    91  53  50    97  57  57   100  60  60    98  58  58    93  53  54   103  62  66   103  64  69    90  54  58    83  51  54    82  52  54    80  54  55    84  58  59    76  52  52    81  57  57    84  60  60    92  63  65   103  73  75    97  65  68    86  50  54    97  58  63   101  62  65    97  62  60    84  51  46    94  63  58    87  56  51    84  55  49    80  51  45    84  57  50    87  60  53    75  48  41    68  41  34    73  44  38    75  46  40    65  34  29    64  33  28    75  42  37    77  44  39    64  29  25    66  31  27    67  32  28    71  36  32    73  39  37    62  31  28    59  28  25    67  38  34
 79  60  53    70  52  42    78  58  49    66  48  38    67  49  39    73  56  46    53  36  26    50  32  22    62  35  28    71  41  33    85  51  41    99  59  47   108  65  49   114  67  51   115  68  50   116  69  53   117  74  58   110  72  59    99  65  53    94  64  53    90  63  52    75  51  41    68  46  35    77  58  44    76  56  45    72  52  41    74  52  41    79  54  47    80  55  48    75  50  45    71  47  43    68  49  43    62  49  43    59  48  42    59  48  42    62  49  43    60  43  36    59  38  33    72  44  41    85  56  52    82  53  47    75  45  37    70  40  32    66  36  28    65  35  27    71  41  33    74  41  34    63  30  23    62  27  23    64  29  25    71  33  30    79  41  40    87  47  47    90  50  51    88  48  49    84  45  48    87  52  56    95  64  69    84  55  60    67  42  46    63  44  48    51  36  41    38  27  31    40  34  38    43  38  42    47  45  48    45  43  46    43  41  44    49  47  50    52  50  53    58  53  57    68  63  67    67  60  68    82  72  81    82  71  79    73  62  70    75  64  70    80  68  72    84  69  74    90  74  77    88  72  75    94  75  77   100  82  80    94  75  71    85  66  60    68  49  42    52  33  26    64  44  37    62  41  36    64  40  36    65  41  37    67  42  38    71  43  40    74  46  42    77  48  44    79  48  45    78  44  42    86  53  48    86  53  48    79  46  41    81  46  42    91  56  50    93  58  54    89  51  48    87  47  47    86  46  47    90  50  50    96  56  56    95  55  55    89  49  49    90  50  50    95  55  55    96  52  53   100  56  57    99  53  55   101  52  55   108  58  61   110  58  62   111  56  59   116  61  64   119  64  67   117  62  65   114  59  64   110  54  57   107  51  54   110  51  53   116  56  58   123  58  62   124  58  60   136  65  69   149  77  80   157  82  86   159  83  87   158  82  86   158  82  84   161  82  87   165  85  94   160  80  91   154  76  89   151  75  85   153  77  87   153  82  90   154  84  92   152  85  92   133  71  76   123  62  67   107  51  54    98  43  46    93  43  44    96  48  48    99  53  53   101  57  56    96  58  55    92  57  53    93  58  52    97  60  54    93  54  47    86  48  39    86  46  38    92  49  42   101  57  48    91  47  38    91  46  40    96  51  45    89  44  38    85  40  35    92  47  42    98  55  49    97  59  50    94  58  46    94  58  46    96  60  46    98  62  48    96  60  46    94  56  43    92  54  41    86  48  35    92  54  41    96  58  47    97  59  48    98  61  52   102  65  56    98  64  55    91  58  49    93  60  51    86  56  48    82  53  47    84  55  49    84  55  49    81  52  46    79  50  42    80  50  40    84  54  43    83  51  38    88  54  42   102  66  54   109  69  59   106  63  54    98  55  46    91  51  43    97  63  53   104  72  61   106  74  63   105  73  62   104  71  62    96  62  53    90  55  49    94  59  53   100  65  59    95  60  54    94  56  53    97  59  56   103  65  64   103  65  64   100  60  60    95  56  57    88  52  54    94  60  61    86  54  57    88  58  58    89  60  62    85  59  58    84  60  60    70  46  44    65  41  41    77  53  51    85  59  60    98  70  69    92  62  64    77  45  46    87  52  56    96  60  62    95  61  59    80  49  44    95  62  57    86  53  48    82  49  44    80  47  42    87  56  51    93  62  57    74  45  39    69  40  34    73  44  38    71  42  36    60  29  24    59  28  23    72  41  36    80  49  44    59  26  21    66  33  28    66  33  28    65  32  27    67  36  33    65  34  31    59  30  26    61  32  28
 66  46  37    75  55  46    78  55  47    72  52  43    76  57  50    82  63  56    69  52  44    48  29  22    57  34  26    67  40  31    81  49  36    96  59  43   107  64  48   115  68  52   117  68  53   118  69  55   112  66  53   108  65  56   103  64  57    92  59  52    94  63  58    92  63  57    77  50  43    80  56  46    80  55  48    74  51  43    72  49  41    76  53  45    78  55  47    76  53  45    73  53  46    75  56  49    67  50  43    66  49  42    63  48  41    59  44  37    54  37  30    53  36  29    64  45  39    79  58  53    89  60  54    84  51  44    75  42  33    70  37  28    70  37  28    73  40  31    73  40  31    72  39  30    59  24  18    66  31  25    73  36  30    73  35  32    77  37  37    84  44  44    89  49  50    88  49  52    85  53  58    87  58  63    80  53  58    65  43  46    59  39  41    59  43  44    53  41  41    44  35  36    40  34  34    36  32  33    33  28  32    36  34  37    51  48  55    67  64  71    69  66  75    64  58  68    50  42  53    51  43  54    67  57  66    80  69  75    83  72  76    90  78  80    97  82  85    92  76  79    93  74  78    93  73  75    92  72  74    87  65  67    75  54  51    62  41  36    60  40  33    68  45  39    66  42  38    71  46  42    77  49  45    79  50  46    80  49  46    82  48  46    85  50  48    89  51  48    85  47  44    90  52  49    86  48  45    80  45  39    85  52  45    86  56  46    85  55  47    88  55  50    88  49  50    92  51  55    95  55  56    96  56  56    96  54  55    94  53  51    96  52  53    97  53  54   104  55  59   105  56  60   110  59  64   114  63  68   117  65  69   117  65  67   115  64  63   116  60  61   118  58  60   112  50  53   111  49  54   109  49  51   111  51  53   126  64  67   138  73  77   135  66  69   142  70  74   145  70  75   151  72  77   156  75  81   160  79  85   162  81  87   161  81  84   158  77  83   166  80  93   164  77  93   168  84 100   168  88 101   157  81  93   148  76  87   139  74  82   126  65  72   108  52  55   106  51  54   102  52  53   101  53  53    98  53  50    97  53  50    97  53  50    97  53  50    99  54  49   101  56  50   100  55  49    97  52  46    96  53  46    98  55  46    92  52  42    86  46  36    90  50  40    92  52  42    92  52  42    89  49  39    88  45  36    89  46  39    94  51  44    98  58  50    94  54  46    94  54  46    93  55  46    94  58  46    98  62  50   103  67  55   109  71  60   112  74  63    94  54  44    99  56  47   102  60  48   105  63  51   105  65  55   104  64  54   102  64  53   100  63  54    93  60  53    89  58  53    87  56  51    86  55  50    86  55  50    84  54  46    79  49  41    76  46  36    85  55  44    88  56  45    96  62  52   106  70  58   108  68  58   104  61  52   105  61  52   108  65  56   108  70  61   110  73  65   115  81  72   106  72  63   100  65  59   100  63  57    93  56  50    98  61  55   102  64  61    92  54  51    94  59  55    97  62  58   103  68  66   104  69  67    97  59  58    96  62  60    82  52  50    76  48  45    82  56  55    89  64  60    78  52  51    68  44  40    76  52  50    88  64  60    72  48  46    77  53  49    87  63  61    90  65  61    83  57  56    82  57  53    90  62  61    92  64  61    82  52  50    72  41  38   105  71  69    95  60  58    76  36  34    86  46  44    86  47  42    99  62  56    69  34  28    75  42  35    71  40  35    68  37  32    61  32  28    67  38  34    81  52  48    72  43  39    55  28  21    58  31  24    55  28  21    55  28  21    63  34  28    63  34  28    59  32  25    63  36  29
 61  39  28    70  48  37    74  51  43    72  52  43    79  59  52    84  65  58    71  54  47    52  33  26    53  33  26    62  38  28    78  46  33    92  55  39   105  62  46   114  67  51   119  70  55   120  71  57   113  65  55   105  60  54   101  62  57    91  56  52    90  56  54    89  58  55    78  49  43    80  53  46    82  55  48    76  51  44    74  51  43    78  55  47    80  57  49    78  55  47    75  55  48    76  56  49    68  49  43    66  47  41    64  47  40    61  44  37    53  38  31    52  37  30    59  46  40    74  57  50    87  58  52    83  50  43    75  42  33    70  37  28    70  38  27    71  39  28    71  39  28    70  38  27    59  25  16    65  31  22    71  34  28    72  35  29    77  37  37    84  44  44    88  48  49    87  48  51    85  53  58    85  56  61    78  51  56    64  42  45    58  38  39    58  42  42    53  39  38    43  31  31    39  30  31    37  31  31    38  32  36    42  37  43    53  48  55    61  58  67    59  56  67    52  49  60    34  28  40    32  26  36    44  37  45    63  54  59    77  66  70    94  80  80   102  86  87   100  81  83    86  66  68    84  62  65    83  58  62    79  53  56    71  45  44    64  39  35    67  42  37    76  48  44    78  50  46    79  50  46    82  51  48    85  51  49    89  54  52    94  56  55    99  59  57   103  62  60    90  49  47   101  60  58    99  60  55    91  54  48    89  54  48    86  53  44    83  53  45    89  56  51    96  57  60    98  57  61    99  59  60   100  58  59   100  59  57   101  57  56   103  57  59   106  57  60   108  57  62   109  56  62   113  58  64   118  63  69   123  68  73   123  68  71   117  63  63   115  57  56   121  56  60   122  53  58   123  57  61   125  60  64   128  63  67   142  76  80   154  83  87   152  80  84   149  72  78   152  71  78   155  73  79   161  76  83   164  82  88   167  85  91   166  86  89   165  84  90   167  80  96   166  79  96   168  84 100   162  81  96   141  68  79   129  59  69   119  56  64   110  51  57   105  50  53   103  53  54   103  55  55   101  55  55   100  56  53    97  56  52    97  56  52    98  55  49   101  52  47   103  53  46   101  52  45    98  51  43    99  52  44    98  55  46    94  51  42    85  45  35    83  45  34    86  48  37    88  50  39    88  50  39    88  48  38    90  50  40    95  55  45   101  61  51    98  55  46    95  55  45    96  56  46    97  59  48    99  63  51   102  66  54   105  67  56   106  66  56    97  54  45   100  56  47   106  59  51   107  63  52   108  64  55   106  63  54   102  62  52    99  61  52    93  60  53    90  59  54    89  58  53    88  57  52    86  56  48    85  55  47    82  52  42    80  50  40    90  60  49    93  61  50    93  59  49    94  57  48    97  57  47   103  60  51   108  64  53   110  66  57   110  69  63   106  67  60   111  74  66   106  69  61   102  65  59   100  63  57    92  55  49    96  59  53    98  60  57    86  51  47    90  55  51    92  59  54    98  63  61    99  65  63    89  54  52    87  56  53    74  49  45    69  45  41    75  51  47    76  52  48    64  40  36    61  37  33    73  49  45    84  60  56    81  57  53    82  58  54    85  61  57    89  65  61    88  64  60    82  58  54    83  59  55    92  67  63    80  52  49    72  42  40   102  68  66    91  56  54    74  34  32    85  44  42    83  42  38    90  51  46    71  34  28    73  40  33    70  39  34    70  41  35    69  40  36    72  44  40    77  49  46    61  33  29    53  28  23    59  36  28    60  35  28    59  34  27    63  36  29    59  32  25    57  30  23    63  36  29
 57  34  26    65  42  34    70  47  39    71  51  42    78  58  51    82  63  56    70  53  46    53  34  27    51  31  24    59  35  25    73  41  30    88  50  37   102  59  43   113  66  50   119  70  55   122  73  59   113  65  53   100  56  47    99  60  53    90  55  49    84  51  46    85  54  49    79  50  44    78  51  44    81  54  47    77  52  45    76  53  45    80  57  49    82  59  51    81  58  50    76  56  49    76  56  49    67  48  42    65  46  40    63  46  39    62  45  38    56  41  34    53  38  31    57  44  38    69  52  45    84  55  49    83  50  43    77  44  35    73  40  31    70  37  28    69  36  27    69  35  25    69  35  25    60  26  17    63  29  20    68  31  25    70  33  27    76  38  37    83  45  44    87  47  48    85  46  49    83  51  56    82  53  58    75  48  53    65  40  44    60  38  40    60  42  42    54  38  39    43  31  31    41  31  32    40  31  32    38  32  36    40  33  40    47  40  48    54  48  58    55  49  61    50  47  58    33  31  42    27  24  33    31  26  33    43  37  41    60  50  51    79  65  65    91  72  74    90  68  70    77  52  55    78  49  53    79  48  53    79  47  50    76  45  43    74  43  40    78  48  40    85  52  45    84  51  46    85  52  47    90  55  51    97  59  56   102  62  60   106  65  63   109  65  64   109  63  63   102  56  56   113  67  67   112  68  67   104  63  61   102  62  60    98  61  55    94  59  55    99  61  60   106  65  69   106  64  68   103  61  63   105  61  62   106  62  61   109  63  63   113  65  65   115  65  66   119  64  69   118  61  67   119  59  67   122  62  70   127  66  73   126  65  70   119  59  61   114  52  53   123  57  61   128  59  64   137  68  73   142  73  78   145  76  81   156  85  91   167  92  97   169  90  96   168  85  93   167  81  90   166  79  87   167  80  88   168  83  90   167  85  91   167  87  90   167  88  93   168  86 100   160  79  94   154  76  89   142  69  80   124  54  64   114  49  57   109  48  53   100  44  47   103  51  53   103  53  54   103  55  53   102  57  54   101  57  54   101  57  54    98  57  53    99  56  50   100  51  46   102  52  45    99  50  43    96  49  41    99  52  44    98  55  46    93  50  41    83  43  33    80  40  30    84  44  34    88  48  38    91  51  41    92  52  42    94  54  44   101  58  49   105  62  53   101  59  47    97  57  45    97  57  45    99  61  48   100  64  50   101  65  51   100  62  49    99  59  47    98  55  46   101  57  48   107  60  52   108  64  55   109  64  58   105  62  55   100  60  52    96  59  51    94  59  53    93  60  55    92  59  54    90  57  52    86  56  48    85  55  47    85  55  45    86  56  46    94  62  51    95  63  52    92  58  48    87  50  41    90  52  41   104  61  52   109  66  57   107  64  55   108  67  61    98  59  54   104  67  61   104  67  61   101  63  60    97  59  56    88  53  49    94  59  55    91  56  54    82  48  46    86  52  50    86  55  52    92  58  57    91  60  58    82  48  47    78  48  46    70  45  41    69  45  41    72  48  44    66  42  38    55  31  27    60  36  32    76  52  48    84  60  56    84  60  56    86  62  58    87  63  59    89  65  61    87  63  59    77  53  49    76  52  48    90  66  62    74  49  45    71  46  42    94  65  61    83  49  47    71  33  30    82  42  40    77  38  33    77  40  34    70  35  29    69  39  31    70  41  35    72  47  40    74  49  44    75  50  45    70  45  41    49  24  19    51  26  21    60  35  28    63  38  31    60  35  28    61  34  27    56  29  22    54  27  20    61  34  27
 58  38  29    63  40  32    66  43  35    68  48  39    74  55  48    77  58  51    66  49  42    53  34  27    53  33  26    58  34  24    68  38  27    83  47  33    97  55  39   109  63  47   116  69  53   119  71  57   113  65  53    97  53  44   101  62  55    94  59  53    82  49  44    84  53  48    81  52  46    75  48  41    79  54  47    79  54  47    79  56  48    82  59  51    84  61  53    83  60  52    78  58  51    76  56  49    66  47  41    64  45  39    63  46  39    63  46  39    57  42  35    53  38  31    55  42  36    64  47  40    81  54  47    84  51  44    81  48  39    77  44  35    73  40  31    70  37  28    70  36  26    69  35  25    61  27  18    61  27  18    65  28  22    69  31  28    76  38  37    81  43  42    84  44  45    82  43  46    80  48  53    79  48  54    74  45  50    65  40  44    63  41  43    63  45  45    57  41  42    50  36  36    48  36  38    44  34  35    38  29  34    33  26  33    39  29  38    46  38  49    55  47  60    59  53  63    48  47  55    38  37  43    30  28  33    32  26  30    43  31  33    58  42  42    71  49  51    77  51  54    75  44  49    79  47  50    86  50  54    92  53  56    93  55  54    92  55  49    92  55  47    93  56  48    99  62  56    98  60  57    99  59  57   102  61  59   106  62  61   106  60  60   105  57  57   103  53  54   113  63  64   118  70  70   116  68  68   111  65  65   115  71  72   115  73  74   110  70  70   110  70  70   111  69  73   109  64  69   105  60  63   106  60  62   110  64  64   116  68  68   120  70  71   124  69  72   127  70  76   126  67  73   125  62  71   122  59  67   123  58  64   123  57  61   123  57  59   123  57  59   131  60  66   139  68  74   149  78  84   155  84  90   158  83  90   162  85  93   169  90  96   174  91  99   180  93 102   177  87  97   174  84  93   174  87  95   171  89  95   168  87  93   165  86  89   164  88  92   163  87  97   145  71  84   132  60  71   121  54  63   114  49  57   114  53  60   113  57  60   107  52  55   104  54  55   103  55  55   101  56  53   101  56  53    99  55  52    98  54  51    98  54  51    98  53  48   100  51  46   100  50  43    97  48  41    94  47  39    98  51  43    99  55  46    93  50  41    83  43  33    83  43  33    87  47  37    92  52  42    95  55  45    96  56  46    98  58  48   102  59  50   104  62  50   104  62  48   102  60  44    98  59  42    99  62  46   101  64  48   101  65  51    99  61  48    97  57  45    99  56  47   103  59  50   108  61  55   109  64  58   109  64  58   102  61  55    98  57  51    93  56  50    93  58  52    92  59  54    92  59  54    90  57  52    87  54  47    84  54  46    86  56  46    89  59  49    90  58  47    92  60  49    92  58  48    91  54  45    96  58  47   106  66  56   107  67  57   103  63  55   102  63  58    92  53  48   100  62  59   103  65  62    96  58  55    88  53  49    85  50  46    94  60  58    88  54  52    80  49  46    85  54  51    84  54  52    87  57  55    88  58  56    77  47  45    74  46  43    70  45  41    73  49  45    75  51  47    65  41  37    57  33  29    69  45  41    86  62  58    88  64  60    79  55  51    85  61  57    93  69  65    91  67  63    78  54  50    68  44  40    72  48  44    83  59  55    66  45  40    71  47  43    85  57  53    73  44  40    69  36  31    79  44  40    71  36  30    67  32  26    66  36  28    67  38  30    70  45  38    74  51  43    73  50  44    70  50  43    61  40  35    44  21  15    51  26  21    58  33  26    58  33  26    55  30  23    59  32  25    55  28  21    53  26  19    58  31  24
 61  41  32    59  39  30    59  39  30    64  44  35    70  51  44    73  54  47    65  48  41    57  38  31    56  36  29    60  36  26    67  37  27    80  44  32    94  52  38   106  60  45   112  64  50   114  66  52   112  64  52    97  53  44   106  66  58   102  65  57    85  52  45    86  56  48    83  54  48    75  48  41    80  55  48    80  55  48    80  57  49    81  58  50    83  60  52    83  60  52    77  57  50    74  54  47    66  47  41    64  45  39    63  46  39    63  46  39    57  42  35    52  37  30    53  40  34    61  44  37    82  55  48    83  53  45    81  51  43    78  48  40    76  43  34    73  40  31    72  38  29    71  37  28    62  28  19    61  27  18    64  27  21    69  31  28    74  36  35    78  40  39    78  39  40    77  41  43    77  42  48    74  43  49    72  43  48    68  41  46    69  44  48    68  48  50    65  46  48    58  44  44    56  44  46    49  39  40    41  30  36    35  25  33    36  24  34    42  32  41    53  43  54    60  52  63    52  51  59    44  45  50    35  33  36    31  22  25    37  23  23    51  31  32    69  43  46    85  53  56    84  48  52    91  52  55    98  56  60   103  58  61   104  60  59   104  61  55   103  60  53   100  60  50   111  70  64   106  65  61   103  59  56   101  56  53   105  57  55   109  59  58   113  61  63   113  61  63   115  63  67   120  68  72   117  65  69   112  62  65   115  69  72   118  73  76   114  72  74   115  73  75   111  66  71   108  61  67   105  59  62   108  59  62   113  63  64   120  69  68   125  71  71   129  70  74   128  67  74   128  65  73   128  61  70   124  54  64   120  49  57   125  52  59   137  62  67   146  71  76   147  72  79   156  81  88   165  90  97   167  92  99   168  88  97   165  84  93   171  85  94   178  91 100   176  84  95   175  83  94   178  88  97   183  96 104   179  97 103   167  88  93   154  80  81   148  78  80   138  71  78   124  59  67   115  52  60   111  50  57   109  50  54   113  57  60   115  63  65   110  60  61   106  56  55   103  55  53    99  54  51    97  52  49    96  51  46    96  51  46    96  51  46    96  51  45   100  51  44   100  50  41    96  48  38    93  46  36    95  48  38    97  53  42    93  51  39    87  45  33    91  51  39    94  54  42    99  59  47   101  61  49   103  61  49   102  60  48   102  58  47   102  58  45   107  64  48   104  63  45   100  62  43    99  62  44   101  64  46   102  65  49   102  63  48   101  61  49   102  59  50   105  61  52   110  63  57   109  64  59   108  63  58   101  60  56    97  56  52    93  54  49    93  56  50    92  57  51    91  56  50    88  55  48    86  53  46    85  52  45    87  54  45    90  57  48    90  57  48    90  57  48    91  57  47    93  59  49   100  63  54   106  68  59   108  70  61   106  67  60    95  57  54    86  48  45   100  62  61   102  64  63    87  52  50    81  46  44    83  49  47    93  62  60    86  55  53    82  52  50    89  59  57    85  57  56    84  56  55    86  58  57    75  49  48    75  49  48    69  45  41    75  51  47    77  53  49    68  44  40    63  39  35    79  55  51    92  68  64    89  65  61    76  52  48    83  59  55    97  73  69    92  68  64    71  47  43    68  44  40    77  53  49    72  51  46    61  42  36    68  49  43    74  51  45    67  39  35    70  39  34    78  45  40    70  37  30    63  33  25    65  36  28    66  39  30    72  49  41    71  51  42    63  44  37    61  42  35    55  36  30    46  26  19    56  33  27    58  33  26    52  27  20    51  26  19    60  33  26    61  34  27    58  31  24    60  33  26
 60  42  32    56  36  27    55  35  26    61  41  32    69  50  43    71  52  45    66  49  42    62  43  36    59  39  30    61  37  27    66  38  27    77  43  31    91  52  37   102  59  43   109  61  47   110  62  48   111  65  52    99  55  44   109  69  61   105  68  60    89  56  47    88  58  50    84  55  49    76  49  42    81  56  49    82  57  50    80  57  49    79  56  48    80  57  49    81  58  50    76  56  49    71  51  44    65  46  40    64  45  39    64  47  40    63  46  39    56  41  34    50  35  28    51  38  32    60  43  36    83  56  49    83  53  45    81  51  43    79  49  41    79  46  37    76  43  34    75  41  32    73  39  30    65  31  22    63  28  22    65  27  24    69  31  28    72  34  33    72  34  33    73  34  35    72  36  38    71  36  42    72  39  46    73  42  48    70  43  48    70  45  49    70  48  51    68  49  51    66  50  51    62  47  50    54  42  46    48  35  42    42  31  37    39  26  35    38  26  36    45  32  42    50  40  49    50  47  54    48  47  52    43  37  41    38  28  29    46  28  28    58  34  34    76  46  48    95  59  61    97  56  60   103  61  63   107  62  65   106  60  60   105  60  57   106  61  55   107  65  53   107  65  53   113  73  65   111  70  64   110  67  61   109  64  61   113  63  62   115  65  64   118  66  68   119  67  69   112  60  64   121  69  73   118  67  72   110  61  65   108  61  67   107  62  67   106  64  68   112  70  74   109  64  69   109  63  66   110  61  64   112  62  63   116  65  64   121  67  67   127  68  70   129  69  71   121  59  64   126  59  68   127  57  67   125  54  62   126  50  60   137  58  64   154  73  79   167  86  92   165  84  91   172  92 101   176  96 105   176  96 105   175  94 103   170  87  97   174  88  97   187  97 107   173  83  93   172  82  92   176  89  97   180  98 104   173  94  99   149  77  80   130  60  60   118  54  54   111  50  55   106  49  55   110  53  59   111  56  59   103  51  53   104  52  54   106  56  57   102  54  52   103  55  53   102  54  52    99  54  51    97  52  47    96  51  46    95  50  45    94  49  44    96  49  43   100  51  44   100  52  42    97  49  39    92  45  35    90  46  35    95  51  40    95  53  41    92  50  38    97  57  45   100  60  48   103  63  51   106  64  52   106  64  52   105  61  50   103  59  48   101  57  44   109  66  49   109  66  47   107  66  48   104  66  47   103  64  47   102  65  47   104  65  50   105  66  51   107  63  52   107  63  54   110  63  57   108  63  58   106  61  56    99  58  54    95  54  50    92  53  48    93  56  50    93  56  50    91  56  50    89  54  48    87  54  47    86  53  46    87  54  45    88  55  46    93  60  51    92  59  50    91  57  47    91  57  47    97  60  51   103  66  57   108  71  62   110  73  65    92  54  51    84  46  45    99  61  60    97  62  60    82  47  45    78  44  43    81  50  48    89  59  57    83  53  51    84  56  55    92  64  63    83  57  56    79  53  52    81  57  57    76  52  52    77  56  55    71  47  45    75  51  47    76  52  48    69  45  41    67  43  39    82  58  54    91  67  63    82  58  54    79  55  51    79  55  51    92  68  64    88  64  60    69  45  41    74  50  46    83  59  55    65  44  39    61  42  36    71  52  46    67  47  40    64  39  34    74  45  39    76  45  40    69  39  31    66  37  29    66  37  29    62  38  28    71  48  40    64  46  36    53  34  27    51  34  26    50  33  26    50  31  24    63  40  34    62  37  30    53  28  21    52  27  20    64  37  30    66  39  32    62  35  28    63  36  29
 62  44  34    55  37  27    54  36  26    61  43  33    69  50  43    69  50  43    63  46  38    60  41  34    59  39  30    60  38  27    65  38  27    76  44  31    90  52  39   101  59  45   108  62  47   107  61  46   112  66  53   102  58  47   112  69  60   105  67  58    90  56  47    88  58  50    84  55  49    79  52  45    82  57  50    83  58  51    80  57  49    76  53  45    76  53  45    78  55  47    73  53  46    68  48  41    64  45  39    65  46  40    65  48  41    63  46  39    54  39  32    47  32  25    50  37  31    61  44  37    81  56  51    80  51  45    78  48  40    77  47  39    79  46  37    78  45  36    76  42  33    73  39  30    67  32  26    65  30  24    66  31  27    68  33  29    68  33  31    64  28  28    65  29  31    68  33  37    65  32  39    69  36  45    72  41  49    73  43  51    70  43  50    67  44  50    68  47  52    70  51  55    62  45  51    56  41  46    51  36  43    46  33  40    43  27  37    37  24  33    41  25  35    43  32  40    53  43  51    53  47  51    51  39  43    51  35  36    62  41  40    73  45  44    84  50  51    99  59  60   106  64  66   115  71  72   119  73  75   114  69  66   109  66  60   109  66  57   108  69  54   107  70  54   112  74  63   114  76  67   117  77  69   118  75  69   117  72  69   115  67  65   113  63  64   111  61  62   114  64  67   122  73  77   119  72  78   110  65  70   106  63  70   104  63  69   102  63  68   107  66  72   110  68  72   115  69  72   118  69  72   119  69  70   122  68  68   123  67  66   126  67  69   127  67  69   119  57  62   123  56  63   127  55  66   133  57  67   141  61  72   153  70  78   167  82  89   175  90  97   172  86  95   178  92 103   178  95 105   178  95 105   177  96 105   173  92 101   179  96 104   195 109 118   172  86  95   163  80  88   159  78  84   158  82  86   147  75  78   125  59  60   111  47  45   104  46  44   100  49  48   100  50  51   107  57  58   108  60  60    99  51  51    97  49  47    98  50  48    92  47  44    96  51  48    98  53  48    99  54  49   100  55  50   102  54  50   100  53  47    98  51  45    97  50  44   101  52  45   102  54  44    98  50  40    91  44  34    87  43  32    92  48  37    96  54  42    97  55  43   100  58  46   101  59  47   103  61  49   106  64  52   108  64  53   109  62  52   107  60  50   105  59  46   112  66  51   115  69  53   115  72  55   112  71  53   106  67  50   104  65  48   104  65  50   106  67  52   110  66  55   109  65  56   110  63  55   107  62  56   104  59  53    98  57  51    95  54  48    92  53  46    96  57  50    94  57  49    92  58  49    91  57  48    90  57  48    89  56  47    87  54  45    86  53  44    92  58  49    96  62  53    97  60  52    91  54  46    90  56  46    99  65  55   105  71  61   104  70  61    93  55  54    83  44  45    93  57  57    92  56  56    78  44  43    80  48  49    83  51  52    81  51  51    78  50  49    81  55  56    90  66  66    78  57  56    71  50  49    73  53  54    72  52  53    78  58  57    76  55  52    77  53  49    75  51  47    70  46  42    70  46  42    82  58  54    86  62  58    74  50  46    76  52  48    73  49  45    81  57  53    78  54  50    64  40  36    70  46  42    78  54  50    66  45  40    65  46  40    75  56  50    65  45  38    66  41  36    79  50  44    74  43  38    70  40  32    71  42  34    68  39  31    59  35  25    66  43  35    57  39  29    47  28  21    48  31  23    47  30  23    51  32  25    61  38  32    62  37  30    56  31  24    54  29  22    62  35  28    62  35  28    59  32  25    61  34  27
 65  48  40    58  40  30    56  38  28    64  46  36    70  51  44    66  47  40    58  41  33    55  36  29    57  39  29    59  37  26    64  37  26    74  44  33    90  54  42   100  60  48   106  62  49   107  61  46   112  66  53   103  59  46   111  69  57   103  65  54    89  55  45    88  58  48    83  54  46    82  55  48    82  57  50    83  58  51    79  56  48    74  51  43    74  51  43    76  53  45    72  52  45    66  46  39    64  45  39    65  46  40    66  49  42    63  46  39    52  37  30    45  30  23    49  36  30    61  44  37    80  55  50    78  49  43    74  45  37    74  44  36    78  45  38    78  45  36    76  42  33    72  38  29    69  34  28    67  32  26    67  32  28    69  34  32    66  30  30    60  26  25    61  27  28    65  30  34    63  30  37    68  35  44    72  41  49    73  43  51    68  41  48    64  41  47    67  44  50    70  49  54    63  44  50    54  37  43    48  31  39    45  30  37    41  25  35    38  22  32    41  25  35    47  31  41    51  35  45    55  40  47    55  36  40    60  38  41    79  50  52    87  56  54    93  54  55   101  59  60   110  66  67   121  77  76   129  85  84   123  82  78   116  76  68   112  74  61   109  73  57   104  71  54    95  61  49    99  65  55   106  69  60   111  73  64   113  72  68   115  74  70   120  76  75   122  78  79   115  70  73   120  78  82   116  74  78   110  71  76   111  74  81   110  75  81   102  70  75   102  67  73   113  72  78   119  74  77   125  76  79   125  75  76   125  71  71   123  67  66   125  66  68   126  66  68   122  60  65   123  58  64   128  58  68   139  63  73   152  72  83   163  80  88   170  83  91   173  83  92   172  82  92   175  87  99   174  88  99   173  90 100   176  95 104   174  94 103   181 102 108   196 119 125   163  86  92   147  72  77   134  62  65   129  61  62   122  58  58   111  51  50   111  53  49   112  61  57   106  58  56    99  55  54   101  57  56   103  58  55    97  52  49    96  51  48    96  51  48    91  46  41    92  47  42    95  50  45   100  55  50   104  59  53   107  60  54   104  57  51   101  54  48    98  51  43   102  54  44   103  55  45    98  51  41    90  43  33    85  41  30    91  47  36    97  55  43   100  58  46    97  55  43    98  56  44   101  59  47   105  61  50   109  62  52   110  63  53   109  62  52   109  61  49   114  66  52   119  72  56   122  76  61   118  75  59   111  69  53   104  65  48   103  64  49   106  64  50   112  68  57   111  67  56   110  63  53   106  62  53   103  59  50    97  57  47    93  55  46    92  54  45    98  59  52    96  59  51    95  58  50    93  59  50    93  60  51    92  59  50    88  55  46    85  52  43    87  53  44   101  64  56   102  65  57    91  54  46    88  54  44    99  65  55   101  69  58    94  61  52    94  59  57    80  44  44    89  53  53    87  53  52    76  44  45    84  54  54    84  54  54    74  46  45    72  46  47    78  54  54    87  66  65    74  54  53    65  45  46    68  50  50    69  51  51    79  59  58    85  64  61    81  57  53    77  53  49    72  48  44    72  48  44    82  58  54    84  60  56    71  47  43    67  43  39    66  42  38    72  48  44    69  45  41    57  33  29    58  34  30    69  45  41    70  49  44    69  50  44    79  60  54    67  44  38    70  42  38    82  51  46    75  42  37    71  38  31    75  45  37    70  41  33    59  32  23    61  38  30    53  33  24    44  25  18    48  29  22    47  28  22    50  30  23    54  31  25    59  34  27    57  32  25    54  29  22    57  30  23    54  27  20    51  24  17    55  28  21
 65  51  42    62  45  37    54  37  27    66  49  39    70  51  44    60  41  34    62  43  36    60  41  34    55  37  27    53  33  22    59  35  23    72  42  31    85  51  39    95  57  44   105  63  49   112  68  55   107  61  46   108  64  51   106  64  52   103  63  53    98  64  54    83  53  43    73  46  37    75  50  43    81  56  49    78  53  46    74  51  43    75  52  44    77  54  46    77  54  46    72  52  45    68  48  41    64  45  39    68  49  43    68  51  44    62  45  38    51  36  29    49  34  27    54  41  35    65  48  41    77  54  48    78  51  44    76  47  41    74  44  36    75  42  35    75  42  35    76  41  35    77  42  36    73  36  30    75  38  32    72  37  33    66  31  29    62  28  27    63  29  28    61  27  28    54  22  25    57  24  31    63  30  39    73  42  50    75  45  53    69  42  51    71  48  56    76  53  61    70  49  56    70  50  59    58  41  49    58  41  49    48  31  39    41  24  32    41  24  32    36  19  27    42  22  31    50  29  38    53  30  38    62  35  40    76  47  51    90  58  59    97  61  61   104  64  64   110  69  67   122  81  79   118  77  75   108  68  66   107  70  62   114  82  71   117  88  72   117  90  71   123  96  77   113  86  69   109  81  67   101  73  61   100  70  59    89  56  49   101  66  60   110  72  69   118  80  79   113  77  77   117  83  84   105  70  74    96  65  70    93  64  68    92  65  70    95  70  74    85  58  63    96  60  64   110  70  71   121  77  78   121  75  75   123  73  72   126  75  74   125  71  71   120  64  65   119  60  64   126  65  72   128  61  70   142  71  79   159  82  92   171  88  96   180  93 101   172  82  91   181  89 100   181  91 103   181  95 106   182 101 110   180 103 111   173 100 107   162  93  96   152  86  88   131  65  67   121  57  58   114  53  52   116  56  55   115  60  57   111  58  54   106  56  49   104  57  51    97  54  48    93  52  48    92  51  47    96  53  47    99  56  50    97  54  48    91  46  41    85  40  35    92  44  40    97  50  44   100  53  47   100  53  47   101  54  48   103  56  48   103  54  47    99  50  43   101  53  43    99  51  39    95  49  36    93  47  34    92  48  35    95  51  38    99  57  43   102  60  46   102  58  45    99  55  42    98  54  41   102  56  43   107  61  48   113  65  53   116  68  56   118  68  57   117  67  56   117  69  55   115  69  56   111  67  54   108  66  52   107  65  51   108  66  52   109  67  53   112  68  55   112  68  55   114  68  55   108  64  53   103  59  48    96  56  44    93  55  42    91  55  43   101  63  54    98  61  52    94  57  48    96  62  52   101  68  59    93  63  53    86  53  44    89  55  46    94  57  49   102  63  56   102  63  56    95  58  50    96  62  53   105  72  63   104  74  64    96  66  58    97  63  62    91  57  58    89  55  56    87  53  54    82  50  51    84  54  54    81  51  53    66  37  39    74  48  49    89  65  65    85  63  65    67  47  48    58  38  39    59  41  41    66  47  49    75  57  57    76  55  52    72  48  44    80  56  52    77  53  49    78  54  50    87  63  59    79  55  51    70  46  42    68  44  40    58  34  30    60  36  32    65  41  37    74  50  46    71  47  43    66  42  38    84  60  56    75  54  49    75  54  49    67  42  37    70  41  37    84  51  46    77  42  38    68  33  27    78  43  37    75  45  37    62  33  25    58  33  26    60  37  29    52  32  25    50  30  23    52  31  26    51  28  22    51  26  21    56  29  22    56  29  22    53  26  19    50  25  18    52  27  20    53  28  21    50  25  18
 71  58  49    64  50  41    57  40  30    65  48  38    67  48  41    57  38  31    57  38  31    56  37  30    57  39  29    54  34  25    57  33  23    68  40  29    81  49  38    92  54  43   103  61  49   111  67  54   110  64  49   112  66  51   107  63  50   103  63  51    99  65  53    86  56  46    79  52  43    83  58  51    81  56  49    75  50  43    69  46  38    68  45  37    72  49  41    73  50  42    69  49  42    66  46  39    65  46  40    68  49  43    68  51  44    61  44  37    51  36  29    48  33  26    54  41  35    62  47  40    75  55  48    76  51  44    76  49  42    75  46  40    76  46  38    77  44  37    77  42  36    77  42  36    72  35  29    74  36  33    71  36  34    65  30  28    62  28  27    60  29  27    58  26  27    54  22  25    55  22  29    60  29  37    71  41  49    73  46  53    68  42  51    71  48  56    76  55  62    72  53  59    70  50  59    64  44  53    64  47  55    53  36  44    39  22  30    31  14  22    29   9  18    41  20  27    49  22  31    65  35  43    79  48  53    86  54  57    95  61  60   104  69  67   108  70  67   107  67  65   102  62  60   102  64  61   101  68  63   119  89  79   154 126 114   174 151 135   176 155 134   176 155 134   179 158 141   175 154 137   159 137 123   149 125 113   134 107  98   110  81  73    79  50  44    99  70  66   124  94  92   135 107 106   131 105 108   128 106 108   129 109 111   131 112 114   137 121 124   132 112 114   122  92  94   102  66  68    91  51  52   102  60  61   117  71  71   117  69  67   111  61  60   109  59  60   111  59  63   121  66  71   124  63  70   135  70  78   150  77  86   163  83  92   177  94 102   177  90  99   185  95 107   185  97 109   184 101 111   177 100 108   165  94 100   149  84  88   134  74  74   125  67  66   117  61  60   111  55  54   106  53  49   107  56  52   109  58  54   107  58  53   106  59  51   106  61  55    98  57  51    94  55  48    91  50  44    91  50  44    95  52  46    95  50  45    91  46  41    89  42  36    91  44  38    95  48  42    97  50  44    96  49  41    97  50  42   100  53  45   100  51  44    97  49  39   101  53  41    99  51  39    95  49  36    93  47  34    92  48  35    95  51  38    99  57  43   101  59  45   101  57  44    99  55  42    98  52  39   101  55  42   108  60  48   113  65  53   119  69  58   120  70  59   116  66  55   116  66  55   115  67  55   113  67  54   109  65  52   108  66  52   111  69  55   113  71  57   109  65  52   109  65  52   111  65  52   107  63  50   104  62  48    99  60  45    97  60  44    95  59  43    98  60  49    98  61  52    93  59  49    95  63  52    98  68  58    89  59  49    81  48  39    84  50  41    95  58  50    99  60  53    98  59  52    93  54  47    95  58  50    99  66  57    98  68  58    92  63  55    93  62  60    91  57  58    96  62  63    92  60  61    82  52  52    81  53  52    80  51  53    65  39  40    72  48  48    81  60  59    76  54  56    61  41  42    58  40  40    64  46  46    68  52  53    77  59  59    78  57  54    77  53  49    86  62  58    81  57  53    75  51  47    80  56  52    75  51  47    71  47  43    71  47  43    68  44  40    74  50  46    73  49  45    74  50  46    75  51  47    72  48  44    85  61  57    76  52  48    77  53  49    68  40  36    66  35  32    79  44  40    79  41  38    73  36  30    81  44  38    75  42  35    63  33  25    60  33  26    61  36  29    55  32  26    52  29  23    53  29  25    51  26  21    56  28  24    59  32  25    58  31  24    54  27  20    51  26  19    52  27  20    52  27  20    49  24  17
 66  53  44    59  46  37    53  39  28    60  46  35    64  47  37    58  41  31    61  42  35    61  42  35    61  43  33    55  35  26    55  33  22    63  36  25    73  43  33    86  49  40    97  57  45   109  65  52   113  67  52   114  68  53   108  65  49   104  65  50   100  66  54    90  60  50    84  57  48    90  65  58    82  57  50    75  50  43    66  43  35    65  42  34    70  47  39    74  51  43    71  51  44    68  48  41    66  47  41    68  49  43    67  50  43    60  43  36    50  35  28    48  33  26    53  40  34    61  46  39    75  55  48    76  51  46    76  49  42    78  49  43    80  49  44    81  48  43    79  44  38    76  41  35    72  34  31    73  35  32    69  34  32    65  30  28    61  27  26    59  27  28    58  26  29    54  23  28    50  19  25    58  27  35    71  41  49    74  47  54    69  43  52    71  48  56    77  56  65    75  55  64    69  49  58    62  45  53    64  47  53    53  36  42    43  24  30    38  19  25    38  19  25    57  34  40    69  40  45    85  53  58    94  62  65    92  58  59    93  59  57   106  73  68   116  83  78   115  82  77   127  93  91   129  98  93   129 100  94   143 119 109   179 157 144   204 185 168   206 189 169   201 184 164   199 184 165   204 188 172   199 183 168   204 186 172   200 180 169   156 134 123   100  77  69   131 108 102   175 151 147   192 171 168   197 179 179   203 187 187   207 193 193   210 200 199   218 209 210   213 201 201   187 165 167   158 128 128   126  92  91   112  77  75   111  71  69   108  67  65   109  68  66   116  72  73   142  98  99   157 111 114   159 108 113   156  99 106   150  85  93   149  78  86   169  90  96   176  93 101   182  96 107   179  96 106   171  94 102   158  87  93   139  77  80   124  65  67   109  58  55   103  54  50   108  60  56   104  56  52   102  55  49   103  56  50   104  57  51   101  56  50   102  58  49   103  60  53   100  59  53    95  54  48    91  48  42    90  47  40    92  47  41    93  48  42    94  47  41    93  44  39    91  42  37    95  46  39    95  46  39    93  44  37    94  45  38    97  49  39    97  50  40    94  47  37   100  52  40    98  50  38    95  49  36    94  48  35    92  48  35    95  51  38    99  55  42   101  57  44   102  58  45   101  57  44    99  53  40   102  54  42   108  58  47   112  62  51   122  70  59   123  71  60   117  64  56   117  64  56   114  66  56   112  65  55   109  65  52   111  67  54   114  70  57   118  74  61   111  65  50   111  65  50   110  64  49   107  64  48   105  63  47   101  62  45    98  61  43    95  59  43    94  58  46    98  61  52    94  62  51    93  63  52    95  65  54    86  56  45    78  45  36    80  46  37    96  57  50    95  54  48    92  51  47    91  50  46    92  55  49    93  58  52    91  61  53    89  60  54    88  57  54    86  55  53    98  66  67    99  69  69    85  55  55    82  54  53    83  54  56    68  42  43    74  50  50    78  57  56    69  47  49    56  36  37    57  39  39    65  47  47    71  53  53    79  59  58    80  59  56    77  53  49    83  59  55    79  55  51    73  49  45    75  51  47    75  51  47    73  49  45    73  49  45    76  52  48    86  62  58    77  53  49    70  46  42    78  54  50    79  55  51    82  58  54    74  50  46    78  53  49    68  39  35    63  29  27    76  38  35    81  41  39    79  40  35    82  45  39    73  38  32    65  32  25    63  34  28    61  36  29    57  32  27    54  29  24    53  28  24    49  24  19    58  30  26    60  33  26    59  32  25    55  28  21    52  27  20    53  28  21    52  27  20    48  23  16
 56  46  37    53  40  31    52  38  27    59  45  34    64  47  37    61  44  34    63  44  37    65  46  39    64  46  36    56  38  28    51  31  20    57  33  23    67  38  30    79  45  35    93  55  44   106  62  49   113  67  52   115  69  54   112  66  51   108  66  52   104  68  56    91  61  51    84  57  48    89  64  57    81  56  49    74  49  42    67  44  36    68  45  37    74  51  43    79  56  48    76  56  49    72  52  45    67  48  42    68  49  43    66  49  42    60  43  36    50  35  28    48  33  26    53  40  34    60  45  38    74  53  48    75  52  46    76  51  44    80  53  46    82  53  47    84  51  46    80  45  39    75  40  34    72  34  31    71  33  30    67  32  30    63  29  27    61  27  28    58  26  27    56  26  28    55  24  29    49  18  24    55  25  33    69  42  49    75  50  56    69  46  54    69  48  55    74  54  63    73  53  62    69  52  60    66  49  57    63  46  52    48  31  37    47  28  34    51  32  36    48  29  33    59  37  40    80  51  55    90  58  61   111  79  80   132 101  99   151 120 115   171 142 136   189 160 154   194 167 160   210 182 178   211 186 181   198 175 169   184 164 155   191 172 158   201 184 168   199 182 164   194 179 160   194 183 165   195 184 166   198 185 169   218 205 189   218 202 189   184 166 156   149 130 123   178 159 153   199 180 176   213 195 191   212 198 197   215 204 202   216 208 206   216 211 208   217 213 212   206 201 198   212 196 196   213 192 191   184 158 157   132 102 100    99  65  63   104  70  68   129  94  92   144 108 108   189 153 153   201 162 165   195 153 157   183 134 140   166 109 116   158  93 101   169  98 104   173  98 105   163  86  94   155  80  87   140  71  76   126  64  67   116  60  61   109  59  58   106  58  54   101  58  52   107  64  58   105  62  56   105  60  54   104  59  53   101  56  50    98  53  47    96  52  43    95  52  43    98  55  48    94  51  45    90  45  39    89  44  38    92  45  39    94  47  41    96  47  42    97  47  40    93  43  36    96  46  39    95  46  39    92  44  34    93  45  35    96  48  38    96  49  39    94  48  35    99  51  39    98  50  38    95  49  36    94  48  35    93  49  36    95  51  38    97  53  40    99  55  42   104  60  47   107  61  48   101  53  41   104  56  44   107  57  46   110  60  49   121  69  58   121  69  58   119  65  55   119  67  56   116  66  55   113  65  53   111  65  52   111  67  54   115  71  58   118  74  61   116  70  55   114  68  53   112  66  51   109  66  50   106  64  48   100  63  45    96  59  41    93  57  41    94  58  46    96  62  52    93  61  50    88  60  48    90  62  50    83  55  43    78  48  38    83  49  40    96  57  50    92  49  43    89  45  42    93  49  46    94  55  50    90  55  49    87  57  49    89  60  54    85  54  51    82  51  49    95  65  65   102  72  72    89  61  60    87  59  58    83  57  58    68  42  43    76  52  52    81  57  57    69  47  49    56  36  37    56  36  37    62  44  44    70  50  51    79  59  58    78  57  54    69  45  41    69  45  41    71  47  43    70  46  42    75  51  47    78  54  50    76  52  48    73  49  45    77  53  49    85  61  57    70  46  42    64  40  36    81  57  53    83  59  55    75  51  47    72  47  43    79  51  48    70  41  37    62  28  26    74  36  33    84  44  42    83  44  39    81  44  38    71  36  30    68  35  28    66  37  31    65  38  31    60  35  30    56  31  26    53  28  24    50  25  20    59  31  27    60  33  26    59  32  25    55  28  21    53  28  21    56  31  24    54  29  22    50  25  18
 53  43  34    52  39  30    56  42  31    60  46  35    64  47  37    62  45  35    60  42  32    61  43  33    64  47  37    56  38  28    51  31  22    55  33  22    64  37  28    75  42  33    89  51  40   102  60  46   110  64  49   114  68  52   113  67  51   110  68  52   106  70  56    90  60  49    81  54  45    82  59  51    75  50  43    71  46  39    68  45  37    72  49  41    78  55  47    81  58  50    77  57  50    73  53  46    66  47  41    68  49  43    66  49  42    60  43  36    52  37  30    50  35  28    53  40  34    59  44  37    73  54  48    76  53  47    78  53  48    82  54  50    84  55  49    84  51  46    79  44  40    77  39  36    73  35  32    70  32  29    66  31  29    63  29  27    61  27  28    57  25  26    56  26  28    56  27  31    49  20  25    53  26  33    69  42  51    77  51  60    71  48  58    69  48  57    71  51  62    69  49  60    72  55  65    77  60  68    70  53  59    48  31  37    53  37  40    69  53  56    66  47  51    67  47  49    76  50  51    76  48  47   108  83  79   164 139 134   195 170 163   203 181 170   207 187 178   210 190 181   230 210 203   235 216 209   222 203 196   202 183 176   197 179 169   201 183 171   203 185 171   203 187 171   204 192 176   198 189 172   206 194 180   237 223 210   223 206 196   203 186 176   197 180 172   201 184 177   208 190 186   214 199 194   206 195 193   210 200 198   215 210 207   214 213 209   211 212 207   194 193 189   193 183 182   217 201 201   207 187 186   155 134 131   122  97  93   137 109 106   171 143 140   191 163 160   206 180 179   208 179 181   195 163 166   191 152 155   186 140 143   178 123 128   174 112 117   160  94  98   133  68  72   122  60  63   110  51  53   104  50  50   106  56  55   109  64  61   108  65  59   106  63  57   106  63  57   108  65  59   109  64  58   109  62  56   105  58  52    98  53  47    94  50  41    91  47  38    94  47  41    92  45  39    92  43  38    92  43  38    95  45  38    97  47  40   100  47  41   100  47  41    96  43  37    99  46  38    97  47  38    94  44  35    94  46  36    98  50  38    98  52  39    96  50  37    97  51  38    97  51  36    96  50  35    95  49  34    93  50  34    95  52  36    96  53  37    97  54  38   103  57  42   107  61  46   100  52  38   105  57  43   109  60  46   111  59  46   125  71  59   124  70  58   124  67  56   122  68  56   120  68  55   115  67  53   112  66  51   113  67  52   113  70  54   116  73  57   116  70  55   116  70  55   114  68  55   110  66  53   106  64  50    99  62  46    96  59  43    93  57  41    93  59  47    95  63  50    88  59  45    83  55  41    84  58  45    83  57  44    83  53  42    91  57  47    97  56  50    92  47  42    91  46  43    98  53  50   100  59  57    95  57  54    88  57  52    90  61  55    88  59  55    82  52  50    92  62  60   101  71  69    93  65  62    88  60  57    78  52  51    62  36  35    73  49  47    80  56  54    74  50  50    60  39  38    57  36  35    60  40  39    71  50  49    84  63  62    76  52  50    65  41  37    62  38  34    68  44  40    67  43  39    69  45  41    78  54  50    80  56  52    76  52  48    75  51  47    79  55  51    64  40  36    63  39  35    85  61  57    86  62  58    74  50  46    68  44  40    75  50  46    72  43  39    66  32  30    76  38  35    87  47  45    86  47  42    79  42  36    70  35  29    70  40  32    69  40  34    66  39  32    62  37  32    59  34  29    54  29  25    52  27  22    57  29  25    58  31  24    57  30  23    55  28  21    55  30  23    59  34  27    57  32  25    53  28  21
 46  36  27    46  36  26    55  43  31    59  45  34    63  46  36    65  48  38    61  43  33    63  45  35    63  46  36    55  38  28    50  32  22    55  32  24    64  37  30    72  42  32    86  50  38    98  56  42   107  61  46   113  66  50   113  67  51   112  70  54   107  71  57    90  60  49    78  51  42    78  55  47    69  44  37    69  44  37    69  46  38    73  50  42    78  55  47    78  55  47    73  53  46    70  50  43    65  46  40    67  48  42    66  49  42    63  46  39    56  41  34    53  38  31    55  42  36    59  44  39    73  54  48    76  56  49    81  56  51    84  56  52    83  54  48    81  48  43    78  43  39    77  39  36    74  36  33    70  32  29    65  30  28    64  30  29    60  28  29    56  26  26    56  27  29    56  30  33    50  23  28    51  26  32    64  38  47    73  50  58    69  48  57    68  48  57    70  50  61    67  50  60    73  56  66    84  67  75    75  58  66    53  36  42    75  59  62   115  99 100   130 111 113   138 118 119   117  96  95    94  73  68   116  96  89   170 152 142   198 180 168   200 184 171   201 187 176   205 191 180   218 204 195   224 210 201   217 200 193   202 185 178   199 180 173   200 180 171   200 178 167   199 180 166   205 191 178   205 193 179   216 204 190   247 233 220   227 210 200   216 199 191   220 203 196   205 188 181   208 190 186   210 197 191   203 192 188   209 201 198   222 218 215   229 228 224   228 229 224   210 211 206   195 190 187   204 194 193   201 187 186   185 167 165   173 154 150   181 160 155   199 178 173   210 191 187   204 184 183   207 187 186   201 177 177   200 170 172   193 154 157   173 127 130   155  98 104   129  70  74   112  58  58   105  54  53    99  49  48   100  55  52   107  63  60   109  68  64   107  66  60   104  61  55   104  59  54   106  61  56   110  61  56   108  59  54   106  57  52   103  56  50    99  52  44    93  46  38    91  42  37    92  41  37    92  41  37    95  42  38    96  43  37    99  44  39   100  45  40   101  46  41    96  41  34   100  45  38   100  47  39    97  47  38    97  49  37   101  53  41   101  55  42    98  52  39    97  51  36    96  50  35    96  50  35    96  50  35    94  51  35    94  51  35    95  52  36    95  52  36    98  52  37   105  59  44    99  51  37   108  59  45   113  61  48   112  60  47   128  74  62   126  72  60   126  70  57   125  72  56   123  71  57   119  70  55   115  68  52   113  67  52   112  69  53   113  70  54   114  68  53   115  69  54   116  70  57   111  67  54   106  64  50   100  62  49    98  62  48    96  63  48    94  60  48    95  63  50    83  55  41    75  49  34    78  55  41    84  58  45    88  58  47    95  61  51    99  56  50    95  50  45    98  50  48   104  59  56   106  65  63   100  62  59    92  59  54    86  57  51    93  64  60    87  57  55    90  60  58    96  66  64    92  64  61    84  56  53    68  42  41    55  29  28    69  45  43    77  53  51    74  50  50    66  42  42    64  40  40    65  44  43    76  52  52    90  66  64    75  51  49    68  44  40    68  44  40    76  52  48    68  44  40    62  38  34    74  50  46    81  57  53    79  55  51    75  51  47    76  52  48    65  41  37    70  46  42    88  64  60    86  62  58    78  54  50    66  42  38    72  47  43    71  42  38    69  35  33    77  39  36    87  47  45    85  46  41    76  39  33    69  34  28    73  43  35    71  42  36    63  38  31    62  37  32    59  34  29    54  29  25    54  29  24    56  28  24    57  30  23    55  28  21    54  27  20    55  30  23    60  35  28    58  33  26    53  28  21
 44  34  25    43  33  23    54  42  30    56  42  31    61  44  34    66  49  39    62  44  34    66  48  38    61  44  34    54  37  27    51  32  25    55  35  26    63  38  31    72  42  34    84  47  38    93  53  41   104  58  43   110  63  47   112  66  50   111  69  53   107  71  55    91  62  48    79  52  43    79  56  48    71  46  39    73  48  41    74  51  43    77  54  46    77  54  46    76  53  45    71  51  44    69  49  42    63  44  38    65  46  40    67  50  43    65  48  41    59  44  37    57  42  35    56  43  37    59  44  39    73  54  48    77  56  51    84  59  54    85  57  53    80  51  45    78  45  40    76  41  37    78  40  37    75  37  34    70  32  29    65  30  28    65  31  30    61  29  30    57  27  27    56  27  29    58  32  35    54  27  32    50  25  31    59  33  42    67  44  52    67  46  55    68  48  57    74  54  65    72  55  65    82  65  75    88  73  80    78  63  70    67  52  57   109  93  96   166 150 151   188 169 171   200 182 180   186 168 164   145 130 123   141 127 118   169 157 145   181 172 157   187 178 163   196 188 175   200 192 179   212 202 192   218 205 197   213 198 193   209 190 184   210 189 184   211 186 181   210 183 176   210 188 177   201 184 174   206 194 182   207 193 182   223 206 196   210 193 185   205 186 179   204 185 179   199 182 175   210 192 188   214 199 194   208 194 191   211 202 197   220 215 211   226 225 220   226 227 222   209 210 205   200 199 197   194 190 187   188 180 177   187 176 172   191 176 171   196 178 174   196 181 176   198 183 178   205 191 188   210 196 195   200 182 182   186 162 162   163 131 132   138  98  99   126  76  79   107  57  58   108  63  60   105  64  60   104  65  60   105  66  61   106  67  62   106  67  62   104  63  57   105  60  55   105  57  53   106  57  53   107  54  50   105  52  48   104  53  49   106  55  51   101  52  45    95  46  39    93  43  36    95  42  36    94  41  35    95  40  35    95  40  35    98  40  36   100  43  36   101  44  37    96  39  32    99  44  37   100  48  37    98  48  37    99  51  39   103  55  43   102  56  43    97  53  40    96  50  35    96  50  35    96  50  35    96  50  35    94  51  35    94  51  35    94  51  35    94  51  35    99  53  38   108  62  47   102  54  40   111  62  48   114  62  49   111  57  45   127  70  59   124  68  55   125  69  54   124  71  53   124  73  56   121  72  55   117  70  52   114  68  52   113  67  51   114  68  53   114  68  53   117  71  58   119  72  62   113  69  58   105  63  51    97  59  48    96  60  48    97  63  51    93  61  48    91  62  46    78  52  37    68  45  29    75  52  38    82  59  45    88  58  47    94  60  50   100  57  51   100  55  50   104  56  54   111  63  61   112  68  67   104  66  63    91  58  53    79  50  44    88  59  55    87  59  55    86  58  54    90  62  58    89  61  57    77  49  45    62  37  33    58  33  29    72  46  45    78  52  51    75  49  48    70  44  43    72  46  45    72  48  46    78  52  53    87  63  61    78  54  52    73  49  45    76  52  48    88  64  60    80  56  52    66  42  38    75  51  47    80  56  52    77  53  49    75  51  47    76  52  48    70  46  42    76  52  48    84  60  56    78  54  50    80  56  52    63  42  37    66  42  38    67  39  35    66  35  32    73  38  34    82  44  41    81  44  38    72  37  31    66  33  26    72  43  35    69  42  35    60  35  28    60  35  30    56  33  27    51  27  23    53  28  23    57  29  25    58  29  23    55  28  21    53  26  19    55  30  23    59  34  27    57  32  25    51  26  19
 51  42  35    50  40  31    58  45  36    56  42  31    57  40  30    62  44  32    57  37  26    61  41  32    61  43  33    53  36  28    52  33  26    56  36  29    65  40  33    72  43  35    81  47  37    91  51  39   101  58  42   108  62  46   111  65  49   111  70  52   109  72  56    94  62  49    82  55  44    83  59  49    80  53  46    80  55  48    82  57  50    82  57  50    80  55  48    77  52  45    75  50  45    73  50  44    64  40  36    68  44  40    69  48  43    68  49  43    64  46  42    59  44  39    58  44  41    59  44  39    73  54  50    80  56  52    85  60  56    85  57  53    80  49  46    76  43  38    77  39  36    78  40  37    76  38  35    70  32  29    65  30  28    65  31  30    61  31  29    54  28  27    54  30  28    58  34  34    56  31  34    49  24  28    52  29  35    62  39  45    64  43  50    69  49  58    77  57  66    77  60  70    95  78  88    96  79  87    85  70  75    84  69  72   134 120 120   186 170 170   193 177 177   195 180 177   217 204 198   182 169 161   171 158 149   182 172 160   188 178 166   197 187 175   207 197 185   205 195 183   213 200 191   216 202 193   213 196 188   209 189 182   210 185 180   207 180 173   208 179 171   213 189 179   196 179 169   213 200 191   210 193 185   214 197 189   216 197 190   210 190 183   194 173 168   203 184 178   205 186 182   213 195 191   208 193 190   209 198 194   215 207 204   218 215 210   220 216 213   204 203 199   198 194 191   199 191 189   191 181 179   185 171 168   188 173 170   200 182 178   205 187 183   203 185 181   211 196 193   206 188 186   176 156 155   147 121 120   122  91  89   111  71  72   117  71  73   113  67  67   113  72  68   114  75  70   115  76  71   110  71  66   104  65  60   102  61  57   106  63  57   112  64  60   108  59  55   107  56  53   104  51  47    99  46  42   101  48  44   103  52  48   101  50  46    95  45  38    96  46  39    95  45  38    95  42  36    93  40  34    93  38  33    94  39  32    98  41  34   100  43  36    94  37  30    97  43  33   101  47  37   101  49  38   101  51  40   105  56  42   103  55  43    99  53  38    96  50  35    96  50  34    97  51  36    97  51  35    97  51  36    96  50  34    95  49  34    95  49  33   105  57  43   115  68  52   107  58  44   116  64  50   115  61  49   109  53  40   122  65  54   117  61  48   123  67  50   125  70  50   126  73  55   124  73  54   120  71  54   116  69  51   115  68  52   115  68  52   119  71  57   122  76  63   123  76  66   115  71  60   104  61  52    94  56  45    93  56  47    93  61  50    93  61  48    89  61  47    76  50  37    66  43  29    73  49  37    81  57  45    84  56  45    90  56  47    98  59  52   102  59  53   106  61  58   111  67  64   112  71  67   105  68  62    89  56  51    73  44  38    78  50  46    82  57  52    84  56  52    86  58  55    87  59  56    74  46  43    61  35  34    67  41  40    79  53  52    80  54  53    75  49  48    72  46  45    77  51  50    77  51  50    75  49  48    80  54  53    82  56  55    75  51  47    78  52  51    96  72  68    93  68  64    77  53  49    81  56  52    79  55  51    73  48  44    72  48  44    77  52  48    74  50  46    79  54  50    77  53  49    70  45  41    80  56  52    65  41  37    63  40  34    64  36  32    64  35  31    67  36  31    75  42  37    76  41  35    70  37  30    62  32  24    71  42  34    67  40  33    57  32  25    57  32  27    54  31  25    50  25  20    52  27  22    59  31  27    58  31  24    55  28  21    51  26  19    54  29  22    58  33  26    55  30  23    49  24  17
 48  38  36    60  49  43    56  41  34    50  33  25    60  40  29    67  45  32    69  45  33    72  50  39    58  38  31    51  32  26    49  30  24    54  34  27    61  38  30    69  41  30    78  46  33    88  52  36    99  61  42   107  66  46   110  69  49   109  68  50   104  67  51    98  65  50    87  59  47    78  51  40    88  59  51    84  55  49    85  56  50    88  61  54    89  62  55    84  55  49    80  51  45    81  50  45    73  42  39    75  44  42    75  45  43    72  46  45    66  45  44    61  43  41    58  42  42    58  42  42    69  49  48    83  59  57    92  66  65    90  62  59    83  52  49    78  44  42    77  39  36    76  36  34    72  34  31    69  34  30    66  33  28    62  33  29    58  33  28    55  34  29    55  36  30    56  37  31    50  29  26    51  30  29    50  28  30    56  34  37    66  43  49    67  44  52    69  46  56    78  57  66    85  64  73   129 109 118   107  90  96   101  86  89   154 140 139   177 166 162   177 166 160   188 177 171   231 218 212   209 194 189   183 168 163   180 165 158   184 169 162   198 181 173   215 198 188   209 191 181   216 196 185   213 193 182   206 184 171   197 174 160   197 171 158   204 176 162   209 181 167   208 182 169   208 191 183   199 186 178   208 191 184   221 202 196   219 198 193   205 181 177   200 177 171   208 185 179   204 180 176   202 181 176   211 192 188   216 201 198   212 201 199   211 203 200   213 205 203   209 201 199   199 185 185   203 185 185   203 183 184   192 172 171   186 165 164   201 177 175   216 190 189   215 190 186   205 177 174   171 141 139   128  97  94   107  72  70   109  71  68   120  79  77   123  79  76   120  75  72   127  82  77   124  79  74   117  72  67   110  65  60   104  59  54   103  55  51   102  54  50   104  55  51   101  50  47   101  50  47   100  49  46    99  48  45    98  47  44    96  45  42    94  43  40    92  41  37    91  42  35    90  43  33    90  43  33    90  43  33    92  44  34    94  44  33    96  44  33    97  45  34    92  40  29   101  47  35   102  48  36    94  40  28    93  39  27   101  48  34   105  51  39   101  49  35   105  58  42    96  53  34    97  51  35    99  54  35    99  53  37    96  49  31    97  50  34   104  55  38   111  59  45   124  73  56   119  66  52   118  62  47   114  58  45   106  48  34   115  57  45   122  64  50   122  66  49   124  68  51   128  72  55   127  74  56   126  73  57   125  72  56   123  71  57   123  71  57   120  71  57   120  72  58   118  72  59   110  68  54   100  60  48    93  55  42    89  53  41    86  54  43    80  47  38    74  45  37    73  46  37    72  48  38    71  47  37    71  47  37    79  52  43    89  59  51    98  63  57   106  69  63   105  68  60    98  61  53    95  61  52    99  66  57    95  65  57    86  57  49    79  54  49    76  52  48    74  49  45    81  55  54    87  61  60    75  49  48    64  38  39    70  44  45    68  42  43    80  54  55    70  44  45    68  42  43    72  48  46    70  46  44    72  48  46    72  46  45    77  51  50    79  53  52    68  39  41    91  65  64    94  66  65    68  42  41    83  55  54    77  51  50    70  42  39    74  49  45    77  49  46    76  51  47    81  53  49    74  49  44    77  49  45    87  62  57    76  51  46    82  57  50    70  43  36    59  32  25    70  41  35    72  43  37    62  33  27    63  34  28    64  35  29    61  34  27    59  32  25    65  38  31    57  30  23    47  22  15    57  30  23    51  26  21    57  32  27    51  26  21    49  24  19    52  29  23    55  32  26    54  31  25    54  31  25    56  33  27
 29  21  19    46  35  31    57  42  37    61  42  35    67  47  36    72  50  37    87  61  48    72  48  36    58  38  31    53  34  30    51  32  26    55  35  28    60  37  29    66  39  28    77  45  32    87  51  35    99  62  43   105  67  46   109  68  48   106  68  49   104  67  49   100  67  52    93  64  50    86  58  47    89  59  51    85  54  49    83  54  48    87  58  52    88  59  53    85  56  50    84  51  46    83  50  45    78  43  41    80  46  44    81  47  46    78  48  48    70  46  46    64  44  45    59  43  44    58  42  42    71  51  52    80  59  58    89  63  62    89  61  58    86  55  53    84  50  48    81  43  40    76  36  34    72  34  31    70  35  31    67  34  29    63  34  28    59  34  29    55  35  28    54  35  28    53  36  28    49  30  24    52  31  28    53  32  31    59  37  39    68  45  51    69  46  54    70  47  57    77  56  65    95  73  85   146 126 135   130 113 119   120 104 107   163 149 148   182 171 167   186 175 169   205 194 188   247 234 228   220 205 202   190 175 170   186 168 164   185 168 161   191 172 165   208 188 179   206 186 175   216 192 180   214 191 177   208 182 167   199 171 157   196 169 152   203 174 158   210 181 163   210 184 169   207 188 181   202 185 178   206 187 181   213 192 187   208 184 180   194 169 164   191 163 159   196 168 164   202 177 173   205 181 177   213 192 189   216 197 193   212 197 194   216 205 203   217 207 206   210 199 197   205 185 186   203 179 179   197 173 173   189 163 164   185 159 160   195 167 166   197 167 165   186 155 152   154 119 117   135  97  94   115  75  73   111  70  68   118  77  73   125  81  78   123  80  74   119  74  69   125  77  73   123  74  70   117  68  64   111  62  58   106  57  53   103  54  50   102  53  49   102  53  49   104  53  50   104  53  50   103  52  49   102  51  48   100  49  46    98  47  44    98  44  42    94  43  39    94  47  39    90  46  35    89  45  34    88  44  33    91  45  32    91  45  32    92  44  32    92  42  31    96  44  31   103  51  38   103  49  37    96  42  30    95  42  28   104  48  35   108  52  39   104  51  37   102  55  37    97  54  35    97  52  33    98  53  34   100  53  35   100  53  35   104  55  38   107  58  41   114  61  45   126  73  57   123  67  52   120  64  49   117  59  45   109  51  37   117  58  44   124  66  52   124  68  51   125  69  52   127  71  54   127  71  54   127  71  56   124  71  55   124  71  57   123  71  57   122  73  59   119  71  57   113  67  54   104  62  48    97  57  45    92  56  42    91  57  45    91  59  48    77  47  39    76  47  41    78  49  43    80  53  46    76  51  44    72  47  40    77  50  41    84  55  47    87  57  49    97  64  57   101  67  58    98  64  55    97  64  55    99  69  59    95  65  55    85  58  49    74  49  44    74  50  46    75  51  49    81  57  55    85  59  60    72  46  47    63  37  40    68  42  45    70  44  47    80  54  57    72  46  47    72  46  47    76  52  50    73  49  47    73  49  45    69  45  41    90  61  63    89  60  62    72  43  45    89  60  62    89  61  60    68  40  39    76  48  47    68  40  39    73  45  42    75  47  44    73  45  42    75  47  44    80  52  48    76  48  44    74  46  42    83  55  51    78  51  44    83  56  49    71  44  37    63  36  29    72  45  38    69  42  35    58  31  24    60  33  26    68  41  34    64  37  30    59  32  25    64  37  30    57  30  23    50  23  16    57  30  23    51  26  19    56  33  27    52  29  23    51  28  22    54  31  25    54  31  25    51  28  22    49  26  20    51  28  22
 26  18  16    41  30  26    59  46  40    61  44  36    72  52  43    72  50  37    88  62  49    72  48  36    57  38  31    55  38  31    55  36  30    57  37  30    58  35  27    61  37  27    73  44  30    84  51  34    99  62  44   104  66  47   108  67  47   104  66  47   103  66  48   103  70  55   100  68  55    95  65  55    90  60  52    84  53  48    80  51  45    83  54  48    86  57  49    85  56  48    85  52  45    83  50  43    81  46  42    83  49  47    85  51  50    81  51  51    73  49  49    65  45  46    59  43  44    57  41  41    71  53  53    79  59  58    86  62  60    85  60  56    87  57  55    89  55  53    84  46  43    75  37  34    72  34  31    70  35  31    69  36  31    66  35  30    62  34  30    58  35  29    54  34  27    52  33  27    51  30  27    54  33  32    54  34  35    60  40  42    68  47  54    68  47  56    68  46  58    76  56  67    87  67  79   154 137 147   148 131 139   121 104 110   152 136 137   176 162 161   182 168 165   196 183 177   229 216 210   208 195 189   184 171 165   186 171 166   189 172 165   189 170 163   204 184 175   205 185 174   208 184 172   207 184 170   202 176 161   194 166 152   191 162 146   198 167 149   206 175 157   209 180 166   206 183 175   205 184 179   211 187 183   213 188 183   208 180 176   198 169 165   196 165 162   198 167 162   202 173 169   209 181 177   216 191 187   213 192 189   213 193 192   221 206 203   223 209 208   211 195 195   204 183 182   201 175 174   196 170 169   189 161 160   179 151 150   176 146 144   165 134 132   146 112 110   122  87  85   116  78  75   114  74  72   123  82  78   131  87  84   129  84  81   122  77  74   120  72  70   121  72  68   118  69  65   114  65  61   110  61  57   106  57  53   103  54  50   102  51  48   100  49  46   104  53  50   104  53  50   103  52  49   101  50  47    99  48  45    97  46  43    94  43  40    92  43  38    94  47  39    90  46  35    87  43  32    87  43  32    91  45  32    93  47  34    93  45  33    92  44  32    99  50  36   104  55  41   104  52  39    97  45  32    95  43  29   103  50  36   107  54  40   104  52  38   104  57  39   103  58  39   101  56  37    98  53  34    99  52  34   103  56  38   108  59  42   108  59  42   118  65  49   127  74  58   125  69  54   121  65  50   119  61  47   114  56  42   119  61  47   126  68  54   128  72  57   125  72  56   124  71  55   123  70  54   123  70  56   124  71  57   124  70  58   123  71  58   120  70  59   114  68  55   107  63  52   100  60  48    97  59  48    95  59  47    92  58  46    91  59  48    78  48  40    78  49  43    83  54  48    85  58  51    80  55  48    74  49  42    77  50  41    82  53  45    83  53  45    95  62  55   102  68  59   102  68  59   100  67  58    98  68  58    92  62  52    80  53  44    71  46  41    73  49  45    77  53  51    81  57  55    79  53  54    66  40  41    60  34  37    66  40  43    74  48  51    81  55  58    71  45  46    71  45  46    75  51  49    75  51  49    77  53  49    72  48  44    84  55  57    85  56  58    70  41  43    82  53  55    85  57  56    73  45  44    79  51  50    69  41  40    81  53  50    79  51  48    74  46  43    75  47  44    79  51  47    77  49  45    75  47  43    79  51  47    75  48  41    76  49  42    68  41  34    68  41  34    75  48  41    67  40  33    58  31  24    63  36  29    74  47  40    67  40  33    59  32  25    63  36  29    57  30  23    51  24  17    58  31  24    52  27  20    55  32  26    51  31  24    52  32  25    54  34  27    51  31  24    45  25  18    43  23  16    45  25  18
 58  50  48    43  34  29    61  48  42    52  35  27    66  46  37    64  42  31    67  43  31    70  46  34    58  39  32    58  41  34    60  41  35    57  38  31    55  35  28    59  35  25    72  43  29    83  50  33    97  60  42   102  64  45   107  66  48   103  65  46   103  66  48   103  70  55   100  68  55    94  64  54    89  59  51    84  53  48    80  49  44    80  51  43    84  55  47    86  56  48    86  53  46    84  51  44    83  48  44    85  50  46    87  53  52    83  53  51    75  49  50    65  45  44    57  41  41    54  40  39    67  52  49    79  61  59    86  65  62    84  60  56    84  56  53    85  54  51    82  47  43    74  36  33    73  35  32    73  35  32    71  36  32    69  36  31    64  35  31    61  33  29    56  31  26    54  30  26    53  32  29    55  33  35    55  33  36    57  36  41    64  43  50    62  42  51    64  44  56    72  54  66    84  66  78   163 146 156   167 150 160   131 112 118   153 134 138   184 165 167   186 168 168   190 172 170   208 193 188   195 182 176   178 163 158   179 164 157   185 166 159   187 167 158   201 179 168   202 178 166   210 184 171   209 181 169   203 174 160   194 162 147   188 155 138   190 154 138   197 161 145   201 167 155   200 171 165   206 178 174   212 183 179   211 180 177   206 172 170   199 166 161   195 160 156   194 159 155   201 168 163   205 174 171   213 184 180   210 185 181   210 186 184   219 199 198   220 202 200   208 188 187   201 177 175   202 174 171   199 171 168   186 156 154   163 133 131   149 118 115   137 103 101   121  86  82   124  86  83   121  81  79   125  84  80   136  92  89   137  92  89   130  82  80   123  73  72   122  72  71   117  68  64   115  66  62   112  63  59   109  60  56   107  58  54   104  55  51   102  51  48    99  48  45   100  49  46   100  49  46    99  48  45    97  46  43    95  44  41    92  41  38    90  39  36    87  38  33    91  44  36    86  42  31    85  41  30    87  43  32    93  47  34    96  50  37    97  49  37    96  48  36   100  52  38   103  54  40   101  52  38    94  45  31    94  45  30   102  50  36   105  53  39   102  53  38   108  61  43   109  64  45   106  61  42    99  54  35    99  52  34   105  58  40   108  59  42   108  57  40   121  68  52   128  75  59   126  70  55   122  66  51   122  64  50   119  61  47   121  63  49   127  71  56   129  76  60   127  74  58   123  70  54   121  68  52   121  68  54   121  69  55   122  70  57   121  72  58   114  66  54   111  65  52   105  63  51   103  63  51   101  65  53    97  63  51    90  58  45    85  53  42    81  51  43    81  50  45    83  54  48    85  58  51    81  56  49    76  51  44    80  53  44    86  57  49    90  60  52   100  67  60   107  73  64   105  71  62   102  68  59    97  64  55    87  57  47    76  49  40    73  48  43    75  51  47    78  54  52    78  54  52    70  44  45    59  33  34    57  31  34    64  38  41    75  49  52    78  52  55    66  40  41    67  41  42    71  47  45    75  51  49    81  57  53    75  51  47    66  40  41    75  46  48    70  41  43    77  48  50    80  52  51    75  47  46    82  54  53    75  47  46    79  51  48    79  51  48    76  48  45    73  45  42    72  44  40    71  43  39    71  43  39    73  45  41    70  43  36    67  40  33    64  37  30    69  42  35    75  48  41    66  39  32    61  34  27    71  44  37    79  52  45    69  42  35    59  32  25    62  35  28    56  29  22    51  24  17    59  32  25    52  27  20    54  31  25    51  31  24    51  31  24    52  32  25    48  28  21    43  23  16    43  23  16    47  27  20
115 107 105    37  28  23    59  46  40    50  36  27    53  35  25    58  36  25    57  33  21    64  42  31    59  40  33    61  44  37    61  44  37    57  38  31    54  34  27    58  36  25    70  42  30    81  49  34    92  56  40   100  62  43   106  65  47   104  66  47   103  66  48   101  68  53    96  64  51    90  57  48    89  56  49    84  54  46    81  51  43    80  50  42    84  54  46    87  57  47    88  55  48    87  52  46    85  47  44    86  51  47    87  53  52    83  53  51    75  49  50    65  44  43    58  40  40    52  38  37    64  50  47    78  64  61    89  71  67    83  62  57    78  53  49    79  50  46    78  45  40    74  36  33    73  35  32    73  35  32    73  35  32    71  36  32    68  34  32    63  32  29    60  31  27    55  30  26    58  34  34    57  35  37    53  31  34    52  31  36    57  36  43    55  35  44    57  39  51    69  51  63    83  65  77   143 126 136   160 140 151   144 123 130   166 143 149   188 166 169   190 165 168   199 175 175   211 192 188   204 187 180   182 163 157   172 153 146   177 154 148   185 160 153   201 174 165   201 173 162   207 175 164   206 172 162   203 167 155   197 159 146   192 153 138   194 152 138   200 158 142   205 165 153   207 170 164   212 177 173   217 182 178   215 177 174   207 169 166   200 161 156   193 154 149   188 149 144   200 163 157   201 166 162   208 175 170   210 181 177   212 184 181   216 192 190   215 194 191   206 182 180   199 171 167   194 165 161   184 155 151   164 133 130   139 105 103   126  91  87   124  86  83   118  78  76   122  81  79   124  80  77   130  85  82   138  90  88   137  87  86   129  79  78   125  74  73   125  74  73   117  66  63   115  64  61   112  61  58   110  59  56   109  58  55   107  56  53   103  52  49    99  48  45    98  47  44    98  47  44    97  46  43    96  45  42    94  43  40    91  40  37    89  38  35    87  38  33    89  42  32    88  42  29    88  42  29    91  45  32    94  48  35    96  50  37    96  50  35    95  49  34    98  52  37    99  51  37    96  49  33    92  45  29    93  46  30    99  50  35   102  53  38   100  53  37   108  61  43   111  64  46   108  61  43   102  55  37   102  53  36   108  59  42   113  62  45   110  59  42   123  70  54   127  74  58   127  71  56   122  66  51   124  66  52   123  65  51   122  64  50   128  72  57   130  77  61   126  75  58   122  70  56   118  66  52   117  65  51   115  66  51   118  69  55   118  70  58   113  66  56   108  64  53   102  62  52   102  64  53   102  66  54    98  64  52    90  58  47    82  52  42    85  55  47    82  51  46    80  51  45    81  54  47    79  54  47    78  53  46    85  58  49    92  63  55    96  66  58   105  72  65   109  75  66   106  72  63   101  67  58    95  62  53    87  57  47    81  52  44    79  54  49    78  54  50    78  54  52    73  49  47    62  38  38    53  29  29    56  31  34    61  36  39    67  42  45    70  45  48    63  39  39    67  43  43    72  48  46    75  51  49    81  57  53    71  47  43    61  35  36    71  45  46    74  48  49    75  49  50    72  46  45    69  43  42    73  47  46    72  46  45    69  44  40    73  48  44    75  50  46    70  45  41    61  36  31    58  33  28    62  37  32    66  41  36    66  41  34    62  37  30    60  35  28    66  41  34    69  44  37    60  35  28    59  34  27    71  46  39    77  52  45    67  42  35    56  31  24    58  33  26    53  28  21    49  24  17    58  33  26    54  29  22    53  30  24    49  29  22    48  28  21    48  28  21    46  26  19    43  23  16    46  26  19    52  32  25
174 169 166    39  32  26    47  36  30    59  45  36    48  30  20    57  37  26    64  42  31    58  36  25    60  41  34    63  46  39    62  45  38    56  39  32    52  33  26    59  37  26    70  44  31    80  48  35    88  52  36    96  59  41   103  64  47   104  65  48   103  66  50   101  65  51    94  60  48    86  54  43    86  53  44    87  54  47    85  52  45    81  51  41    83  53  43    89  56  47    91  56  50    89  54  48    87  49  46    89  51  48    89  54  52    84  53  51    76  48  47    65  44  43    59  41  41    55  39  39    61  50  46    79  68  64    90  75  70    83  64  58    76  52  48    78  49  45    78  45  40    73  38  34    74  36  33    74  34  32    73  35  32    72  34  31    68  33  31    66  32  30    62  31  28    60  30  28    63  34  36    60  35  38    54  29  33    50  27  33    51  30  37    49  29  38    51  34  44    65  48  58    78  61  71   107  87  98   133 112 121   152 126 135   172 145 152   180 151 156   183 152 157   205 175 177   206 178 177   204 179 174   182 154 150   171 144 137   179 150 144   192 162 154   207 173 164   207 170 162   201 163 154   199 159 149   197 154 145   194 150 139   191 145 132   189 141 129   192 144 130   197 150 140   191 150 144   195 155 153   200 159 157   200 159 155   196 155 151   190 149 145   186 142 139   179 138 134   195 154 150   197 158 153   205 170 166   212 179 174   213 184 180   219 191 188   217 191 190   206 178 175   189 158 153   174 141 134   155 122 117   134 101  94   117  82  78   118  80  77   124  84  82   123  82  80   125  81  78   129  84  81   136  88  86   139  89  88   137  86  85   134  80  80   129  73  74   124  70  70   119  65  63   113  62  59   110  59  56   108  57  54   108  57  54   107  56  53   102  51  48    98  47  44    99  48  45    99  48  45    98  47  44    97  46  43    96  45  42    94  43  40    92  41  38    90  41  36    92  44  34    92  46  33    94  48  35    95  49  36    94  48  35    93  47  34    92  46  31    91  45  30    94  48  33    93  47  32    92  46  30    91  45  29    94  48  32    98  52  36   101  54  38   100  53  37   104  57  39   105  58  40   105  58  40   104  57  39   107  58  41   112  63  46   117  66  49   117  66  49   125  72  56   125  72  56   126  70  55   121  65  50   124  66  52   125  67  53   121  63  49   128  72  57   129  76  60   126  75  58   123  71  57   116  67  52   111  62  47   110  62  48   113  65  53   116  70  57   112  68  57   107  65  53    99  61  50    97  61  49    97  63  51    97  65  52    93  63  52    90  60  50    87  57  49    81  50  45    76  47  41    78  49  43    80  53  46    82  55  48    87  58  50    93  63  55    98  65  58   104  69  63   109  72  64   106  69  61   100  66  57    96  63  54    94  61  52    91  62  54    84  59  54    78  54  50    76  52  50    70  46  44    58  34  34    55  31  31    59  34  37    58  36  38    59  34  37    65  40  43    66  42  42    74  50  50    75  51  49    74  50  48    76  52  48    62  38  34    63  37  38    70  44  45    77  51  52    75  49  50    70  44  43    69  43  42    71  45  44    75  49  48    70  45  41    76  51  47    83  58  54    77  52  48    63  38  33    61  36  31    67  42  37    69  44  39    67  42  35    63  38  31    62  37  30    66  41  34    63  38  31    54  29  22    55  30  23    66  41  34    72  47  40    64  39  32    54  29  22    57  32  25    51  26  19    47  22  15    58  33  26    54  31  23    50  30  23    46  26  19    44  24  17    46  26  19    46  26  19    46  26  19    50  30  23    56  36  29
229 224 221    78  71  65    34  23  17    56  43  35    56  39  31    56  38  26    64  44  33    55  35  26    59  42  34    61  46  39    60  45  38    55  38  31    53  34  27    58  38  29    69  45  33    76  46  35    85  52  37    95  58  40   102  63  46   104  65  48   103  66  50   102  66  52    94  60  48    88  54  44    84  50  41    87  54  45    88  55  46    85  52  43    85  52  43    89  57  46    92  58  49    93  56  48    91  52  47    91  53  50    90  55  53    84  53  51    77  49  48    69  45  43    62  42  41    58  43  40    64  53  49    79  70  65    88  75  69    83  66  59    78  57  52    84  56  52    81  50  45    74  39  35    74  36  33    73  35  32    73  33  31    71  33  30    70  32  31    67  32  30    67  32  30    64  33  31    66  36  36    65  36  40    57  31  34    53  28  32    50  29  34    45  26  32    49  30  36    62  42  51    91  71  80   105  84  91   137 111 120   160 130 138   171 138 145   178 143 149   186 146 154   203 164 167   205 166 167   200 165 163   177 139 138   167 127 125   175 135 133   182 141 137   192 149 143   192 147 142   189 142 136   184 135 128   178 129 122   174 124 115   168 116 105   160 106  96   157 103  93   155 105  96   149 104  99   146 105 101   150 106 103   155 112 106   156 113 107   153 110 104   151 106 101   149 106 100   164 123 117   172 133 126   185 148 142   190 155 151   193 162 159   205 176 172   204 174 172   187 158 154   166 133 126   147 113 104   130  95  89   123  86  78   119  80  75   127  86  82   135  91  88   132  87  84   137  89  87   142  92  91   142  91  90   138  84  84   135  79  80   135  79  80   130  71  73   121  62  64   119  63  62   114  61  57   109  56  52   107  54  50   108  55  51   106  53  49   102  49  45    98  45  41    98  45  41    98  45  41    97  46  42    96  45  41    95  44  40    94  43  39    92  41  37    90  41  34    89  41  31    93  47  34    98  52  39    98  52  39    95  49  34    91  45  30    88  45  29    88  45  29    88  45  28    87  44  27    88  45  28    91  48  31    95  52  33    99  56  37   101  56  37   101  56  37   102  55  37   103  54  37   104  55  38   108  59  42   113  62  45   114  63  46   116  65  48   119  68  51   125  72  56   123  70  54   125  69  54   119  63  48   123  67  52   126  70  55   120  62  48   127  71  56   125  73  59   124  75  60   122  73  59   116  67  53   109  60  46   106  58  44   109  63  50   112  68  57   106  63  54   101  61  51    97  60  51    96  62  52    98  66  55    98  68  57    97  67  57    96  66  56    87  57  49    79  48  43    74  45  39    79  50  44    83  56  49    84  57  50    84  55  47    85  55  47    95  62  55   100  65  59   105  68  60   104  67  59    98  64  55    95  62  53    97  64  55    96  67  59    87  59  55    77  52  48    73  49  47    68  44  42    58  37  36    58  37  36    62  40  42    58  38  39    59  37  39    65  43  45    68  47  46    74  53  52    73  49  47    70  46  44    74  49  45    59  34  30    73  47  48    69  43  44    74  48  49    73  47  48    73  47  46    75  49  48    75  49  48    82  56  55    72  47  43    77  52  48    84  59  55    80  55  51    68  43  38    68  43  38    72  47  42    69  44  39    63  38  33    62  37  32    64  39  34    66  41  36    60  35  30    52  27  22    53  28  23    59  34  29    66  41  36    60  35  30    52  27  22    56  31  26    49  24  19    45  20  15    58  33  28    56  33  27    49  29  22    44  25  18    42  23  16    45  26  19    48  29  22    48  29  22    51  32  25    55  36  29
255 254 251   128 121 115    23  14   9    42  32  23    67  53  44    52  35  25    56  38  26    56  38  28    60  43  35    61  46  39    60  45  38    53  38  31    52  35  28    59  39  30    69  45  35    75  47  35    84  51  36    93  57  41   100  63  45   103  64  47   103  66  50   104  66  53    99  63  51    91  57  47    82  48  39    89  55  46    91  57  48    87  55  44    86  54  43    90  56  46    95  58  49    94  57  49    93  54  47    94  55  50    93  55  52    87  53  51    79  49  47    71  47  45    65  46  42    61  46  43    67  56  52    79  70  65    86  73  67    80  65  58    83  62  57    89  64  59    86  55  50    74  41  36    72  37  33    73  35  32    72  32  30    71  31  29    69  31  30    69  31  30    68  33  31    69  33  33    69  35  36    68  38  40    63  33  35    56  30  33    54  29  33    47  25  28    48  27  32    60  39  44   103  80  86   124  99 105   156 127 132   158 125 132   159 122 129   178 137 143   186 141 148   185 140 145   227 181 183   213 167 169   174 128 128   157 109 109   155 107 105   153 103 102   157 108 104   160 109 106   154 103  99   148  97  93   147  94  88   146  93  85   143  88  81   136  82  72   133  78  71   133  80  74   128  80  76   119  75  72   118  73  68   123  78  73   125  80  75   122  77  72   119  74  68   119  76  69   125  82  76   138  97  91   153 114 109   156 119 113   162 129 124   179 148 145   178 147 145   155 124 121   143 108 102   131  94  86   125  88  80   128  89  82   131  90  84   140  97  91   143  98  95   139  91  89   141  91  90   144  93  92   139  85  85   128  72  73   127  68  70   133  73  75   130  70  72   120  60  60   120  62  60   113  58  55   107  52  49   104  51  47   105  52  48   104  51  47   100  47  43    96  43  39    94  41  37    94  41  37    93  42  38    93  42  38    92  41  37    91  40  36    90  39  35    88  39  32    83  36  26    90  44  31    98  52  39   100  54  41    96  50  35    92  46  31    89  46  30    90  47  31    86  43  26    86  43  26    87  44  27    92  49  32    98  55  36   101  58  39   101  58  39   103  58  39   105  58  40   103  54  37   105  56  39   113  62  45   115  64  47   112  61  44   113  62  45   117  66  49   124  71  55   122  69  53   124  68  53   118  62  47   123  67  52   126  70  55   119  61  47   126  70  55   123  71  57   124  75  60   123  74  60   116  67  53   106  58  44   102  56  43   105  61  50   110  68  56    96  56  46    96  58  47    96  62  52   100  68  57   101  71  60   102  72  62    98  70  59    96  66  58    88  55  50    80  47  42    76  45  40    81  52  46    87  60  53    85  58  51    80  51  43    77  47  39    95  60  54    98  63  57   104  67  59   103  66  58    99  62  54    95  61  52    95  62  53    95  66  58    85  57  53    74  49  45    70  46  44    68  44  42    61  40  39    63  43  42    65  45  46    58  38  39    67  47  48    69  49  50    70  49  48    72  51  50    67  43  41    66  42  40    74  49  45    61  36  32    87  61  62    74  48  49    73  47  48    71  45  46    74  48  47    79  53  52    75  49  48    82  56  55    66  41  37    68  43  39    74  49  45    73  48  44    64  39  34    65  40  35    67  42  37    59  34  29    56  31  26    59  34  29    64  39  34    66  41  36    60  35  30    54  29  24    55  30  25    58  33  28    61  36  31    57  32  27    51  26  21    55  30  25    48  23  18    44  19  14    58  33  28    57  34  28    49  29  22    43  24  17    42  23  16    47  28  21    50  31  24    50  31  24    51  32  25    53  34  27
254 249 246   208 201 195    44  35  30    41  31  22    60  46  37    57  40  30    55  37  25    61  44  34    54  40  31    56  43  35    66  53  47    59  44  37    55  38  31    59  40  33    62  39  31    75  48  37    83  51  38    95  59  43   100  63  45    99  60  43   102  63  48   107  69  56   102  66  54    93  56  47    89  52  43    89  55  45    85  51  41    86  52  42    93  59  49    89  55  43    89  53  41    98  60  51    95  54  48    89  50  45    89  52  46    92  59  54    86  57  53    72  47  43    66  45  42    66  51  46    72  61  57    77  68  63    84  71  65    92  75  68   104  83  78   109  84  79    98  69  63    85  52  47    76  41  37    76  38  35    74  34  32    73  33  31    75  37  36    78  40  39    76  38  37    72  34  33    72  36  36    70  36  37    69  35  36    53  23  25    57  28  30    49  23  24    41  16  19    86  61  64   153 127 130   149 118 123   146 111 115   146 107 112   141  98 105   135  90  95   137  88  94   143  92  97   179 127 131   173 118 121   158 103 106   144  89  92   142  88  88   146  92  92   147  93  91   143  89  87   140  87  83   138  85  81   138  85  81   140  87  81   143  90  84   143  90  82   137  84  78   130  80  73   125  77  73   119  74  69   117  72  67   119  74  69   125  80  74   128  83  77   126  81  75   122  79  72   123  80  73   124  83  77   130  91  86   132  95  89   130  95  91   135 102  97   137 103 101   128  95  90   130  93  87   128  89  82   128  89  82   127  86  80   128  85  79   138  93  88   146  98  96   142  92  91   142  91  90   142  88  88   138  82  83   135  76  78   131  71  73   128  66  69   125  63  66   124  62  63   115  57  55   111  53  49   108  50  46   106  51  46   102  47  42    97  42  37    95  40  35    97  42  37    96  43  37    94  41  35    90  40  33    88  38  31    87  37  30    88  38  31    89  40  33    90  42  32    83  37  24    90  44  29    94  48  33    92  46  31    92  46  31    94  48  33    88  45  28    82  39  22    81  38  21    87  44  27    91  48  29    91  48  29    94  51  32   102  59  40   109  66  47   113  68  49   109  60  43   111  60  43   111  60  43   113  60  44   114  61  45   116  63  47   118  65  49   119  66  50   129  73  58   127  71  56   121  65  50   116  60  45   117  61  46   122  66  51   120  64  49   115  59  44   117  65  51   121  69  56   115  65  54   113  63  52   114  66  54   110  63  53   102  60  48   102  62  52    93  55  46    89  52  43    93  59  50   103  70  61   103  73  63    95  65  57    91  61  53    94  64  56    89  56  51    88  55  50    84  53  48    82  53  47    82  55  48    84  57  50    84  55  47    83  53  45    99  64  58   102  65  59   108  69  62   111  74  66   106  69  61    95  61  52    91  58  49    92  62  54    83  55  51    78  53  49    78  54  52    75  51  49    63  42  41    61  41  40    65  45  46    63  45  45    71  53  53    69  51  51    67  47  46    67  46  45    66  42  40    57  33  31    65  40  36    86  61  57    91  67  67    89  65  65    76  52  52    67  43  43    69  45  43    69  45  43    70  46  44    79  55  53    62  38  34    74  50  46    73  49  45    66  42  38    69  46  40    70  47  41    63  40  34    57  34  28    47  23  19    57  33  29    64  40  36    62  38  34    59  35  31    59  35  31    59  35  31    58  34  30    58  34  30    54  30  26    50  26  22    48  24  20    49  25  21    50  26  22    50  26  22    49  25  21    45  25  18    44  25  18    46  27  20    47  28  21    47  28  21    47  28  21    47  28  21    47  28  21
255 253 250   239 234 230   105  98  92    25  16   9    58  45  37    54  40  31    59  42  32    71  54  44    55  41  32    53  40  32    61  48  42    56  43  37    51  36  29    53  36  28    55  32  24    67  40  29    75  46  32    91  55  41   100  63  47   102  63  48   104  64  52   108  68  56   103  65  54    94  57  48    93  56  47    92  55  46    87  50  41    86  52  40    92  58  46    91  55  43    89  51  40    96  58  47    96  56  48    90  49  43    88  49  44    89  54  48    84  53  48    72  47  42    67  46  41    70  52  48    75  61  58    78  67  63    89  74  69   101  84  77   112  91  86   115  90  85   106  77  71    97  64  59    85  50  46    81  43  40    76  38  35    76  38  35    78  40  39    79  41  40    78  40  39    77  39  38    69  30  31    71  32  33    74  38  38    61  27  26    57  27  27    56  26  26    63  35  34   112  84  83   148 118 118   141 107 108   130  91  94   119  79  80   114  69  74   119  70  74   130  79  84   143  88  93   159 102 108   159 103 106   156 100 103   153  97 100   155  99 100   156 102 102   152  98  98   145  91  89   142  91  88   140  89  85   138  87  83   136  87  82   135  86  81   130  81  74   122  73  68   116  69  63   117  72  67   115  70  65   113  68  63   115  70  65   120  75  69   123  78  72   124  79  73   122  79  72   123  80  73   123  82  76   130  89  85   130  91  86   127  89  86   132  94  91   133  98  96   129  91  90   124  85  80   126  85  79   131  90  86   133  90  84   130  85  82   140  92  90   150 100  99   149  98  97   147  93  93   145  89  90   141  82  84   135  75  77   130  68  71   126  64  67   126  61  65   125  61  62   118  58  57   111  53  49   106  48  44   105  47  43   102  44  40    95  40  35    95  40  35    98  43  38    95  42  36    94  41  35    91  41  34    90  40  33    90  40  33    91  41  34    92  43  36    93  45  35    86  40  27    90  44  29    93  47  32    93  47  32    93  47  32    93  47  32    89  46  29    86  43  26    85  42  25    90  47  30    93  50  31    93  50  31    97  54  35   105  62  43   111  66  47   112  67  48   112  61  44   113  60  44   113  60  44   114  61  45   115  62  46   117  64  48   119  66  50   120  67  51   126  70  55   126  70  55   125  69  54   123  67  52   125  69  54   125  69  54   118  62  47   108  52  39   117  63  51   120  68  55   115  65  54   111  63  51   114  66  56   107  63  52   101  58  49   101  63  52    98  60  51    92  58  48    95  61  52   101  68  59    98  68  60    89  59  51    85  55  47    89  59  51    92  59  54    90  57  52    88  57  52    90  59  54    89  60  54    86  57  51    84  54  46    84  51  44    98  63  57   102  65  59   107  68  61   110  71  64   106  69  61    99  65  56   100  66  57   102  72  64    83  55  51    76  51  47    74  50  48    69  48  45    60  40  39    58  40  38    62  44  44    59  41  41    64  46  46    68  50  50    68  48  47    65  45  44    62  41  38    58  34  32    68  43  39    88  63  59    88  64  64    88  64  64    77  53  53    66  42  42    65  41  39    64  40  38    65  41  39    74  50  48    66  42  38    73  49  45    70  46  42    66  42  38    73  50  44    75  52  46    64  41  35    55  32  26    53  29  25    60  36  32    64  40  36    61  37  33    56  32  28    56  32  28    57  33  29    55  31  27    56  32  28    54  30  26    50  26  22    49  25  21    50  26  22    50  26  22    49  25  21    45  24  19    43  24  17    44  25  18    45  26  19    46  27  20    47  28  21    47  28  21    47  28  21    47  28  21
252 248 245   255 254 250   180 173 167    27  18  11    46  33  25    51  37  28    55  41  30    63  49  38    58  45  36    52  39  31    55  44  38    55  42  36    52  39  33    50  35  28    48  28  21    60  36  26    69  39  28    86  53  38   101  64  48   104  65  50   105  65  53   107  67  55   103  65  54    96  58  47    99  61  50    95  59  47    88  52  40    89  53  41    93  57  45    90  54  40    88  50  37    94  54  44    99  56  49    90  50  42    86  47  40    85  50  44    81  50  45    74  46  42    72  48  44    75  56  52    78  63  60    81  66  63    96  78  74   115  96  90   126 102  98   124  96  92   116  87  81   110  79  74    98  65  60    87  52  48    79  44  40    79  44  40    80  45  43    78  43  41    78  43  41    82  47  45    73  35  34    74  36  35    81  46  44    71  37  35    64  30  29    62  31  29    72  41  39   112  81  79   114  80  79   118  82  82   119  79  80   116  74  75   118  72  75   128  79  82   141  91  94   150  98 102   148  93  98   150  95 100   152  97 100   152  97 100   153  98 101   148  97  96   139  89  88   130  80  79   129  81  79   129  81  77   127  82  77   126  83  77   124  81  75   119  79  71   114  73  67   111  70  64   114  71  65   113  69  66   112  69  63   113  70  64   116  73  66   120  77  70   123  80  73   125  82  75   129  86  80   128  87  81   133  92  88   132  91  87   125  85  83   128  88  88   133  93  94   129  89  89   124  83  81   132  88  85   141  97  96   143  98  95   137  91  91   145  97  97   155 105 106   155 103 105   150  96  96   147  91  92   142  82  84   135  73  76   128  66  69   126  61  65   125  59  63   124  60  61   117  56  55   111  52  48   107  48  44   105  47  43   102  44  40    97  39  35    94  39  34    96  41  36    95  42  36    95  42  36    93  43  36    94  44  37    93  44  37    94  45  38    95  46  39    95  47  37    91  45  32    90  44  29    91  45  30    94  48  33    95  49  33    93  47  31    93  47  31    94  48  32    94  49  30    97  52  33    99  54  35    99  54  35   103  58  37   110  65  44   114  67  47   111  64  44   112  59  43   114  58  43   115  59  44   116  60  45   118  62  47   120  64  49   122  66  51   123  67  52   128  72  57   128  72  57   126  70  55   126  70  55   128  72  57   128  72  57   118  62  47   107  51  38   117  63  51   120  68  57   114  64  55   111  63  53   113  64  57   107  63  54   101  58  51   100  62  53    99  60  53    94  60  51    96  61  55    98  65  58    94  61  56    86  53  48    85  52  47    91  58  53    95  60  56    90  57  52    89  58  53    95  64  59    94  65  59    86  57  51    82  52  44    84  51  44    98  63  57   101  64  58   106  67  60   109  70  63   107  70  62   104  70  61   108  74  65   110  80  72    87  59  55    76  51  47    72  48  46    67  46  43    60  40  39    60  42  40    62  44  44    56  40  40    56  40  40    65  49  49    66  48  46    61  41  40    60  39  36    62  38  36    72  47  43    88  63  59    82  58  58    85  61  61    78  54  54    66  42  42    60  36  34    58  34  32    61  37  35    69  45  43    67  43  39    72  48  44    67  43  39    62  38  34    68  45  39    71  48  42    64  41  35    58  35  29    60  36  32    63  39  35    63  39  35    58  34  30    54  30  26    53  29  25    53  29  25    53  29  25    55  31  27    53  29  25    51  27  23    50  26  22    50  26  22    49  25  21    48  24  20    45  24  19    42  23  16    42  25  17    43  26  18    44  27  19    45  28  20    45  28  20    45  28  20    45  28  20
245 244 240   255 255 250   233 228 224    80  71  64    29  18  12    52  39  31    55  41  32    48  35  26    60  47  38    52  39  31    55  44  38    56  45  39    56  43  37    53  38  31    48  29  22    59  37  26    68  40  28    86  52  40   101  63  50   104  65  50   103  63  51   103  63  51   102  62  52    98  60  49   104  66  55    97  59  48    91  53  42    90  54  40    91  55  41    90  52  39    89  49  37    91  51  39    99  56  47    93  50  43    87  46  40    87  50  42    84  51  46    78  51  44    76  53  47    77  56  51    83  64  60    82  64  62   101  82  78   125 104  99   133 108 104   129 101  97   124  95  89   121  90  85   108  75  70    93  60  55    82  49  44    83  50  45    82  48  46    78  44  42    79  45  43    87  53  51    79  44  42    75  40  38    84  49  47    81  46  44    77  43  41    76  42  40    76  42  40    91  57  55    95  60  58   112  74  73   126  86  86   130  88  89   133  87  89   138  89  92   141  91  94   139  89  92   144  92  96   143  91  95   141  89  93   139  87  89   137  85  87   133  83  84   125  77  77   118  73  70   120  74  74   120  76  73   119  78  74   119  80  73   119  80  75   118  81  73   119  82  76   121  82  77   120  79  75   122  78  75   121  77  74   120  77  71   120  77  71   123  80  73   129  86  79   133  90  83   140  97  91   139  96  90   141  97  94   138  94  93   129  85  86   129  85  86   135  90  93   134  89  92   135  91  92   140  96  97   151 105 107   154 108 110   152 103 106   157 107 108   161 109 111   157 102 105   153  97 100   149  90  92   141  81  83   132  70  73   127  62  66   123  58  62   123  57  61   123  57  59   114  50  50   109  48  45   109  48  45   109  50  46   106  47  43    98  40  36    94  36  32    93  38  33    98  43  38    97  44  38    96  46  39    96  46  39    96  47  40    95  46  39    95  46  39    95  47  37    95  49  36    90  44  29    90  44  29    95  49  34    96  50  34    93  47  31    95  49  33   100  54  38   101  56  37   104  57  39   105  58  40   105  58  40   109  62  42   116  68  48   116  68  48   114  63  44   111  58  42   114  58  43   114  58  43   115  59  44   117  61  46   120  64  49   122  66  51   123  67  52   133  77  62   130  74  59   125  69  54   122  66  51   126  70  55   129  73  58   124  68  53   115  59  46   118  64  52   122  68  58   117  64  56   113  63  54   114  65  58   108  64  55   102  59  52   101  63  54    96  57  50    95  58  50    95  60  54    95  62  55    92  59  54    87  54  49    90  57  52    98  65  60    96  61  57    88  53  49    86  53  48    91  60  55    91  62  56    83  54  48    81  51  43    88  55  48    98  63  57   103  66  60   107  68  61   108  69  62   107  68  61   106  69  61   107  73  64   108  78  70    90  62  58    77  52  48    71  47  45    67  46  43    61  41  40    62  44  42    61  45  45    55  39  39    57  41  41    64  48  48    63  45  43    56  36  35    61  40  37    68  44  42    74  49  45    81  56  52    77  53  53    81  57  57    78  54  54    66  42  42    58  34  32    57  33  31    63  39  37    69  45  43    63  39  35    71  47  43    68  44  40    60  36  32    61  38  32    62  39  33    60  37  31    62  39  33    63  39  35    63  39  35    60  36  32    56  32  28    52  28  24    52  28  24    52  28  24    53  29  25    55  31  27    53  29  25    50  26  22    48  24  20    47  23  19    47  23  19    48  24  20    46  25  20    41  22  15    41  24  16    42  25  17    43  26  18    44  27  19    44  27  19    44  27  19    44  27  19
247 246 242   246 243 238   255 253 249   166 157 150    29  18  12    50  40  31    59  46  37    49  36  27    55  42  33    48  38  29    55  44  38    55  44  38    53  42  36    53  40  32    49  32  24    59  36  28    72  44  33    86  54  41    99  63  49   102  62  50    99  59  47    98  58  46   100  60  50   101  61  51   106  66  54    97  59  46    93  55  42    93  55  42    92  54  41    88  51  35    89  49  37    92  50  38   100  56  47    94  51  44    90  49  43    90  53  45    88  55  50    84  55  49    79  54  49    79  55  51    86  65  62    83  62  61   104  80  78   130 105 101   135 107 104   130 101  97   128  97  92   126  95  90   113  82  77    97  66  61    85  54  49    85  54  49    85  54  51    79  50  46    81  52  48    89  60  56    84  50  49    78  44  43    86  52  51    89  55  54    91  57  56    94  60  59    90  54  54    91  55  55    98  59  60   112  73  74   124  84  85   125  83  85   122  80  82   125  80  83   127  81  84   127  78  82   134  83  88   132  82  85   131  81  84   130  81  84   131  82  85   130  84  86   129  83  85   129  85  84   132  88  89   129  88  86   127  86  84   124  85  80   123  83  81   124  87  81   127  89  86   129  91  88   134  90  89   136  91  88   135  90  87   133  88  83   131  86  81   133  88  83   138  93  88   142  97  92   148 103  98   146  98  94   146  98  96   143  95  95   132  83  86   131  82  85   138  87  92   138  89  93   143  97 100   144  99 102   154 108 111   160 114 117   162 113 117   166 116 119   163 111 115   152  97 100   151  95  98   146  87  91   138  78  80   128  66  69   123  58  62   120  55  59   120  54  58   121  55  57   114  50  50   108  47  44   107  46  43   107  48  44   105  46  42    98  40  36    97  39  35    97  42  37   101  46  41   100  47  41    98  48  41    97  47  40    95  46  39    94  45  38    93  44  37    92  44  34    96  50  35    89  46  29    89  46  29    93  50  33    96  50  34    95  49  33    98  51  33   104  57  39   107  60  42   110  61  44   111  63  43   111  63  43   115  67  47   121  70  51   119  68  49   115  62  44   114  58  43   115  57  43   115  57  43   116  58  44   118  60  46   120  62  48   121  65  50   122  66  51   132  76  61   129  73  58   124  68  53   121  65  50   125  69  54   131  75  60   129  73  58   122  66  53   122  65  56   123  68  61   119  66  60   114  64  57   116  67  60   109  65  56   103  60  53   103  65  56    97  58  51    96  59  53    95  60  56    95  60  56    92  57  53    90  55  51    95  60  58   102  67  65    95  60  56    84  49  45    78  45  40    81  50  45    82  53  47    78  49  43    82  52  44    93  60  53    97  62  56   104  67  61   110  71  64   109  70  63   105  66  59   102  65  57    99  65  56    99  66  59    86  58  54    73  48  44    67  43  41    63  42  39    59  39  38    60  42  40    58  42  42    50  36  35    61  47  46    65  49  49    59  41  39    53  33  32    64  43  40    75  51  49    75  50  46    73  48  44    72  48  48    74  53  52    74  53  52    64  43  42    56  35  32    61  40  37    69  48  45    71  50  47    60  39  34    70  49  44    70  49  44    65  44  39    65  45  38    61  41  34    57  37  30    59  39  32    60  39  34    57  36  31    54  33  28    52  31  26    52  31  26    51  30  25    51  30  25    52  31  26    53  32  27    51  30  25    47  26  21    44  23  18    43  22  17    43  22  17    45  24  19    47  26  21    41  22  15    40  23  15    41  24  16    42  25  17    43  26  18    42  25  17    42  25  17    41  24  16
242 241 237   231 228 223   254 249 245   227 220 214    59  50  43    41  31  22    59  46  37    56  43  34    43  33  23    45  35  25    56  45  39    53  42  36    48  37  31    50  37  31    48  31  24    55  35  26    75  47  36    86  54  43    96  60  48    98  60  47    98  56  44    98  56  44   100  60  50   103  63  53   104  64  52    97  57  45    96  58  45    97  59  46    91  54  38    89  50  35    92  50  38    92  50  38    99  55  46    94  51  42    93  50  43    92  53  46    90  57  50    86  57  51    79  54  49    76  52  48    88  62  61    83  57  58   102  76  75   128 100  97   131 101  99   129 100  96   132 101  96   128  97  92   118  87  82   105  74  69    95  64  59    92  63  57    92  63  59    88  60  56    89  61  57    94  66  62    96  65  63    95  64  62    99  67  68   100  66  65   100  66  65   105  71  70   107  71  71   108  72  72   104  65  66   110  71  72   116  76  77   116  76  77   116  76  77   120  80  81   127  85  89   133  88  91   132  83  87   132  81  86   132  83  86   137  88  91   138  92  94   138  92  94   139  93  95   141  97  98   143  99 100   138  96  97   134  92  93   131  91  89   132  92  92   134  94  92   136  98  95   138  98  96   140  96  95   142  96  96   141  96  93   139  94  91   137  92  89   138  93  88   142  97  92   147  99  95   148 100  96   143  93  92   143  93  94   143  91  93   135  83  87   134  82  86   142  87  93   141  88  96   147 100 106   147 102 107   157 110 116   165 118 124   170 119 126   170 119 124   164 109 115   146  91  96   147  88  94   141  82  86   134  72  77   125  63  66   120  55  59   117  52  56   118  52  56   118  52  54   117  53  53   111  47  45   104  43  40   103  42  39   102  41  38    99  40  36   101  43  39   107  49  45   101  46  41   100  47  41    98  45  39    95  45  38    92  43  36    91  42  35    90  41  34    89  42  32    94  48  33    90  47  30    90  47  30    92  49  32    96  50  34    97  51  35   101  54  36   105  58  40   110  61  44   114  65  48   118  67  48   118  67  48   120  69  50   123  70  52   121  68  50   118  62  45   118  60  46   118  60  46   118  60  46   118  60  46   119  61  47   121  63  49   121  65  50   122  66  51   126  70  55   127  71  56   127  71  56   126  70  55   128  72  57   132  76  61   129  73  58   123  67  54   122  65  56   125  68  61   120  65  60   115  65  58   116  67  60   109  65  56   103  60  53   104  63  57   101  62  57    99  62  56    96  61  57    94  59  55    91  56  52    90  55  51    94  59  57    98  63  61    94  59  55    83  48  44    75  42  37    76  43  38    77  46  41    78  47  42    86  53  46    95  60  54    98  61  55   106  67  62   112  71  65   110  69  63   104  65  58    98  61  53    95  58  50    89  56  49    78  50  46    65  41  37    62  38  36    59  40  36    54  36  34    54  39  36    53  39  38    45  31  30    65  51  50    64  50  49    55  40  37    53  35  33    66  47  43    75  54  51    74  49  45    70  46  42    71  47  47    70  49  48    69  48  47    62  41  40    58  37  34    68  47  44    77  56  53    75  54  51    65  44  39    73  52  47    74  53  48    75  54  49    78  58  51    70  50  43    57  37  30    53  33  26    57  36  31    53  32  27    50  29  24    53  32  27    55  34  29    53  32  27    51  30  25    51  30  25    51  30  25    50  29  24    48  27  22    44  23  18    42  21  16    42  21  16    44  23  18    45  26  20    41  22  15    41  24  16    41  24  16    41  24  16    41  24  16    40  23  15    39  22  14    38  21  13
235 234 230   228 225 220   238 233 229   245 238 232   129 120 113    38  28  19    53  40  31    57  44  35    38  28  18    49  39  29    62  53  46    52  43  36    45  34  30    49  36  30    49  32  25    55  35  28    74  45  37    83  51  40    93  57  45    96  58  45    98  56  44    99  57  45   103  60  51   107  64  55    99  59  47    95  55  43    98  61  45   101  64  48    93  54  39    88  49  34    93  51  37    94  52  38    98  54  43    94  51  42    91  48  41    90  51  44    88  55  48    85  56  48    78  53  46    74  49  44    89  61  60    82  53  55   100  72  71   122  92  90   125  95  93   131 100  97   136 105 100   130  99  94   123  94  88   115  86  80   106  77  71   102  75  68   102  74  70   100  75  70   100  75  70   100  75  71   107  79  78   113  83  83   113  83  85   107  75  76   107  73  74   111  77  78   116  80  82   120  84  86   120  81  84   120  81  84   122  83  86   125  86  89   125  86  89   126  87  90   131  92  97   137  96 100   141  95  98   142  93  97   143  94  98   147  98 102   147  98 102   141  95  98   140  94  97   143  97 100   141  95  98   136  91  94   133  88  91   132  90  91   135  93  95   138  96  97   138  96  97   139  95  96   138  92  92   140  92  92   140  92  92   139  91  89   139  91  89   140  92  90   142  94  90   145  96  92   145  95  94   139  88  87   143  88  91   146  91  94   143  86  92   144  87  94   152  92 102   151  95 104   160 110 119   160 115 122   172 125 133   176 129 137   175 124 133   169 118 125   159 104 110   140  85  90   140  81  87   135  76  80   129  67  72   121  59  64   118  53  57   115  50  54   116  50  52   116  50  51   114  50  48   109  46  41   106  43  38   105  44  39   104  43  38   102  43  37   104  47  40   108  51  44    99  44  37    97  44  36    95  42  34    91  41  32    89  41  31    89  41  31    89  41  31    89  43  30    92  46  31    91  48  31    91  48  31    91  48  31    95  49  33   100  54  38   104  57  39   105  56  39   112  61  44   118  67  50   123  70  52   122  69  51   122  69  51   126  70  53   124  69  49   121  64  47   123  65  51   122  64  50   122  64  50   122  64  50   122  64  50   124  66  52   125  67  53   126  68  54   124  68  53   128  72  57   130  74  59   128  72  57   129  73  58   130  74  59   127  71  56   122  66  53   121  62  56   123  65  61   118  63  58   115  62  56   115  64  60   109  62  56   103  58  53   102  61  55   102  63  58   100  63  57    97  59  56    94  56  53    91  53  52    92  54  53    93  55  54    95  57  56    93  58  54    87  52  48    80  47  42    78  45  40    78  47  42    81  50  45    87  54  47    92  57  51    97  60  54   106  67  62   112  71  65   108  67  61   102  63  56    98  61  53    94  57  49    88  55  48    74  46  42    64  40  36    63  39  37    60  41  37    56  38  36    54  39  36    53  39  38    44  33  31    62  51  49    63  49  48    57  42  39    56  38  36    67  48  44    72  51  48    74  49  45    74  50  46    72  48  48    67  46  45    64  43  42    58  37  36    58  37  34    73  52  49    82  61  58    76  55  52    69  48  43    75  54  49    74  53  48    73  52  47    75  55  48    67  47  40    56  36  29    55  35  28    55  34  29    50  29  26    49  28  25    54  33  30    58  37  34    55  34  31    50  29  26    48  27  24    47  26  23    48  27  24    49  28  25    47  26  23    44  23  20    42  21  18    42  21  18    42  23  17    42  23  16    41  24  16    41  24  16    41  24  16    40  23  15    38  21  13    36  19  11    35  18  10
235 236 231   236 235 231   231 228 223   244 239 233   199 192 186    48  39  32    52  41  35    57  44  36    40  27  19    57  44  36    73  60  52    59  46  40    47  34  28    52  37  32    53  34  28    57  37  30    71  44  35    79  49  39    89  55  45    96  58  47    98  58  48    99  59  49   104  61  54   108  65  56    97  57  45    93  53  41   100  63  47   103  66  50    93  54  39    88  49  34    94  52  38    95  53  41    97  55  43    93  50  41    88  48  40    85  48  40    85  52  45    83  54  46    78  51  44    72  47  42    87  59  58    80  51  53    98  68  68   118  88  88   123  92  90   134 100  98   142 108 106   132 101  96   128  97  94   122  93  87   115  86  80   110  83  76   110  82  78   113  85  81   111  83  79   108  80  76   107  79  76   116  88  87   116  86  86   111  79  80   115  81  80   118  84  83   122  86  86   125  89  89   129  90  91   126  87  88   127  88  89   133  94  95   134  95  98   130  94  96   134  98 100   144 104 105   153 104 107   151  99 103   149  97 101   151  99 103   148  96 100   142  92  95   142  92  95   146  96  99   140  90  93   135  86  89   132  83  86   133  84  87   136  87  90   136  87  90   133  85  85   129  81  81   134  84  83   134  84  83   135  85  84   136  86  85   137  87  86   138  88  87   140  91  87   142  91  90   145  94  93   140  85  88   143  88  91   150  93  99   150  93 100   153  96 105   161 101 111   160 104 115   171 124 134   174 131 140   187 141 151   189 142 152   178 128 137   167 116 125   155  99 108   139  82  89   135  76  82   132  71  78   126  64  69   122  57  61   116  51  55   115  49  51   114  48  50   115  49  50   107  43  41   106  43  38   108  45  40   111  50  45   111  50  45   106  47  41   103  46  39   102  47  40    95  43  32    92  42  31    89  41  29    87  39  27    85  39  26    87  41  28    88  42  29    90  44  29    87  44  27    92  49  32    92  49  32    92  46  30    94  48  32   102  55  39   106  57  40   105  54  37   112  61  44   120  67  51   127  71  54   126  70  53   126  69  52   127  70  53   127  68  52   124  65  49   127  70  53   125  69  54   126  68  54   125  68  51   125  68  51   126  69  52   127  70  53   128  71  54   127  70  53   131  73  59   132  74  60   128  70  56   125  69  56   125  72  58   125  72  58   122  68  56   116  61  54   119  64  59   115  62  58   111  60  56   112  63  58   107  60  54    99  56  50   100  59  53   100  61  56    97  60  54    94  56  53    91  53  50    91  53  52    92  54  53    93  55  54    91  56  52    93  58  54    90  57  50    86  53  46    83  50  43    82  51  46    85  55  47    88  55  48    88  53  47    95  58  52   104  67  61   109  70  65   106  67  60   101  62  57    99  62  54    95  60  54    90  57  50    75  47  43    66  42  38    65  44  41    65  46  42    60  42  40    58  43  40    57  43  40    48  37  35    58  47  45    62  48  47    59  44  41    60  42  40    67  47  46    69  48  45    73  49  47    80  56  54    72  51  48    65  44  41    60  39  38    55  34  31    57  36  33    75  54  51    84  63  60    74  53  50    72  51  46    76  55  50    72  51  46    64  43  38    60  40  33    54  34  27    54  34  27    62  41  36    54  33  28    49  28  25    49  28  25    56  35  32    60  39  36    55  34  31    48  27  24    45  24  21    43  22  19    47  26  23    50  29  26    50  29  26    47  26  23    43  22  19    40  19  16    39  20  14    43  24  17    42  25  17    42  25  17    41  24  16    39  22  14    37  20  12    35  18  10    34  17   9
223 225 220   236 238 233   221 220 216   233 230 225   224 216 213    83  73  71    28  17  15    58  44  41    45  27  23    61  42  36    69  50  44    74  55  49    57  38  32    52  33  26    47  27  20    52  32  23    63  38  31    74  45  37    82  52  42    89  55  46    96  59  51   103  64  57   107  66  60   105  65  57    87  47  35    96  57  42   101  62  47    96  57  42    93  51  39    94  52  40    99  57  45   102  59  50   102  59  50    95  55  47    90  52  43    88  51  43    88  55  48    87  57  49    85  56  48    81  54  47    84  59  55    80  54  53    90  62  61   105  73  74   115  81  82   130  94  94   140 104 104   137 102 100   127  96  94   126  97  93   125  96  92   121  92  88   117  88  84   115  84  81   116  85  80   117  86  81   117  88  84   119  91  87   123  94  90   123  92  89   124  90  88   125  91  89   132  97  95   140 102 101   134  94  94   134  94  94   134  94  94   135  95  95   136  96  96   136  98  97   137  99  98   139  98  96   152  98  98   153  95  94   148  90  89   143  85  84   139  81  80   137  79  78   137  79  78   135  79  78   136  80  79   134  78  77   132  76  75   130  76  74   131  77  75   131  77  75   130  76  74   129  75  73   127  74  70   131  78  72   134  81  77   136  83  79   141  87  85   147  93  91   148  94  94   144  90  90   138  83  86   132  77  82   140  85  91   152  96 105   152  96 105   155  99 110   168 112 123   176 124 136   187 145 157   191 151 162   195 153 165   180 137 147   161 114 124   153 102 111   146  90  99   131  74  81   132  71  78   128  65  73   124  59  65   120  54  58   117  51  53   118  50  51   117  49  50   114  49  47   108  44  42   103  39  37   101  40  35   107  48  42   111  54  47   104  49  42    97  45  34    93  43  32    91  43  29    87  41  26    82  39  22    81  40  22    84  43  25    86  45  27    87  46  26    87  46  26    89  46  27    90  47  28    94  49  30    96  51  32   100  53  35   104  55  38   107  56  39   108  55  39   114  58  43   121  63  49   128  69  55   130  71  57   130  68  55   129  65  53   132  66  54   131  69  54   131  74  57   124  71  53   125  69  52   127  72  52   126  71  51   124  67  48   126  67  49   131  70  52   131  70  52   132  69  54   131  69  56   127  67  56   122  65  54   118  66  53   116  66  55   116  68  58   112  63  58   113  64  59   111  62  58   107  59  55   101  56  51    98  55  49    98  54  51    96  55  51    97  58  53    98  59  54    95  57  54    93  55  52    92  57  53    95  60  56    93  58  54    86  53  48    80  47  38    88  55  46    90  57  48    85  52  43    85  52  45    90  57  48    86  53  44    77  44  35    87  52  46   103  68  62   110  75  69   103  68  62    97  62  58    96  61  55    90  55  51    80  49  44    71  46  41    62  43  37    59  40  34    58  41  34    55  40  35    54  39  34    56  43  37    62  48  45    65  51  48    63  48  45    60  45  42    61  43  41    65  45  44    69  48  47    72  51  50    74  53  52    66  45  42    63  44  38    59  40  36    50  31  25    65  46  40    81  62  56    73  54  48    71  52  46    70  51  45    76  57  51    69  50  44    63  44  38    54  35  29    49  30  24    58  39  33    58  39  33    51  32  26    52  33  27    50  31  25    47  28  22    49  30  26    54  35  31    50  30  29    40  20  19    47  27  26    46  26  25    46  27  23    47  28  24    47  28  22    45  26  20    40  21  15    36  17  10    41  22  15    39  20  13    38  19  12    41  22  15    45  26  19    46  27  20    42  23  16    38  19  12
220 225 219   228 230 225   217 218 213   225 221 218   232 227 224   127 119 117    37  25  25    57  43  42    49  31  27    58  39  33    61  42  35    67  48  41    58  39  32    59  39  32    54  34  25    56  36  27    61  38  30    75  48  41    85  56  48    92  59  52    97  60  54   102  63  58   103  62  58   101  60  54    88  48  36    95  56  41    99  60  45    95  56  41    92  52  40    95  53  41    97  54  45    95  55  45    98  58  50    92  54  45    87  50  42    85  51  42    87  54  47    86  56  48    84  54  46    80  51  45    82  58  54    78  54  52    87  59  58    99  67  68   110  74  76   125  86  87   134  95  96   132  93  94   131  97  96   131 100  97   133 102  99   132 101  98   131  97  95   129  96  91   130  95  91   130  95  91   124  93  88   128  97  92   133 100  95   133  98  94   130  95  91   132  94  91   138  98  96   144 104 102   136  95  93   134  93  91   132  91  89   130  89  87   131  90  88   131  90  88   130  90  88   133  88  85   145  87  86   148  84  84   145  81  81   142  78  78   138  74  74   136  72  72   134  73  72   135  74  73   135  74  73   134  73  72   133  73  72   134  74  73   135  75  74   135  75  74   131  73  71   129  71  69   126  71  66   129  74  69   131  76  71   133  78  75   140  84  83   147  91  90   146  92  92   141  86  89   142  87  92   138  83  89   145  92 100   158 105 113   158 105 115   161 108 118   174 120 133   181 131 142   177 135 147   177 137 148   175 133 143   160 117 127   143  96 106   140  89  98   137  81  90   127  67  75   122  59  67   122  57  63   119  53  57   116  50  52   116  50  51   116  51  49   119  51  50   118  53  51   111  47  45   109  48  45   107  48  44   107  50  43   106  51  44   103  50  42    94  46  34    88  42  29    87  44  28    84  43  25    81  43  24    80  42  21    82  44  23    84  46  25    86  48  27    89  48  26    93  50  31    98  53  34   102  57  38   106  59  41   108  59  42   109  58  41   108  55  39   108  55  39   117  59  45   122  64  50   131  69  56   133  71  58   133  69  57   132  66  54   131  65  53   129  65  53   128  71  54   121  68  50   121  69  48   124  72  51   126  71  50   125  68  48   127  69  49   133  72  53   131  65  49   132  66  52   130  66  54   127  65  54   122  65  54   119  67  56   118  70  60   119  72  64   113  65  61   110  65  60   108  63  60   106  61  56   102  58  55   100  56  53    98  57  53    98  57  53   100  61  56   102  63  58   100  63  57    97  60  54    96  61  57    98  63  57    94  61  56    89  56  49    81  48  39    84  52  41    86  53  44    87  54  45    89  56  47    91  58  49    91  58  49    89  56  47    89  56  49    97  64  57    99  66  61    96  63  58    94  61  56    95  62  57    93  58  54    83  52  47    70  46  42    63  44  38    61  42  36    61  44  37    60  42  38    57  42  37    59  44  39    63  50  44    60  45  42    57  42  39    58  40  38    60  42  40    66  46  47    71  51  52    73  51  53    73  52  51    63  44  40    65  46  40    63  44  38    56  37  31    69  50  44    82  63  57    73  54  48    70  51  45    69  50  44    71  52  46    64  45  39    61  42  36    54  35  29    47  28  22    56  37  31    59  40  34    54  35  28    53  34  27    49  30  24    46  27  21    47  28  24    49  30  26    48  28  27    44  24  23    45  25  24    44  24  23    43  24  20    44  25  21    44  25  19    43  24  18    39  20  13    36  17  10    42  23  16    40  21  14    39  20  13    41  22  15    44  25  18    44  25  18    42  23  16    39  20  13
217 219 214   218 220 215   215 216 211   216 212 209   232 227 224   175 167 165    54  42  42    47  33  32    54  39  34    56  39  32    53  36  28    58  41  33    56  39  31    61  42  35    56  38  28    56  36  27    60  37  29    76  49  42    90  60  52    97  62  56    99  60  55   100  59  55   100  56  53    98  55  49    91  53  42    94  56  43    95  57  44    92  54  41    92  54  43    96  56  46    94  54  44    90  50  40    95  55  47    91  53  44    87  50  42    85  51  42    86  53  44    84  54  44    82  52  44    78  51  44    83  58  53    78  53  49    82  54  51    92  61  59   103  67  67   116  77  78   126  86  87   124  86  85   133  95  94   135 100  98   139 104 102   140 107 102   141 106 102   141 103 100   142 102 100   142 103  98   136  99  93   140 103  97   143 106 100   142 103  98   138  97  93   139  95  92   143  99  96   149 104 101   140  92  90   136  88  86   130  82  80   127  79  77   125  80  77   125  80  77   124  79  76   126  75  74   135  71  72   141  71  73   141  71  73   138  68  70   134  66  67   132  64  65   133  65  66   135  67  68   131  65  66   131  65  66   133  67  68   135  69  70   136  72  72   135  71  71   132  68  68   127  66  65   124  69  66   125  72  68   126  73  69   129  75  73   137  83  81   145  91  91   144  89  92   139  84  87   145  90  95   142  87  93   152  96 105   165 109 118   165 109 120   168 112 123   178 122 135   182 130 142   173 126 136   169 123 133   165 118 126   153 103 112   138  87  94   138  83  89   136  77  83   125  64  69   119  57  60   120  56  57   119  53  55   116  50  51   114  48  49   112  48  46   113  48  46   112  48  46   105  46  42   108  50  46   106  51  46    99  46  40    94  44  35    93  45  35    87  41  28    78  34  21    83  41  25    82  44  25    82  44  25    82  44  25    83  45  26    85  47  26    91  50  30    93  52  32   101  56  37   106  59  41   112  65  47   117  68  51   114  65  48   112  61  44   110  57  41   111  58  42   120  62  48   123  65  51   130  68  55   133  71  58   134  70  58   132  68  56   129  65  53   127  65  52   125  68  51   120  64  47   121  66  46   124  69  49   126  69  50   125  68  49   128  69  51   134  73  55   132  66  52   132  66  52   129  65  53   126  64  53   120  63  52   117  65  54   117  69  59   119  72  66   113  68  65   110  65  62   107  61  61   105  61  58   104  60  59   102  58  55    99  58  54    99  58  54   102  63  58   105  66  61   105  68  62   103  66  58   102  67  61   103  69  60    99  64  58    93  59  50    87  53  44    85  52  43    87  54  45    92  59  50    94  61  52    93  60  51    95  62  55    98  65  58    96  63  56    93  60  53    91  58  53    90  57  52    91  58  53    90  59  54    91  58  53    84  55  49    72  48  44    64  45  39    62  43  37    63  46  39    63  45  41    60  45  40    62  47  42    67  52  47    53  39  36    53  39  36    55  40  37    59  44  41    66  48  48    70  52  52    72  52  53    71  51  50    61  42  38    66  47  41    67  48  42    62  43  37    72  53  47    80  61  55    72  53  47    70  51  45    68  49  43    65  46  40    58  39  33    60  41  35    55  36  30    47  28  22    53  34  28    59  40  34    58  39  32    52  33  26    48  29  23    47  28  22    46  27  23    43  24  20    44  24  23    47  27  26    44  24  23    42  22  21    41  22  18    40  21  17    40  21  15    40  21  15    38  19  12    36  17  10    44  25  18    43  24  17    41  22  15    41  22  15    41  22  15    42  23  16    42  23  16    42  23  16
208 210 205   212 213 208   214 213 209   212 208 205   216 211 208   203 195 193    87  75  75    32  21  19    55  42  36    53  40  32    50  37  28    52  38  29    52  38  29    55  38  30    53  35  25    52  32  23    59  36  28    76  49  42    91  61  53    97  62  56    98  59  54   100  56  53   100  55  52    97  54  48    97  59  48    95  59  45    92  56  42    89  53  39    93  55  44    97  59  48    94  56  45    87  49  38    92  54  45    89  52  43    86  52  43    85  52  43    85  55  45    84  56  45    81  52  44    78  51  42    82  57  52    78  53  49    80  50  48    86  55  52    98  62  62   112  72  72   120  80  80   122  82  80   130  90  90   133  93  91   137  99  96   140 103  97   142 102 100   142 101  97   144 100  97   145 101  98   140  96  93   144 101  95   147 103 100   145 100  95   142  94  92   140  91  87   143  93  92   147  96  93   139  88  87   133  82  79   128  74  74   121  70  67   121  70  69   121  72  68   120  70  69   123  67  66   129  61  62   133  61  64   136  64  67   135  63  66   132  60  63   130  60  62   131  61  63   133  63  65   130  60  62   129  61  62   130  62  63   132  64  65   135  67  68   133  67  68   131  65  66   127  63  63   127  69  68   125  71  69   126  72  70   129  75  73   137  83  83   145  91  91   145  90  93   140  85  90   143  88  93   141  86  92   152  95 104   162 106 115   163 105 117   163 107 118   171 113 125   172 116 127   165 114 121   161 110 115   159 106 112   151  96 102   140  83  89   138  79  85   132  71  76   119  57  60   115  53  54   118  54  54   120  56  56   119  55  53   116  52  50   110  49  46   107  46  41   105  46  42   101  43  41   102  49  45   100  49  45    93  44  37    88  39  32    85  38  28    80  36  25    76  34  20    77  38  23    80  41  24    83  44  27    85  47  28    86  48  29    89  51  32    96  55  37   101  58  39   109  62  44   113  64  47   117  68  51   122  71  54   118  67  50   114  61  45   114  61  45   120  64  49   123  65  51   124  66  52   126  67  53   131  69  56   132  70  57   133  69  57   132  68  56   130  68  55   125  68  51   120  64  47   120  65  45   123  68  48   125  68  49   123  66  47   128  67  49   132  71  53   136  70  56   135  69  57   130  66  56   125  62  53   117  60  51   114  61  53   114  65  58   116  69  63   115  70  67   109  65  64   105  61  60   102  61  59   103  59  58    97  56  54    96  55  51    98  57  53    99  60  55   105  66  61   108  71  63   109  72  64   109  72  64   107  73  64   102  68  59    95  61  52    94  60  51    95  61  52    97  63  54    99  66  57    98  65  56    96  63  54    96  63  56    98  65  58   101  68  61    94  61  54    92  59  54    89  58  53    85  54  49    84  53  48    86  55  50    83  55  51    77  52  48    68  47  42    63  42  37    63  44  38    65  46  42    64  46  42    65  50  45    70  55  50    52  38  35    56  42  39    61  46  43    62  47  44    63  45  45    64  46  46    68  50  50    73  53  52    60  41  37    67  48  42    67  48  42    64  45  39    71  52  46    76  57  51    71  52  46    70  51  45    67  48  42    60  41  35    58  39  33    63  44  38    59  40  34    50  31  25    51  32  26    58  39  33    59  40  33    50  31  24    47  28  22    50  31  25    47  28  24    39  20  16    40  20  19    47  27  26    43  23  22    42  22  21    40  21  17    39  20  16    39  20  14    39  20  14    39  20  13    40  21  14    45  26  19    44  25  18    42  23  16    40  21  14    39  20  13    40  21  14    42  23  16    43  24  17
204 205 199   207 208 202   207 206 201   211 208 203   201 196 192   215 207 204   137 126 124    37  26  22    44  35  28    46  37  28    50  40  30    49  39  29    50  37  28    48  34  25    50  33  23    51  31  22    59  34  27    75  46  40    89  56  49    95  58  52    94  55  50    98  54  51   100  55  52    99  56  50   101  64  55    96  62  50    90  56  44    86  52  40    91  55  43    96  60  48    95  58  49    89  52  43    90  53  44    87  53  43    88  54  45    88  55  46    87  57  47    85  57  46    83  55  44    80  53  44    82  57  52    79  54  49    79  50  46    85  52  47    99  61  60   110  70  68   117  76  74   121  80  76   126  85  83   129  88  84   134  90  87   136  93  87   137  92  89   138  93  88   141  93  89   144  95  91   136  87  83   139  90  85   141  92  88   141  90  86   139  85  83   137  82  79   136  80  79   140  82  80   136  78  77   131  73  71   126  66  66   121  63  61   121  63  62   121  66  63   122  66  65   125  65  64   127  57  59   132  57  61   134  59  63   132  60  63   131  59  62   131  59  62   132  60  63   132  62  64   128  58  60   127  57  59   127  57  59   128  58  60   131  61  63   131  63  64   131  63  64   127  63  63   130  72  71   129  73  74   130  74  75   131  75  76   139  83  86   147  91  94   148  91  97   144  87  93   143  86  92   141  84  90   151  91  99   157 100 107   157  97 107   154  97 106   159  99 109   156  99 106   154  97 103   150  91  93   145  86  88   139  79  81   129  69  71   125  65  67   120  58  59   108  47  46   107  46  45   111  50  47   115  54  51   118  59  53   118  59  53   114  55  49   109  52  45   104  49  44    94  43  39    92  43  38    92  45  39    90  45  39    85  40  34    78  35  26    76  36  26    80  40  28    74  36  23    78  41  25    83  44  29    87  48  31    92  50  34    97  56  38   104  61  44   110  64  48   115  66  49   116  65  48   118  67  50   121  68  52   118  65  49   116  60  45   120  64  49   128  72  57   124  66  52   124  66  52   125  66  52   126  67  53   129  70  56   133  71  58   134  72  59   135  73  60   129  70  54   124  67  50   123  66  49   125  68  51   124  67  50   121  64  47   125  63  48   128  66  51   136  70  58   135  69  57   129  65  55   122  62  52   116  59  50   113  60  52   113  63  56   114  67  61   114  70  69   105  63  64   101  59  60   100  60  60    98  57  55    92  52  50    92  52  50    96  57  52    96  57  52   104  65  58   110  71  64   111  74  66   111  74  65   110  73  64   105  68  59    98  61  52    97  60  52   101  67  58   105  71  62   105  71  62   103  68  62   101  66  60    98  65  58    95  62  55    97  66  61    92  61  56    95  64  59    92  63  57    81  52  48    79  50  46    86  57  53    85  57  53    80  55  51    71  47  43    62  41  36    61  42  36    63  44  40    64  46  42    65  50  45    70  55  50    57  43  40    63  49  46    68  54  51    64  50  47    57  41  41    55  39  39    62  46  46    73  55  53    60  41  37    67  48  42    63  44  38    61  42  36    67  48  42    69  50  44    68  49  43    69  50  44    67  48  42    60  41  35    62  43  37    67  48  42    64  45  39    53  34  28    50  31  25    56  37  31    56  37  30    48  29  22    47  28  22    53  34  28    50  31  27    39  20  16    36  16  15    43  23  22    44  24  23    43  23  22    42  23  19    40  21  17    40  21  15    40  21  15    42  23  16    43  24  17    45  26  19    44  25  18    42  23  16    40  21  14    39  20  13    39  20  13    42  23  16    44  25  18
201 202 196   200 201 195   200 197 192   205 202 197   196 188 185   216 208 205   183 173 171    69  60  55    34  27  19    39  32  22    49  41  30    49  41  30    53  40  31    49  35  26    52  35  25    54  34  25    58  33  26    72  43  37    85  52  45    88  53  47    91  52  47    95  54  50   100  55  52    99  56  50    97  63  53    94  62  49    89  57  44    85  53  40    88  54  42    93  59  47    92  58  48    88  54  44    86  52  42    86  54  43    88  55  46    87  57  47    86  58  47    85  57  46    82  55  44    80  53  44    80  55  48    81  54  47    77  48  42    82  49  44    96  58  55   106  65  61   112  68  65   117  73  70   122  77  74   125  80  75   130  82  78   131  83  79   132  83  79   132  83  79   135  84  81   138  85  81   128  75  71   130  77  73   132  77  74   132  77  74   133  75  73   132  72  71   130  69  68   128  67  66   131  67  67   128  64  64   125  61  61   120  59  58   119  58  57   120  60  59   124  64  63   127  66  65   128  58  60   128  56  59   128  56  59   129  57  60   130  58  61   130  60  62   130  60  62   130  60  62   128  58  60   125  57  58   124  56  57   125  57  58   128  60  61   129  61  62   128  62  63   126  62  62   130  70  70   130  74  75   133  74  76   132  76  77   139  80  82   146  87  91   148  89  93   146  87  91   144  85  91   142  81  88   148  87  94   153  92  99   149  88  96   147  86  94   148  87  95   144  83  90   147  85  88   138  77  76   132  70  71   125  64  63   116  54  55   115  54  53   115  54  53   106  46  45   109  50  46   110  51  47   111  53  49   112  57  50   112  57  52   108  55  47   101  48  42    93  43  36    83  35  31    78  33  28    77  34  28    80  37  30    76  36  28    69  31  22    71  33  24    77  39  28    77  39  26    80  42  29    85  46  31    90  51  36    97  55  39   102  60  44   108  65  49   114  67  51   119  68  51   116  63  47   119  63  48   122  66  51   121  65  50   117  61  46   122  66  51   131  75  60   125  67  53   126  68  54   127  68  54   128  69  55   128  69  55   130  71  57   133  74  60   135  76  62   132  73  57   127  68  52   125  66  50   125  68  51   124  67  50   120  63  46   120  61  45   125  63  50   129  65  53   129  65  55   126  63  54   121  61  53   117  60  53   114  61  53   115  65  58   113  68  62   108  67  65   102  62  62    99  59  59   100  60  58    96  56  54    90  50  48    92  52  50    99  60  55    99  60  55   106  67  60   111  72  65   110  71  64   108  71  63   108  71  62   105  68  59   100  63  54    91  54  46    99  62  54   105  71  62   105  71  62   103  68  62   102  67  61    99  66  59    96  63  56    92  61  56    88  59  53    94  65  59    91  62  56    77  48  44    79  51  47    90  62  58    88  60  56    80  55  51    71  46  42    62  38  34    60  39  34    61  42  38    62  44  40    65  47  43    67  52  47    60  46  43    66  52  49    70  56  53    64  50  47    56  40  40    53  37  37    60  44  44    69  54  51    61  43  39    67  48  42    59  40  34    59  40  34    65  46  40    65  46  40    67  48  42    68  49  43    67  48  42    63  44  38    68  49  43    68  49  43    63  44  38    55  36  30    49  30  24    55  36  30    53  34  27    46  27  20    47  28  22    54  35  29    52  33  29    41  22  18    35  15  14    38  18  17    43  23  22    43  23  22    43  24  20    42  23  19    41  22  16    42  23  17    44  25  18    46  27  20    44  25  18    42  23  16    40  21  14    38  19  12    39  20  13    40  21  14    41  22  15    42  23  16
196 197 191   192 193 187   197 194 189   195 192 187   190 182 179   201 193 190   200 190 188   116 107 102    35  28  20    38  31  21    50  42  31    49  41  30    57  44  35    52  38  29    55  38  28    54  34  25    57  34  26    69  42  35    80  50  42    85  52  45    89  52  46    93  54  49    95  54  50    92  53  46    88  56  45    89  59  48    88  58  47    85  55  44    86  54  43    89  57  46    88  56  45    84  52  41    82  49  40    84  51  42    87  54  45    87  57  47    86  58  47    84  56  45    80  53  42    79  52  41    79  52  43    79  52  43    73  44  36    77  44  37    91  54  48    99  58  54   102  58  55   108  63  58   111  63  59   116  67  63   122  71  68   124  73  69   126  73  69   126  73  69   127  72  69   127  72  67   123  65  61   122  64  60   123  64  60   126  67  63   129  68  65   128  67  64   125  61  59   120  56  54   123  58  56   124  59  57   123  58  56   119  55  53   117  53  51   117  56  53   122  61  58   129  65  63   127  59  60   125  55  57   122  52  54   121  53  54   124  56  57   126  58  59   126  58  59   122  56  57   123  57  58   123  57  58   123  57  58   124  58  59   125  61  61   126  62  62   125  61  61   122  61  60   127  67  67   130  72  71   133  73  73   131  73  72   134  74  74   140  80  82   144  84  86   144  84  86   139  78  83   137  75  80   141  79  84   144  82  87   139  77  82   138  76  81   138  75  83   132  70  75   137  73  74   129  65  63   126  62  62   122  58  56   113  52  51   113  52  49   113  54  50   107  49  45   111  56  51   107  52  47   102  49  43   100  50  43    99  50  45    95  48  40    87  40  34    79  34  28    74  33  27    72  33  26    72  33  26    72  33  26    71  34  26    71  34  25    73  36  27    76  40  28    82  46  32    84  46  33    88  49  34    93  54  39   101  59  45   106  63  47   111  65  50   113  66  50   119  66  50   117  61  46   121  63  49   128  70  56   128  70  56   122  64  50   121  63  49   127  69  55   125  67  53   128  70  56   131  73  59   131  73  59   129  71  57   127  69  55   128  70  56   131  72  58   132  73  57   128  69  53   126  67  53   127  68  54   124  66  52   120  62  48   121  62  48   126  64  53   128  64  54   128  64  55   127  64  55   122  62  54   118  61  54   114  61  53   112  63  56   111  66  60   104  63  59    98  60  57    98  60  57   100  62  59    95  57  54    89  52  46    95  58  52   106  69  63   109  70  65   113  74  69   112  73  68   107  68  61   103  64  57   105  66  59   105  66  59   104  65  58    88  51  43    93  56  48   100  63  57   104  67  61   100  65  59    95  60  54    94  61  56    97  64  59    92  61  56    87  58  52    91  62  58    84  56  52    72  44  40    79  54  49    90  65  60    81  56  51    79  51  48    69  44  40    62  37  33    62  38  34    63  42  39    60  42  38    60  42  38    60  45  40    59  45  42    61  47  44    61  50  46    59  48  44    59  45  44    58  44  43    60  46  45    63  48  45    62  44  40    67  48  42    57  38  32    59  40  34    66  47  41    64  45  39    66  47  41    66  47  41    69  50  44    67  48  42    72  53  47    66  47  41    57  38  32    53  34  28    48  29  23    54  35  29    50  33  25    45  28  20    45  28  21    51  34  27    51  33  29    43  25  21    36  18  16    34  16  14    39  21  19    41  23  21    42  24  20    42  24  20    40  23  16    41  24  17    43  26  18    45  28  20    42  23  16    39  20  13    37  18  11    37  18  11    40  21  14    42  23  16    41  22  15    40  21  14
190 191 185   187 188 182   197 196 191   185 182 177   182 177 173   182 174 171   194 186 183   148 141 135    42  35  27    42  35  25    51  43  32    50  40  30    60  47  38    54  40  31    55  38  28    50  30  21    57  34  26    67  42  35    78  49  41    82  52  44    86  53  46    90  55  49    90  53  47    84  49  43    79  49  39    84  56  44    88  60  49    86  58  46    84  54  43    86  54  43    85  53  42    82  50  39    79  46  37    82  49  40    84  54  44    86  56  46    84  56  45    82  54  43    78  51  40    77  50  39    76  49  40    77  50  41    72  42  34    73  40  33    87  50  44    93  52  48    94  51  45   102  54  50   100  51  47   106  55  51   115  62  58   120  65  62   121  66  63   121  63  61   120  62  58   119  61  57   120  61  57   118  59  55   118  57  54   122  61  58   129  65  63   129  65  63   123  58  56   116  51  49   118  53  51   121  56  54   122  57  55   118  54  52   115  51  49   113  52  49   119  58  55   125  64  61   125  59  60   120  54  55   117  49  50   115  49  50   119  53  54   122  56  57   120  54  55   117  53  53   121  57  57   119  58  57   123  59  59   123  62  61   125  64  63   125  64  63   122  61  60   118  58  57   124  63  62   129  69  68   132  71  70   129  69  68   130  68  69   135  73  74   140  78  79   141  79  80   133  71  72   130  68  69   135  71  72   137  73  74   132  67  71   132  67  71   131  66  70   125  61  62   121  57  57   117  53  51   118  57  54   119  58  55   112  52  51   109  51  47   106  51  48   100  47  43   104  53  49    96  47  42    88  41  35    86  41  36    88  45  39    87  46  40    82  41  35    75  36  29    80  43  37    83  46  40    82  45  37    78  41  33    77  43  34    82  48  39    84  50  40    82  48  36    87  51  39    87  49  36    90  51  36    97  55  41   104  60  47   110  64  51   111  65  50   112  63  48   120  64  51   118  60  46   124  65  51   134  76  62   135  77  63   125  67  53   119  61  47   121  63  49   125  67  53   130  72  58   135  77  63   135  77  63   130  72  58   126  68  54   125  67  53   127  68  54   134  72  57   130  68  53   126  67  53   127  68  54   125  67  53   121  63  51   122  62  51   125  65  55   129  66  57   130  67  60   129  66  59   122  63  57   117  60  53   112  59  51   108  59  52   105  62  55    99  60  53    96  59  53    98  61  55   101  64  58    97  60  54    91  54  48    99  62  56   113  76  70   119  80  75   119  80  75   114  75  70   104  65  60    99  60  55   101  62  57   105  66  61   106  67  62    90  53  45    88  51  43    94  57  51   100  65  59    97  62  56    87  54  47    87  54  49    95  64  59    97  68  62    89  60  54    87  59  55    78  50  46    66  41  36    79  54  49    88  63  58    73  48  43    76  48  45    69  41  38    62  37  33    64  40  36    64  43  40    59  41  37    56  38  34    54  39  34    56  42  39    54  40  37    52  41  37    56  45  41    63  49  48    65  51  50    62  48  47    59  44  41    63  45  41    68  49  43    57  38  32    61  42  36    68  49  43    65  46  40    66  47  41    65  46  40    70  51  45    70  51  45    74  55  49    62  43  37    52  33  27    51  32  26    47  28  22    53  34  28    49  32  24    45  28  20    44  27  20    48  31  24    49  31  27    45  27  23    37  19  17    33  15  13    37  19  17    40  22  20    42  24  20    42  24  20    40  23  16    40  23  16    42  25  17    44  27  19    41  22  15    38  19  12    35  16   9    36  17  10    40  21  14    43  24  17    41  22  15    38  19  12
181 182 174   182 183 175   184 184 176   185 182 175   184 179 173   181 176 170   178 173 167   178 171 165    76  69  61    40  31  22    38  28  18    57  47  37    53  40  31    45  31  22    53  36  26    61  41  32    56  33  25    67  42  35    74  47  38    75  46  38    82  52  44    90  60  52    88  55  48    74  44  36    70  43  34    77  50  39    88  61  52    88  60  49    79  51  40    81  51  41    86  53  44    82  49  40    80  47  38    83  50  41    85  55  45    85  55  45    81  53  42    79  51  40    79  52  41    80  53  42    83  56  47    71  44  35    66  36  26    71  38  29    78  44  35    82  43  36    86  43  37    92  44  40   100  49  45   104  51  47   109  54  51   114  56  52   115  57  53   116  57  53   115  56  52   114  55  51   115  56  50   111  52  46   113  52  47   121  60  55   127  64  59   124  61  56   118  55  50   115  52  47   117  54  49   116  53  48   114  51  46   112  51  46   113  52  47   114  55  49   116  57  51   118  59  55   122  58  58   116  52  52   112  46  47   110  46  46   113  49  49   115  51  51   114  50  50   110  49  48   120  59  58   120  60  59   122  61  60   122  62  61   122  62  61   121  61  60   120  60  59   119  59  58   120  59  56   124  63  60   127  63  61   122  61  58   123  59  59   128  64  64   131  67  67   131  67  67   126  62  62   125  61  61   125  61  61   127  63  63   129  65  66   128  64  65   124  60  61   121  57  57   116  55  54   117  57  56   118  60  58   116  58  56   109  53  52   103  50  46    97  46  43    95  46  42    93  48  43    89  46  40    81  40  34    74  35  30    73  36  30    75  40  34    74  39  33    70  35  29    79  44  38    81  46  40    79  45  36    74  40  31    77  43  34    86  52  43    93  56  47    93  57  45    94  56  45    99  61  48   107  65  51   110  66  53   115  69  56   118  70  58   121  72  58   124  71  57   125  67  55   119  60  46   127  65  52   133  74  60   129  70  56   126  67  53   130  71  57   132  73  59   128  70  56   130  72  58   131  73  59   132  74  60   131  73  59   131  73  59   132  74  60   135  76  62   131  69  56   132  70  57   131  72  58   131  72  58   129  71  59   125  68  57   123  65  54   122  62  54   124  64  56   126  65  60   127  66  61   122  64  60   113  58  53   106  56  49   105  58  50   104  61  52    97  59  50    94  60  50    97  63  53   100  66  56    97  63  53    94  60  51   103  66  58   114  77  71   114  77  71   123  85  82   116  78  75    99  61  60    92  54  53    91  53  52    95  57  56   102  64  61   101  64  58    92  55  49    85  50  44    89  54  48    95  60  56    94  61  56    89  56  51    84  53  48    87  58  54    83  54  50    82  54  50    80  52  48    72  47  43    75  50  46    78  54  50    73  48  44    74  46  43    73  45  42    64  39  35    60  36  32    65  44  41    63  45  41    58  40  36    56  41  36    58  44  41    54  40  37    49  38  34    50  39  35    57  43  42    61  47  46    61  47  46    61  46  43    66  48  44    64  45  39    64  45  39    68  49  43    69  50  44    65  46  40    65  46  40    69  50  44    67  48  42    76  57  51    72  53  47    59  40  34    53  34  28    49  30  24    47  28  22    51  32  26    52  35  27    45  28  20    43  26  19    48  31  24    46  28  24    38  20  16    37  19  17    43  25  23    42  24  22    46  28  26    50  32  28    49  31  27    45  28  21    42  25  18    43  26  18    45  28  20    39  20  13    38  19  12    38  19  12    37  18  11    37  18  11    38  19  12    38  19  12    39  20  13
175 176 168   176 177 169   178 178 170   178 178 170   179 176 169   177 174 167   175 172 165   174 170 161   106  99  91    52  43  34    36  26  16    54  44  34    56  42  33    49  35  26    57  39  29    61  43  33    56  33  25    64  41  33    71  47  37    75  48  39    79  52  43    85  56  48    83  54  46    75  46  38    72  45  36    77  53  43    89  62  53    88  61  52    79  50  42    79  51  40    86  53  44    82  49  40    82  49  40    84  51  42    85  55  45    86  56  46    85  55  45    83  55  44    82  54  43    82  55  44    80  53  44    71  44  35    66  38  27    67  37  27    75  41  32    80  43  35    85  42  36    90  42  38    95  44  40    99  46  42   103  48  43   107  49  45   110  51  47   111  52  48   110  52  48   110  52  48   107  50  43   105  46  40   108  49  43   117  56  51   122  61  56   117  56  51   113  50  45   108  47  42   114  51  46   111  50  45   110  49  44   109  50  44   110  51  45   111  54  47   114  57  50   115  58  51   119  58  57   117  53  53   112  48  48   112  48  48   115  51  51   116  52  52   112  51  50   110  49  48   116  56  55   117  57  56   118  58  57   119  59  58   119  59  58   119  59  58   118  60  58   119  60  56   115  54  49   121  58  53   122  59  54   118  54  52   117  53  51   119  58  55   123  59  57   120  59  56   117  56  53   115  54  51   112  51  50   112  51  50   114  53  52   117  56  55   120  59  58   120  60  59   117  59  57   116  60  59   114  60  58   108  57  54   101  51  50    96  48  44    91  46  43    90  46  43    78  39  34    78  41  35    76  39  33    72  37  33    72  39  34    76  43  38    72  41  36    69  36  31    81  46  40    82  48  39    84  47  39    82  48  39    89  52  44    95  58  49    96  59  50    93  55  44    96  58  45    98  58  46   104  60  47   111  65  52   116  68  56   119  70  56   121  69  56   126  70  57   131  72  58   131  69  56   137  75  62   139  77  64   129  70  56   126  67  53   130  71  57   131  72  58   131  73  59   132  74  60   133  75  61   131  73  59   130  72  58   129  71  57   131  73  59   133  74  60   132  70  57   133  71  58   133  74  60   131  73  61   128  71  60   126  69  60   124  67  58   124  67  60   125  66  60   126  67  63   126  67  63   119  64  59   110  60  53   105  56  49   101  57  48    99  59  49   103  67  55    98  65  50    97  63  51    99  65  53   100  66  54   102  68  58   109  72  64   113  76  68   106  68  65   113  75  72   109  71  70    98  59  60    94  55  56    90  51  52    92  53  56   100  61  62    99  61  58    90  55  49    87  52  46    92  59  52    95  62  57    89  58  53    86  55  50    87  56  51    88  59  55    85  56  52    83  55  51    78  50  46    72  47  43    79  54  50    83  59  55    77  52  48    73  48  44    70  45  41    61  36  32    58  34  30    63  42  39    61  43  39    56  38  34    55  40  35    50  36  33    52  38  35    52  41  37    55  44  40    59  45  44    61  47  46    63  49  48    66  51  48    67  49  45    65  46  40    66  47  41    69  50  44    69  50  44    65  46  40    63  44  38    65  46  40    66  47  41    71  52  46    64  45  39    55  36  30    54  35  29    52  33  27    49  30  24    50  31  25    51  34  26    44  27  19    43  26  19    48  31  24    46  28  24    39  21  17    38  20  18    43  25  23    42  24  22    44  26  24    46  28  24    45  27  23    42  25  18    40  23  16    41  24  16    43  26  18    40  21  14    39  20  13    38  19  12    38  19  12    38  19  12    38  19  12    39  20  13    40  21  14
167 170 161   168 171 162   170 171 163   171 172 164   171 171 163   170 170 162   168 168 160   169 166 157   143 136 128    75  66  57    38  28  18    47  37  27    54  40  31    53  39  30    61  43  33    60  42  32    56  33  25    61  38  30    69  45  35    74  50  40    76  52  42    78  51  42    78  51  42    78  51  42    71  46  39    78  53  46    91  64  57    89  62  53    79  50  42    79  50  42    86  53  46    83  50  43    85  52  43    85  52  43    86  53  44    86  56  46    88  58  48    87  59  48    85  57  45    83  55  44    78  51  42    74  47  38    68  39  31    64  34  26    67  34  25    74  40  31    82  41  35    85  40  35    88  39  34    92  39  35    95  40  37   100  42  40   102  44  40   104  46  42   103  48  43   104  49  44   101  46  39   102  45  38   106  49  42   115  56  50   119  60  54   114  55  49   109  48  43   105  46  40   108  47  42   107  48  42   105  48  41   103  48  41   105  50  43   106  53  45   108  55  47   111  56  49   117  56  55   116  52  52   113  49  49   113  49  49   115  51  51   115  51  51   111  50  49   108  47  46   113  52  51   113  52  51   112  52  51   113  53  52   114  54  53   116  56  55   117  57  56   118  59  55   110  49  44   114  54  46   114  54  46   110  49  44   109  48  43   111  52  46   114  53  48   112  53  47   111  52  48   110  51  47   107  49  47   105  47  45   105  47  45   107  49  47   108  52  51   110  56  54   108  57  54   105  57  55   102  54  52    95  50  47    88  44  43    82  41  37    80  40  38    79  41  38    70  35  31    72  39  34    73  40  35    73  39  37    74  43  40    79  48  45    80  49  46    79  46  41    87  50  44    89  52  44    92  53  46    95  58  49   101  63  54   104  66  57   101  63  54    98  58  48   106  64  52   101  57  46   104  58  45   114  66  54   123  71  58   123  69  57   125  68  57   129  71  59   129  70  56   136  74  61   144  82  69   140  78  65   129  67  54   129  67  54   133  74  60   131  72  58   135  76  62   135  76  62   134  75  61   132  73  59   129  71  57   128  70  56   130  72  58   133  74  60   134  72  59   136  74  61   135  75  64   132  74  62   128  71  60   123  69  59   124  69  62   125  70  65   127  69  65   124  69  66   121  66  63   116  63  59   109  60  55   104  57  51    99  56  49    96  56  46   104  68  54   102  66  50    99  63  49   100  64  50   106  70  58   111  74  65   107  73  64   102  68  59    97  62  58   102  67  63    99  64  62    95  59  59    93  57  59    86  50  52    84  48  52    92  56  58    99  64  62    91  58  53    90  57  52    98  65  60    98  65  60    88  57  52    85  54  51    89  60  56    83  54  50    82  53  49    78  50  47    70  42  39    67  42  38    79  54  50    85  60  56    74  49  45    72  47  43    68  43  39    57  33  29    53  32  27    60  41  37    59  41  37    55  37  33    55  40  35    47  33  30    53  39  36    59  45  42    61  47  44    61  45  45    61  45  45    64  48  48    67  52  49    68  50  46    68  49  43    69  50  44    72  53  47    70  51  45    66  47  41    63  44  38    63  44  38    64  45  39    65  46  40    57  38  32    51  32  26    55  36  30    55  36  30    50  31  25    50  31  25    49  32  24    41  27  18    41  26  19    45  30  23    44  29  24    38  23  18    37  22  19    42  27  24    39  24  21    40  25  22    39  24  19    38  23  18    37  22  15    37  22  15    38  24  15    40  23  15    40  21  14    40  21  14    39  20  13    38  19  12    38  19  12    39  20  13    40  21  14    40  21  14
162 165 156   163 166 157   163 166 157   163 166 157   164 165 157   162 163 155   160 161 153   160 160 150   160 156 145   104  97  87    52  44  33    36  26  16    44  31  22    54  40  31    59  42  32    56  38  28    55  35  26    59  36  28    67  43  33    74  50  40    74  50  40    71  47  37    73  49  39    79  55  45    71  46  39    78  53  46    90  63  56    89  62  55    80  51  45    82  52  44    89  56  49    86  53  46    89  56  47    87  54  45    86  53  44    88  55  46    91  58  49    88  58  48    84  54  43    79  51  40    80  53  44    79  52  43    71  44  35    60  31  23    59  29  21    67  34  25    77  38  31    80  37  31    84  36  32    86  35  31    91  36  33    93  38  35    95  40  37    98  43  38    99  46  40   101  48  42   103  48  43   101  46  39   107  50  43   114  57  50   118  59  53   114  55  49   110  51  45   109  50  44   104  45  39   103  46  39   101  46  39   101  48  40   102  49  41   102  52  43   105  55  46   108  55  49   111  51  50   110  49  48   108  47  46   109  48  47   110  49  48   109  48  47   106  46  45   104  44  43   107  47  46   107  47  46   105  47  45   106  48  46   107  49  47   109  51  49   111  53  51   113  55  51   106  47  41   111  52  44   112  53  45   109  50  42   106  49  42   109  52  45   111  54  47   107  52  47   108  53  48   110  57  53   111  57  55   107  56  53   102  51  48    96  45  42    93  43  42    91  43  41    89  44  41    86  45  41    84  43  41    79  39  37    73  35  32    70  32  29    68  33  29    68  35  30    71  40  35    75  44  39    77  46  43    76  45  42    79  48  45    88  54  52    93  59  57    94  59  55    98  59  54   100  60  52   104  64  56   108  68  60   109  69  61   107  67  57   109  66  57   110  68  56   117  73  62   109  63  50   109  61  49   121  72  58   132  78  66   131  75  62   130  72  60   135  75  64   121  62  48   133  71  58   143  81  68   137  75  62   126  64  51   131  69  56   137  78  64   134  75  61   134  75  61   135  76  62   134  75  61   132  73  59   130  71  57   129  71  57   132  73  59   135  76  62   135  73  60   137  75  62   136  76  65   130  73  62   123  69  59   119  66  58   121  68  62   123  70  64   123  70  66   121  68  64   117  64  60   112  61  57   107  60  54   103  58  52    98  58  50    95  57  46   100  62  49   102  66  50   102  66  50   101  65  51   105  69  57   109  72  63   101  67  58    91  57  48    96  61  57    96  61  57    93  58  56    94  58  58    94  58  60    85  50  54    82  46  50    89  55  56   104  70  68    91  60  55    91  58  53    98  67  62   101  70  65    93  62  57    88  59  55    92  63  59    87  58  54    88  59  55    85  57  54    77  49  46    75  50  46    91  66  62    94  69  65    79  54  50    70  45  41    65  41  37    54  33  28    53  34  28    62  43  39    60  42  38    55  40  35    58  43  38    54  40  37    57  43  40    61  47  44    62  48  45    62  46  46    62  46  46    63  47  47    67  49  47    69  50  46    70  51  45    72  53  47    74  55  49    73  54  48    69  50  44    65  46  40    63  44  38    62  43  37    64  45  39    57  38  32    52  33  27    55  36  30    53  34  28    50  31  25    52  35  28    47  30  22    41  27  18    40  25  18    43  28  21    43  28  23    38  23  18    38  23  20    41  26  23    41  26  23    39  24  21    37  22  17    36  21  16    36  21  14    37  22  15    37  23  14    38  24  15    41  22  15    40  21  14    40  21  14    39  20  13    39  20  13    40  21  14    40  21  14    41  22  15
158 164 152   158 164 152   157 163 151   156 162 150   156 159 148   154 157 146   152 155 144   151 154 143   153 153 141   129 127 115    75  71  59    32  26  14    32  22  12    49  36  27    54  37  27    50  32  22    56  36  27    58  35  27    65  41  31    73  49  39    74  47  38    70  43  34    74  47  38    83  56  47    72  47  40    77  52  47    89  61  57    88  61  54    82  53  47    86  55  50    93  60  53    89  56  49    92  57  51    89  54  48    87  53  44    87  54  45    90  58  47    89  57  46    83  51  40    76  46  36    85  56  48    84  57  50    75  48  41    61  34  25    54  25  17    59  29  21    70  33  27    74  33  27    80  35  30    84  35  31    88  34  32    90  37  33    93  40  36    94  43  39    95  46  41    97  47  40   102  49  43   100  45  40   102  47  42   107  52  47   112  54  50   109  51  47   108  50  46   110  52  48   102  44  40   100  45  40   100  45  40   100  47  41    99  49  42   100  51  44   101  52  45   103  53  46   102  47  44   104  44  43   103  43  42   103  43  42   102  44  42   101  43  41   100  42  40    98  40  38    99  44  41    99  44  41    98  43  40    98  43  40    98  45  41   100  47  43   102  49  45   103  50  44   102  47  40   107  53  43   109  54  47   106  51  44   105  52  46   107  54  48   107  57  50   104  55  50   102  54  50   103  58  53   104  59  56   102  57  54    93  49  48    85  41  40    77  35  36    74  32  33    72  32  30    72  34  31    73  35  32    71  36  32    67  34  29    66  33  28    64  33  28    64  33  28    71  42  36    78  49  43    84  53  48    85  54  49    88  55  50    95  60  56    99  64  60   102  65  59   109  68  62   111  68  61   115  72  65   118  75  66   115  72  63   110  68  56   115  71  60   126  80  67   130  84  71   119  71  57   120  68  55   132  79  65   143  85  73   140  80  69   137  77  66   139  80  66   121  62  48   133  74  60   142  83  69   135  76  62   126  67  53   134  75  61   144  82  69   138  76  63   134  72  59   135  73  60   135  73  60   135  73  60   133  71  58   132  73  59   136  74  61   139  77  64   134  72  59   134  75  61   134  76  64   128  71  60   119  67  56   114  64  55   115  65  58   117  66  62   117  66  63   114  65  61   111  62  58   108  60  56   105  60  54   103  60  53    99  61  52    99  61  50   102  64  51   107  69  56   107  69  56   102  64  53   100  64  52   102  65  56    98  64  55    92  58  49    94  61  56    92  59  54    87  53  51    90  56  55    95  61  60    89  57  58    88  54  55    94  63  61   102  71  68    88  59  53    85  54  49    94  65  59   103  74  70   101  72  68    99  70  66   100  71  67    80  52  49    81  53  50    80  52  49    74  46  43    76  48  45    91  63  60    91  63  62    70  44  43    65  41  37    61  40  35    55  34  29    58  39  33    65  46  42    61  43  39    56  41  36    61  46  41    62  48  45    59  45  42    58  43  40    59  44  41    65  47  47    68  50  50    69  51  51    70  50  49    68  49  45    71  52  46    73  54  48    74  55  49    73  54  48    72  53  47    68  49  43    65  46  40    60  41  35    65  46  40    62  43  37    57  38  32    55  36  30    49  30  24    48  29  23    54  37  30    46  29  21    41  27  18    41  26  19    42  27  20    42  27  22    39  24  19    38  23  20    40  25  22    41  26  23    40  25  22    38  23  18    37  22  17    37  22  15    38  23  16    38  24  15    39  25  16    41  22  15    40  21  14    40  21  14    39  20  13    39  20  13    40  21  14    40  21  14    41  22  15
153 159 147   153 159 147   151 157 145   150 156 144   148 154 142   146 152 140   144 150 138   143 149 137   140 144 130   141 141 129   101  99  86    46  42  30    31  23  12    41  31  21    47  33  22    47  29  19    57  37  28    59  36  28    65  41  31    72  45  36    72  45  36    70  43  34    75  48  39    84  57  50    76  51  46    78  53  48    87  59  55    88  60  56    85  54  49    89  58  53    95  62  57    88  55  48    93  58  52    90  55  49    88  54  45    89  55  46    91  57  47    88  56  45    83  51  40    76  46  36    85  56  48    85  58  51    78  53  46    66  41  34    57  30  21    55  26  18    63  28  22    70  31  26    77  34  28    81  33  29    85  34  31    87  36  33    89  38  34    90  41  36    91  44  38    91  44  38    96  43  39    94  39  34    94  39  34    99  44  39   102  44  40   101  43  39   102  44  40   106  48  44    97  42  37    98  43  38    97  44  38    96  46  39    95  46  39    95  48  40    96  49  41    97  48  41    96  43  39    96  43  39    95  40  37    94  41  37    93  40  36    91  40  36    92  39  35    90  39  35    93  42  38    91  42  37    92  41  37    90  41  36    90  41  36    89  42  36    91  42  37    91  42  35    95  45  36   100  50  41   102  52  43    99  49  42    97  48  41    98  51  45    97  52  46    94  51  45    88  47  43    87  47  45    85  45  45    81  43  42    77  38  39    71  35  35    69  33  35    67  33  32    64  30  28    66  33  28    70  37  32    69  38  33    70  39  34    69  40  34    70  41  35    72  43  37    68  39  33    80  49  44    91  60  55    95  62  55    97  62  58   102  65  59   104  64  62   105  64  60   120  75  69   115  71  62   120  73  65   124  80  71   125  78  68   119  72  62   123  77  64   135  87  75   135  87  73   128  79  64   130  77  63   140  84  71   148  88  77   147  85  72   142  80  67   140  78  65   133  74  60   140  81  67   146  87  73   140  81  67   132  73  59   139  80  66   145  83  70   137  75  62   132  70  57   134  72  59   136  74  61   136  74  61   135  73  60   135  73  60   137  75  62   139  77  64   131  69  56   131  72  58   130  72  61   124  70  58   119  66  58   113  64  57   113  64  59   113  66  60   111  62  58   110  62  58   109  61  57   105  60  55   102  59  53   101  61  53   100  63  54   102  65  56   109  71  60   111  73  62   108  70  59   101  63  54    97  59  50    98  61  52   100  66  57   103  68  62    92  59  52    90  57  52    85  51  49    85  54  51    96  65  62    98  67  65    97  66  64   100  70  68    96  67  63    86  57  51    80  51  45    87  58  52    99  70  66   106  77  73   108  79  75   110  81  77    88  60  57    86  58  55    84  56  53    81  53  50    84  56  53    96  68  65    93  65  64    73  47  46    61  37  33    59  40  34    59  40  34    63  46  39    67  49  45    57  42  37    53  38  33    60  45  40    64  50  47    59  45  42    55  40  37    56  41  38    65  47  47    72  54  54    76  56  57    76  56  55    66  47  43    70  51  45    72  53  47    71  52  46    70  51  45    70  51  45    68  49  43    65  46  40    58  39  33    64  45  39    64  45  39    60  41  35    56  37  31    47  28  22    46  27  21    54  37  30    45  28  20    42  28  19    41  26  19    41  26  19    40  25  20    38  23  18    38  23  20    38  23  20    40  25  22    40  25  22    40  25  20    39  24  19    38  23  16    37  22  15    38  24  15    39  25  16    40  21  14    40  21  14    39  20  13    38  19  12    38  19  12    39  20  13    40  21  14    40  21  14
